lut/luts/iPhoneCam_Rec709_LogMatch_33.cube
TITLE "iPhone standard camera (Rec.709) - cinematic + Apple Log 2 look match"
LUT_3D_SIZE 5
DOMAIN_MIN 0.0 0.0 0.0
DOMAIN_MAX 1.0 1.0 1.0
0.000000 0.017118 0.051557
0.227428 0.021844 0.048313
0.470672 0.026570 0.026009
0.713359 0.031296 0.015075
0.945724 0.036022 0.014462
0.018220 0.255317 0.056288
0.246040 0.260043 0.059691
0.486571 0.264769 0.041908
0.731928 0.269495 0.028303
0.961623 0.274221 0.030360
0.048418 0.493515 0.048355
0.276227 0.498242 0.052298
0.504047 0.502968 0.056230
0.750496 0.507694 0.041533
0.977522 0.512420 0.046259
0.085316 0.731714 0.043254
0.312343 0.736440 0.047980
0.539369 0.741167 0.052706
0.766395 0.745893 0.057432
0.993421 0.750619 0.062158
0.101215 0.969913 0.059153
0.328241 0.974639 0.063879
0.555268 0.979365 0.068605
0.782294 0.984092 0.073331
1.000000 0.988818 0.078057
0.001483 0.018723 0.268366
0.229350 0.023449 0.271690
0.472277 0.028175 0.249914
0.715280 0.032901 0.238663
0.947329 0.037627 0.238367
0.020100 0.256922 0.279735
0.261150 0.261648 0.261087
0.505983 0.266374 0.248006
0.736202 0.271100 0.249539
0.963228 0.275826 0.254265
0.050287 0.495120 0.271996
0.296775 0.499847 0.257260
0.524595 0.504573 0.261192
0.752101 0.509299 0.265438
0.979127 0.514025 0.270164
0.086922 0.733319 0.267159
0.313948 0.738045 0.271885
0.540974 0.742772 0.276611
0.768000 0.747498 0.281337
0.995026 0.752224 0.286063
0.102820 0.971518 0.283058
0.329846 0.976244 0.287784
0.556873 0.980970 0.292510
0.783899 0.985697 0.297236
1.000000 0.990423 0.301962
0.019830 0.020328 0.464367
0.246856 0.025054 0.469093
0.473882 0.029780 0.473819
0.717155 0.034506 0.462299
0.948934 0.039232 0.462272
0.035729 0.258527 0.480266
0.280038 0.263253 0.467709
0.507905 0.267979 0.471594
0.737807 0.272705 0.473444
0.964833 0.277431 0.478170
0.052161 0.496725 0.495631
0.298655 0.501452 0.480890
0.526680 0.506178 0.484617
0.753706 0.510904 0.489343
0.980732 0.515630 0.494069
0.088527 0.734924 0.491064
0.315553 0.739650 0.495790
0.542579 0.744377 0.500516
0.769605 0.749103 0.505242
0.996631 0.753829 0.509968
0.104425 0.973123 0.506963
0.331452 0.977849 0.511689
0.558478 0.982575 0.516415
0.785504 0.987302 0.521141
1.000000 0.992028 0.525867
0.035522 0.021933 0.674185
0.263384 0.026659 0.678075
0.491204 0.031385 0.682007
0.719030 0.036111 0.685934
0.950539 0.040837 0.686177
0.054092 0.260132 0.687413
0.285360 0.264858 0.687897
0.512386 0.269584 0.692623
0.739412 0.274310 0.697349
0.966438 0.279036 0.702075
0.072662 0.498330 0.700641
0.301259 0.503057 0.703796
0.528285 0.507783 0.708522
0.755311 0.512509 0.713248
0.982337 0.517235 0.717974
0.090132 0.736529 0.714969
0.317158 0.741255 0.719695
0.544184 0.745982 0.724421
0.771210 0.750708 0.729147
0.998236 0.755434 0.733873
0.106030 0.974728 0.730868
0.333057 0.979454 0.735594
0.560083 0.984180 0.740320
0.787109 0.988907 0.745046
1.000000 0.993633 0.749772
0.044040 0.023538 0.891177
0.271066 0.028264 0.895903
0.498092 0.032990 0.900629
0.725118 0.037716 0.905355
0.952144 0.042442 0.910082
0.059939 0.261737 0.907076
0.286965 0.266463 0.911802
0.513991 0.271189 0.916528
0.741017 0.275915 0.921254
0.968043 0.280641 0.925980
0.075838 0.499935 0.922975
0.302864 0.504662 0.927701
0.529890 0.509388 0.932427
0.756916 0.514114 0.937153
0.983942 0.518840 0.941879
0.091737 0.738134 0.938874
0.318763 0.742860 0.943600
0.545789 0.747587 0.948326
0.772815 0.752313 0.953052
0.999841 0.757039 0.957778
0.107635 0.976333 0.954773
0.334662 0.981059 0.959499
0.561688 0.985785 0.964225
0.788714 0.990512 0.968951
1.000000 0.995238 0.973677
