lut/luts/iPhoneCam_Rec709_Cinematic_33.cube
TITLE "iPhone standard camera (Rec.709) - cinematic (matches Apple Log 2 pipeline)"
LUT_3D_SIZE 5
DOMAIN_MIN 0.0 0.0 0.0
DOMAIN_MAX 1.0 1.0 1.0
0.000000 0.000000 0.009212
0.190172 0.000000 0.016122
0.446243 0.000000 0.000000
0.696577 0.000000 0.000000
0.942900 0.002298 0.000000
0.000000 0.227904 0.030026
0.216035 0.234814 0.035000
0.471325 0.241723 0.011275
0.723726 0.248633 0.002693
0.966144 0.255542 0.004094
0.020750 0.481148 0.020700
0.257660 0.488058 0.027610
0.494569 0.494967 0.034519
0.750875 0.501877 0.022032
0.989388 0.508786 0.027338
0.063846 0.734392 0.024092
0.301904 0.741302 0.029854
0.538813 0.748211 0.036763
0.775723 0.755121 0.043673
1.000000 0.762030 0.050582
0.088238 0.987636 0.046188
0.325148 0.994546 0.053098
0.562057 1.000000 0.060007
0.798967 1.000000 0.066917
1.000000 1.000000 0.073826
0.000000 0.000000 0.241559
0.192518 0.000000 0.248468
0.449021 0.000000 0.222722
0.699355 0.000000 0.215269
0.945247 0.004645 0.213197
0.000000 0.230251 0.261708
0.236762 0.237160 0.236712
0.488396 0.244070 0.228897
0.731581 0.250979 0.229531
0.968491 0.257889 0.236441
0.023097 0.483495 0.253047
0.277508 0.490404 0.242454
0.515579 0.497314 0.248202
0.754825 0.504223 0.252775
0.991735 0.511133 0.259685
0.066591 0.736739 0.256040
0.304250 0.743648 0.262200
0.541160 0.750558 0.269110
0.778069 0.757467 0.276019
1.000000 0.764377 0.282929
0.090585 0.989983 0.278535
0.327494 0.996892 0.285444
0.564404 1.000000 0.292354
0.801313 1.000000 0.299263
1.000000 1.000000 0.306173
0.000000 0.000000 0.444525
0.213687 0.000000 0.449444
0.451762 0.000000 0.454411
0.702096 0.000082 0.447221
0.947593 0.006991 0.445543
0.002199 0.232597 0.462149
0.253067 0.239507 0.455100
0.491175 0.246416 0.460812
0.733928 0.253326 0.461878
0.970837 0.260235 0.468787
0.025443 0.485841 0.485393
0.280253 0.492751 0.474402
0.520262 0.499660 0.478212
0.757172 0.506570 0.485122
0.994081 0.513479 0.492031
0.069332 0.739085 0.487992
0.306597 0.745995 0.494547
0.543506 0.752904 0.501456
0.780416 0.759814 0.508366
1.000000 0.766723 0.515275
0.092931 0.992329 0.510881
0.329841 0.999239 0.517791
0.566750 1.000000 0.524700
0.803660 1.000000 0.531610
1.000000 1.000000 0.538519
0.000000 0.000000 0.661965
0.228692 0.000000 0.667680
0.466762 0.000000 0.673429
0.704837 0.002428 0.679174
0.949940 0.009338 0.677890
0.017737 0.234944 0.681304
0.262455 0.241853 0.680405
0.499365 0.248763 0.687315
0.736274 0.255672 0.694224
0.973184 0.262582 0.701134
0.044886 0.488188 0.700643
0.285699 0.495097 0.703649
0.522609 0.502007 0.710559
0.759518 0.508916 0.717468
0.996428 0.515826 0.724378
0.072034 0.741432 0.719984
0.308943 0.748341 0.726893
0.545853 0.755251 0.733803
0.782762 0.762160 0.740712
1.000000 0.769070 0.747622
0.095278 0.994676 0.743228
0.332187 1.000000 0.750137
0.569097 1.000000 0.757047
0.806006 1.000000 0.763956
1.000000 1.000000 0.770866
0.004648 0.000000 0.882598
0.241558 0.000000 0.889508
0.478467 0.000000 0.896417
0.715377 0.004775 0.903327
0.952286 0.011684 0.910236
0.027892 0.237290 0.905842
0.264802 0.244200 0.912752
0.501711 0.251109 0.919661
0.738621 0.258019 0.926571
0.975530 0.264928 0.933480
0.051136 0.490534 0.929086
0.288046 0.497444 0.935996
0.524955 0.504353 0.942905
0.761865 0.511263 0.949815
0.998774 0.518172 0.956724
0.074380 0.743778 0.952330
0.311290 0.750688 0.959240
0.548199 0.757597 0.966149
0.785109 0.764507 0.973059
1.000000 0.771416 0.979968
0.097624 0.997022 0.975574
0.334534 1.000000 0.982484
0.571443 1.000000 0.989393
0.808353 1.000000 0.996303
1.000000 1.000000 1.000000
