lut/luts/iPhoneCam_HLG_to_Rec709_LogMatch_33.cube
TITLE "iPhone standard camera HDR (HLG/BT.2020) to Rec.709 - cinematic + Log look match"
LUT_3D_SIZE 9
DOMAIN_MIN 0.0 0.0 0.0
DOMAIN_MAX 1.0 1.0 1.0
0.000000 0.017118 0.051557
0.042146 0.018086 0.052526
0.189048 0.021108 0.052629
0.357030 0.024329 0.033739
0.522581 0.027638 0.026484
0.745520 0.031913 0.013152
0.945724 0.036022 0.014462
0.945724 0.036022 0.014462
0.945724 0.036022 0.014462
0.000000 0.057377 0.054244
0.036970 0.056184 0.054918
0.192125 0.048325 0.053829
0.359277 0.024944 0.033519
0.524778 0.027680 0.026353
0.748660 0.031973 0.012964
0.945724 0.036022 0.014462
0.945724 0.036022 0.014462
0.945724 0.036022 0.014462
0.008584 0.193688 0.061378
0.008405 0.192547 0.061473
0.178335 0.191075 0.063518
0.365452 0.182142 0.041764
0.534951 0.160420 0.033735
0.757566 0.098742 0.016446
0.945724 0.036022 0.014462
0.945724 0.036022 0.014462
0.945724 0.036022 0.014462
0.031856 0.342533 0.049084
0.031742 0.341805 0.049144
0.104995 0.340616 0.050469
0.344471 0.339514 0.053102
0.534056 0.332069 0.044137
0.766705 0.311938 0.029037
0.959637 0.244466 0.028374
0.958826 0.232320 0.027564
0.961877 0.278021 0.030614
0.048713 0.495477 0.048321
0.048628 0.494934 0.048333
0.048388 0.493065 0.048325
0.284627 0.494137 0.052553
0.508125 0.492039 0.055362
0.759938 0.482770 0.040086
0.973421 0.450972 0.042158
0.973978 0.459329 0.042716
0.976562 0.498041 0.045300
0.079319 0.691223 0.043846
0.079254 0.690807 0.043856
0.079041 0.689448 0.043887
0.078633 0.686836 0.043946
0.443221 0.690083 0.050350
0.726610 0.687249 0.053812
0.988227 0.672806 0.056965
0.989334 0.689382 0.058071
0.991883 0.727581 0.060621
0.101215 0.969913 0.059153
0.101215 0.969913 0.059153
0.101215 0.969913 0.059153
0.101155 0.969006 0.059092
0.100966 0.966172 0.058903
0.616855 0.971576 0.069293
1.000000 0.968890 0.076681
1.000000 0.972486 0.076967
1.000000 0.979651 0.077445
0.101215 0.969913 0.059153
0.101215 0.969913 0.059153
0.101215 0.969913 0.059153
0.101215 0.969913 0.059153
0.101215 0.969913 0.059153
0.658050 0.981505 0.070745
1.000000 0.988818 0.078057
1.000000 0.988818 0.078057
1.000000 0.988818 0.078057
0.101215 0.969913 0.059153
0.101215 0.969913 0.059153
0.101215 0.969913 0.059153
0.101215 0.969913 0.059153
0.262397 0.973269 0.062508
0.748740 0.983393 0.072632
1.000000 0.988818 0.078057
1.000000 0.988818 0.078057
1.000000 0.988818 0.078057
0.000000 0.017282 0.074513
0.042180 0.018309 0.084199
0.189411 0.021384 0.091040
0.357436 0.024624 0.074750
0.522979 0.027925 0.066353
0.745870 0.032151 0.046280
0.945810 0.036108 0.026394
0.945755 0.036052 0.018709
0.945834 0.036132 0.029806
0.000000 0.058004 0.088855
0.035049 0.056547 0.090987
0.193859 0.048409 0.088563
0.359368 0.024817 0.072052
0.525013 0.027937 0.062433
0.748868 0.032174 0.041197
0.945767 0.036064 0.020375
0.945724 0.036022 0.014462
0.945779 0.036077 0.022064
0.008902 0.194218 0.092995
0.008713 0.193022 0.092856
0.179366 0.191385 0.089831
0.367258 0.182312 0.065638
0.536639 0.160414 0.054511
0.758361 0.098395 0.027749
0.945724 0.036022 0.014462
0.945724 0.036022 0.014462
0.945724 0.036022 0.014462
0.031987 0.342824 0.060125
0.031863 0.342072 0.059331
0.101860 0.340738 0.056887
0.343521 0.339598 0.055630
0.533407 0.332079 0.044178
0.766168 0.311868 0.029022
0.959624 0.244278 0.028362
0.958814 0.232136 0.027551
0.961861 0.277785 0.030598
0.048739 0.495639 0.048317
0.048653 0.495089 0.048330
0.048396 0.493199 0.048334
0.282832 0.494203 0.052519
0.507202 0.492089 0.055421
0.759465 0.482781 0.040077
0.973418 0.450937 0.042156
0.973975 0.459279 0.042712
0.976556 0.497940 0.045293
0.079339 0.691350 0.043843
0.079273 0.690930 0.043853
0.079059 0.689561 0.043884
0.078648 0.686934 0.043944
0.441895 0.690135 0.050325
0.725892 0.687288 0.053858
0.988229 0.672829 0.056966
0.989334 0.689382 0.058071
0.991880 0.727539 0.060618
0.101215 0.969913 0.059153
0.101215 0.969913 0.059153
0.101215 0.969913 0.059153
0.101155 0.969015 0.059093
0.100966 0.966175 0.058903
0.615852 0.971549 0.069272
1.000000 0.968866 0.076673
1.000000 0.972459 0.076965
1.000000 0.979610 0.077443
0.101215 0.969913 0.059153
0.101215 0.969913 0.059153
0.101215 0.969913 0.059153
0.101215 0.969913 0.059153
0.101215 0.969913 0.059153
0.656991 0.981483 0.070723
1.000000 0.988818 0.078057
1.000000 0.988818 0.078057
1.000000 0.988818 0.078057
0.101215 0.969913 0.059153
0.101215 0.969913 0.059153
0.101215 0.969913 0.059153
0.101215 0.969913 0.059153
0.258273 0.973183 0.062422
0.747665 0.983371 0.072610
1.000000 0.988818 0.078057
1.000000 0.988818 0.078057
1.000000 0.988818 0.078057
0.000000 0.017940 0.166235
0.040169 0.018946 0.180858
0.189750 0.022146 0.198709
0.358290 0.025469 0.192758
0.524021 0.028843 0.194388
0.747065 0.033163 0.187223
0.946980 0.037278 0.189674
0.947059 0.037357 0.200643
0.947217 0.037515 0.222755
0.000000 0.059600 0.192943
0.029205 0.057454 0.197465
0.192225 0.048599 0.203297
0.359461 0.025509 0.195173
0.525715 0.028879 0.194759
0.749802 0.033209 0.186081
0.946964 0.037262 0.187445
0.947038 0.037336 0.197804
0.947193 0.037491 0.219385
0.010073 0.195950 0.216827
0.009874 0.194615 0.218326
0.185886 0.192554 0.202277
0.369176 0.183184 0.197831
0.545141 0.160928 0.190678
0.759012 0.098203 0.183870
0.946911 0.037209 0.179992
0.946973 0.037271 0.188730
0.947117 0.037415 0.208823
0.033315 0.344489 0.206904
0.033193 0.343696 0.207305
0.095707 0.342013 0.201254
0.347224 0.340907 0.203404
0.546124 0.333251 0.190851
0.765660 0.312788 0.187339
0.960666 0.244789 0.178935
0.959903 0.232705 0.184656
0.963069 0.278331 0.205615
0.050045 0.497167 0.194636
0.049954 0.496593 0.194473
0.049644 0.494637 0.193897
0.290599 0.495426 0.184602
0.517443 0.493251 0.185633
0.759016 0.483793 0.177086
0.974300 0.451718 0.166226
0.974883 0.460042 0.170777
0.977564 0.498665 0.188777
0.080294 0.692489 0.150197
0.080221 0.692054 0.149509
0.079985 0.690640 0.147381
0.079535 0.687940 0.143625
0.441345 0.690959 0.141450
0.725522 0.687999 0.135899
0.988652 0.673314 0.115411
0.989750 0.689797 0.116201
0.992375 0.727916 0.130842
0.101215 0.969913 0.059153
0.101215 0.969913 0.059153
0.101215 0.969913 0.059153
0.101157 0.969039 0.059094
0.100966 0.966183 0.058904
0.612826 0.971469 0.069208
1.000000 0.968795 0.076649
1.000000 0.972376 0.076960
1.000000 0.979488 0.077434
0.101215 0.969913 0.059153
0.101215 0.969913 0.059153
0.101215 0.969913 0.059153
0.101215 0.969913 0.059153
0.101215 0.969913 0.059153
0.653800 0.981417 0.070656
1.000000 0.988815 0.078055
1.000000 0.988818 0.078057
1.000000 0.988818 0.078057
0.101377 0.970075 0.081750
0.101366 0.970064 0.080186
0.101332 0.970030 0.075483
0.101276 0.969974 0.067611
0.245357 0.972914 0.062153
0.744427 0.983303 0.072543
1.000000 0.988818 0.078057
1.000000 0.988818 0.078057
1.000000 0.988818 0.078057
0.001712 0.018741 0.270515
0.038060 0.019553 0.280672
0.194216 0.022898 0.300154
0.358499 0.026287 0.308746
0.524740 0.029709 0.315909
0.747976 0.034084 0.315976
0.947989 0.038287 0.330422
0.948140 0.038437 0.351408
0.948349 0.038647 0.380598
0.007078 0.061120 0.291958
0.025253 0.058025 0.294702
0.195048 0.048188 0.306302
0.358553 0.026325 0.313990
0.525873 0.029751 0.318645
0.750266 0.034135 0.316924
0.947987 0.038285 0.330154
0.948132 0.038430 0.350353
0.948337 0.038635 0.378934
0.020143 0.198013 0.321071
0.020227 0.196462 0.322927
0.183898 0.193700 0.314486
0.366190 0.183833 0.324160
0.544000 0.160942 0.321333
0.758267 0.096961 0.320831
0.947977 0.038275 0.328778
0.948107 0.038405 0.346913
0.948300 0.038598 0.373787
0.034569 0.346388 0.338570
0.034440 0.345520 0.339628
0.075666 0.343234 0.337878
0.353563 0.342154 0.329686
0.548644 0.334277 0.327706
0.764072 0.313472 0.335038
0.961748 0.244976 0.338689
0.961050 0.232973 0.353306
0.964245 0.278396 0.380702
0.051409 0.498999 0.342950
0.051317 0.498392 0.343381
0.051006 0.496348 0.344573
0.288384 0.496814 0.332031
0.521672 0.494605 0.335916
0.757771 0.485010 0.341561
0.975566 0.452810 0.344456
0.976205 0.461120 0.357630
0.978913 0.499539 0.381627
0.081907 0.694399 0.331103
0.081837 0.693953 0.331151
0.081612 0.692507 0.331254
0.081182 0.689761 0.331301
0.435888 0.692585 0.334788
0.723618 0.689639 0.339169
0.990272 0.675032 0.340402
0.991432 0.691474 0.350926
0.994083 0.729426 0.371059
0.103014 0.971711 0.310015
0.103012 0.971710 0.309789
0.103007 0.971705 0.309094
0.102942 0.970860 0.307824
0.102737 0.967964 0.305816
0.609474 0.973078 0.312723
1.000000 0.970380 0.314632
1.000000 0.974014 0.324846
1.000000 0.981203 0.345014
0.103176 0.971874 0.332670
0.103174 0.971872 0.332349
0.103167 0.971865 0.331376
0.103155 0.971853 0.329714
0.103138 0.971835 0.327304
0.650322 0.983197 0.334497
1.000000 0.990630 0.336637
1.000000 0.990733 0.345332
1.000000 0.990850 0.361522
0.103478 0.972176 0.374783
0.103475 0.972173 0.374342
0.103465 0.972163 0.373013
0.103449 0.972147 0.370772
0.223836 0.974631 0.370088
0.741158 0.985362 0.375441
1.000000 0.990953 0.375938
1.000000 0.990990 0.381066
1.000000 0.991061 0.391009
0.012248 0.019564 0.369132
0.032040 0.020023 0.377385
0.199241 0.023594 0.396719
0.361715 0.027071 0.416498
0.524838 0.030541 0.434264
0.748398 0.034957 0.439280
0.948930 0.039228 0.461698
0.949137 0.039435 0.490545
0.949398 0.039696 0.527034
0.017403 0.062014 0.388544
0.017620 0.057909 0.393409
0.197192 0.046972 0.404149
0.361103 0.027095 0.422364
0.525257 0.030579 0.438503
0.750093 0.035006 0.441525
0.948936 0.039234 0.462506
0.949136 0.039434 0.490381
0.949392 0.039690 0.526175
0.030945 0.200188 0.421265
0.031057 0.198377 0.423565
0.175819 0.194683 0.427699
0.368194 0.184198 0.438294
0.541636 0.160438 0.445433
0.756527 0.094700 0.448897
0.948949 0.039247 0.464328
0.949130 0.039428 0.489644
0.949373 0.039671 0.523493
0.041509 0.348483 0.452846
0.041454 0.347517 0.454197
0.051692 0.344387 0.458121
0.355007 0.343354 0.448218
0.545039 0.335170 0.457918
0.762504 0.313896 0.469061
0.962666 0.244618 0.479440
0.962017 0.232686 0.500579
0.965236 0.277816 0.534582
0.052683 0.500968 0.476027
0.052587 0.500316 0.476807
0.052263 0.498146 0.479028
0.274241 0.498133 0.469060
0.516375 0.495873 0.474312
0.755316 0.486054 0.483460
0.976611 0.453598 0.492792
0.977285 0.461846 0.511795
0.980015 0.499971 0.542003
0.083268 0.696284 0.478074
0.083198 0.695817 0.478428
0.082970 0.694312 0.479441
0.082537 0.691476 0.480984
0.427096 0.693984 0.486554
0.719951 0.690991 0.494374
0.991439 0.676328 0.502019
0.992626 0.692653 0.517624
0.995299 0.730362 0.543487
0.104274 0.972972 0.485849
0.104275 0.972972 0.485918
0.104276 0.972974 0.486109
0.104225 0.972185 0.486321
0.104032 0.969268 0.486389
0.603533 0.974197 0.496608
1.000000 0.971568 0.504897
1.000000 0.975198 0.517660
1.000000 0.982313 0.539893
0.104503 0.973201 0.517845
0.104503 0.973201 0.517766
0.104501 0.973199 0.517520
0.104498 0.973196 0.517084
0.104493 0.973191 0.516418
0.644066 0.984415 0.526415
1.000000 0.991984 0.533291
1.000000 0.992149 0.542799
1.000000 0.992270 0.559681
0.104832 0.973530 0.563746
0.104831 0.973529 0.563531
0.104826 0.973524 0.562883
0.104818 0.973516 0.561791
0.185015 0.975175 0.561907
0.734849 0.986602 0.570719
1.000000 0.992378 0.574764
1.000000 0.992419 0.580450
1.000000 0.992496 0.591166
0.020119 0.020617 0.504702
0.020174 0.020671 0.512333
0.192318 0.024353 0.532590
0.362960 0.028005 0.554862
0.528565 0.031548 0.576356
0.747767 0.036006 0.590660
0.950068 0.040365 0.620391
0.950334 0.040632 0.657510
0.950658 0.040956 0.702744
0.023471 0.061743 0.524364
0.023605 0.056894 0.529238
0.186013 0.044018 0.542414
0.360759 0.028001 0.562059
0.528464 0.031574 0.581322
0.748562 0.036045 0.594038
0.950080 0.040378 0.622111
0.950338 0.040636 0.658069
0.950656 0.040954 0.702500
0.037375 0.202738 0.561410
0.037493 0.200577 0.564168
0.159114 0.195411 0.564257
0.371396 0.184108 0.574656
0.543730 0.158976 0.590299
0.752641 0.090390 0.604095
0.950112 0.040410 0.626609
0.950348 0.040646 0.659491
0.950650 0.040948 0.701674
0.051547 0.351272 0.595663
0.051623 0.350159 0.597240
0.051791 0.346419 0.601636
0.340858 0.344739 0.602707
0.538213 0.336093 0.614813
0.759220 0.314064 0.629437
0.963705 0.243486 0.645864
0.963107 0.231640 0.673860
0.966347 0.276287 0.715713
0.065388 0.503645 0.623814
0.065431 0.502921 0.624761
0.065528 0.500551 0.627462
0.252665 0.499706 0.627299
0.506698 0.497412 0.637961
0.750565 0.487230 0.650230
0.977814 0.454344 0.665140
0.978520 0.462471 0.690216
0.981266 0.500099 0.727747
0.084897 0.698808 0.648015
0.084823 0.698306 0.648626
0.084585 0.696703 0.650402
0.084138 0.693717 0.653190
0.411161 0.695678 0.660375
0.713113 0.692611 0.671050
0.992756 0.677832 0.683789
0.993963 0.693947 0.704562
0.996653 0.731242 0.737072
0.105633 0.974331 0.675429
0.105635 0.974333 0.675702
0.105641 0.974339 0.676500
0.105601 0.973618 0.677719
0.105414 0.970651 0.679170
0.592596 0.975243 0.691381
1.000000 0.972689 0.703890
1.000000 0.976314 0.720033
1.000000 0.983314 0.746588
0.105936 0.974633 0.717635
0.105936 0.974634 0.717708
0.105938 0.974635 0.717920
0.105940 0.974638 0.718247
0.105943 0.974641 0.718653
0.632597 0.985608 0.730161
1.000000 0.993370 0.740099
1.000000 0.993645 0.751500
1.000000 0.993786 0.771134
0.106392 0.975089 0.781243
0.106391 0.975088 0.781123
0.106388 0.975086 0.780759
0.106384 0.975081 0.780137
0.106531 0.975078 0.779239
0.723422 0.987909 0.790509
1.000000 0.993954 0.797071
1.000000 0.994045 0.807260
1.000000 0.994173 0.825141
0.040357 0.022310 0.722414
0.041158 0.022373 0.730401
0.173395 0.025240 0.752832
0.366572 0.029442 0.782469
0.537600 0.033173 0.810348
0.747116 0.037715 0.840467
0.951875 0.042173 0.872584
0.952059 0.042357 0.898192
0.952144 0.042442 0.910082
0.044974 0.057781 0.742960
0.044976 0.052019 0.748972
0.155952 0.035971 0.767162
0.361105 0.029396 0.792073
0.535524 0.033175 0.816843
0.746697 0.037734 0.844393
0.951888 0.042186 0.874305
0.952062 0.042360 0.898578
0.952144 0.042442 0.910082
0.055445 0.205614 0.791660
0.055292 0.202932 0.795295
0.086186 0.194692 0.805554
0.349537 0.182517 0.823709
0.534249 0.154802 0.840340
0.746361 0.080851 0.856941
0.951919 0.042217 0.878699
0.952069 0.042366 0.899531
0.952144 0.042442 0.910082
0.065690 0.355602 0.836486
0.065613 0.354246 0.838447
0.065356 0.349835 0.843840
0.307301 0.346460 0.856477
0.522455 0.337065 0.869294
0.751372 0.313631 0.883609
0.965195 0.240583 0.897264
0.964545 0.229187 0.912997
0.967562 0.273428 0.925499
0.076037 0.508111 0.871848
0.075988 0.507259 0.872883
0.075826 0.504525 0.875780
0.188311 0.501760 0.882338
0.485307 0.499714 0.893345
0.740100 0.488876 0.904508
0.979552 0.455219 0.916162
0.980166 0.463190 0.929025
0.982686 0.500021 0.940623
0.089177 0.703095 0.903502
0.089142 0.702528 0.903949
0.089032 0.700737 0.905213
0.088827 0.697461 0.907085
0.376519 0.698299 0.915270
0.699033 0.695148 0.924705
0.994586 0.680157 0.934198
0.995689 0.695876 0.943352
0.998181 0.732402 0.953758
0.107469 0.976166 0.931507
0.107470 0.976167 0.931634
0.107472 0.976170 0.932000
0.107439 0.975611 0.932514
0.107238 0.972534 0.932967
0.572130 0.976487 0.943108
0.994528 0.974026 0.952465
1.000000 0.977573 0.957696
1.000000 0.984253 0.963710
0.107568 0.976266 0.945415
0.107568 0.976266 0.945385
0.107567 0.976265 0.945290
0.107566 0.976264 0.945118
0.107564 0.976262 0.944849
0.614838 0.986819 0.954897
0.999106 0.994814 0.962338
1.000000 0.995172 0.964578
1.000000 0.995192 0.967316
0.107630 0.976328 0.953988
0.107629 0.976327 0.953898
0.107627 0.976325 0.953626
0.107624 0.976322 0.953168
0.107619 0.976317 0.952516
0.710039 0.988850 0.963950
1.000000 0.995066 0.969025
1.000000 0.995209 0.969663
1.000000 0.995215 0.970539
0.044040 0.023538 0.891177
0.044040 0.023538 0.891177
0.107089 0.024850 0.892490
0.354689 0.030005 0.897644
0.538834 0.033838 0.901477
0.758025 0.038401 0.906040
0.952144 0.042442 0.910082
0.952144 0.042442 0.910082
0.952144 0.042442 0.910082
0.045901 0.051424 0.893038
0.045465 0.044893 0.892603
0.081241 0.025373 0.892021
0.347840 0.029862 0.897501
0.535784 0.033774 0.901414
0.756199 0.038363 0.906002
0.952144 0.042442 0.910082
0.952144 0.042442 0.910082
0.952144 0.042442 0.910082
0.056539 0.210798 0.903676
0.056326 0.207618 0.903464
0.055643 0.197377 0.902780
0.333066 0.183576 0.907274
0.532279 0.153702 0.909195
0.751365 0.075610 0.908346
0.952144 0.042442 0.910082
0.952144 0.042442 0.910082
0.952144 0.042442 0.910082
0.066741 0.363652 0.913879
0.066632 0.362013 0.913769
0.066286 0.356826 0.913423
0.286014 0.351895 0.917375
0.518734 0.341630 0.921231
0.755075 0.316774 0.924202
0.965496 0.242477 0.923433
0.964919 0.233831 0.922856
0.967745 0.276171 0.925682
0.076943 0.516496 0.924080
0.076875 0.515472 0.924012
0.076660 0.512255 0.923797
0.144705 0.507852 0.924833
0.479731 0.505753 0.931213
0.742334 0.493963 0.935551
0.979976 0.459419 0.937913
0.980518 0.467537 0.938455
0.982873 0.502821 0.940810
0.089922 0.710950 0.937059
0.089878 0.710286 0.937015
0.089739 0.708212 0.936877
0.089492 0.704504 0.936629
0.367066 0.704592 0.942035
0.699718 0.700897 0.948265
0.995051 0.685269 0.952988
0.996061 0.700406 0.953998
0.998404 0.735505 0.956341
0.107635 0.976333 0.954773
0.107635 0.976333 0.954773
0.107635 0.976333 0.954773
0.107635 0.976333 0.954773
0.107494 0.974222 0.954632
0.573656 0.978003 0.963948
0.994592 0.975382 0.971966
1.000000 0.978568 0.972564
1.000000 0.984732 0.972976
0.107635 0.976333 0.954773
0.107635 0.976333 0.954773
0.107635 0.976333 0.954773
0.107635 0.976333 0.954773
0.107635 0.976333 0.954773
0.618164 0.986961 0.965401
0.999200 0.994893 0.973333
1.000000 0.995230 0.973669
1.000000 0.995234 0.973673
0.107635 0.976333 0.954773
0.107635 0.976333 0.954773
0.107635 0.976333 0.954773
0.107635 0.976333 0.954773
0.107635 0.976333 0.954773
0.712202 0.988919 0.967358
1.000000 0.995096 0.973536
1.000000 0.995238 0.973675
1.000000 0.995238 0.973676
0.044040 0.023538 0.891177
0.044040 0.023538 0.891177
0.146115 0.025663 0.893302
0.383279 0.030600 0.898239
0.567815 0.034441 0.902081
0.801085 0.039297 0.906937
0.952144 0.042442 0.910082
0.952144 0.042442 0.910082
0.952144 0.042442 0.910082
0.046430 0.059341 0.893567
0.045923 0.051745 0.893060
0.117509 0.030053 0.893033
0.374617 0.030419 0.898059
0.563179 0.034345 0.901984
0.797792 0.039229 0.906868
0.952144 0.042442 0.910082
0.952144 0.042442 0.910082
0.952144 0.042442 0.910082
0.057533 0.225689 0.904670
0.057289 0.222035 0.904426
0.056518 0.210481 0.903655
0.356264 0.195255 0.908490
0.556326 0.163209 0.910285
0.789041 0.080876 0.909424
0.952144 0.042442 0.910082
0.952144 0.042442 0.910082
0.952144 0.042442 0.910082
0.067820 0.379807 0.914957
0.067687 0.377821 0.914824
0.067276 0.371658 0.914413
0.304708 0.365655 0.918639
0.538197 0.353693 0.922399
0.780419 0.326678 0.925343
0.966084 0.251287 0.924021
0.965712 0.245719 0.923650
0.968209 0.283119 0.926146
0.078008 0.532446 0.925145
0.077923 0.531178 0.925060
0.077662 0.527264 0.924799
0.164072 0.522190 0.926148
0.494787 0.518708 0.932354
0.759406 0.505179 0.936617
0.980627 0.469172 0.938564
0.981149 0.476997 0.939087
0.983285 0.509003 0.941223
0.090911 0.725773 0.938049
0.090857 0.724953 0.937994
0.090688 0.722429 0.937826
0.090394 0.718019 0.937531
0.377683 0.717422 0.943081
0.712390 0.712493 0.949270
0.995743 0.695641 0.953680
0.996672 0.709565 0.954610
0.998830 0.741894 0.956767
0.107635 0.976333 0.954773
0.107635 0.976333 0.954773
0.107635 0.976333 0.954773
0.107635 0.976333 0.954773
0.107635 0.976333 0.954773
0.586856 0.980838 0.964391
0.997235 0.977853 0.972179
1.000000 0.980379 0.972685
1.000000 0.985636 0.973036
0.107635 0.976333 0.954773
0.107635 0.976333 0.954773
0.107635 0.976333 0.954773
0.107635 0.976333 0.954773
0.107635 0.976333 0.954773
0.629307 0.987193 0.965633
1.000000 0.994925 0.973365
1.000000 0.995231 0.973677
1.000000 0.995234 0.973677
0.107635 0.976333 0.954773
0.107635 0.976333 0.954773
0.107635 0.976333 0.954773
0.107635 0.976333 0.954773
0.107635 0.976333 0.954773
0.718125 0.989042 0.967482
1.000000 0.995105 0.973544
1.000000 0.995238 0.973677
1.000000 0.995238 0.973677
