lut/luts/iPhoneCam_HLG_to_Rec709_Neutral_33.cube
TITLE "iPhone standard camera HDR (HLG/BT.2020) to Rec.709 - neutral"
LUT_3D_SIZE 9
DOMAIN_MIN 0.0 0.0 0.0
DOMAIN_MAX 1.0 1.0 1.0
0.000000 0.000000 0.000000
0.051234 0.000000 0.000000
0.211074 0.000000 0.000000
0.381446 0.000000 0.000000
0.556508 0.000000 0.000000
0.780563 0.000000 0.000000
1.000000 0.000000 0.000000
1.000000 0.000000 0.000000
1.000000 0.000000 0.000000
0.000000 0.042254 0.000000
0.042723 0.040154 0.000000
0.212044 0.028546 0.000000
0.383680 0.000602 0.000000
0.558737 0.000000 0.000000
0.782535 0.000000 0.000000
1.000000 0.000000 0.000000
1.000000 0.000000 0.000000
1.000000 0.000000 0.000000
0.000000 0.185318 0.000000
0.000000 0.184121 0.000000
0.186733 0.178871 0.000000
0.377503 0.165711 0.000000
0.558558 0.139320 0.000000
0.784888 0.070002 0.000000
1.000000 0.000000 0.000000
1.000000 0.000000 0.000000
1.000000 0.000000 0.000000
0.000000 0.341538 0.000000
0.000000 0.340773 0.000000
0.080851 0.337921 0.000000
0.343731 0.331548 0.000000
0.544057 0.319760 0.000000
0.780355 0.293906 0.000000
1.000000 0.218771 0.000000
1.000000 0.206023 0.000000
1.000000 0.253988 0.000000
0.000000 0.502059 0.000000
0.000000 0.501489 0.000000
0.000000 0.499528 0.000000
0.259954 0.495495 0.000000
0.505051 0.488430 0.000000
0.762247 0.473598 0.000000
1.000000 0.435508 0.000000
1.000000 0.444279 0.000000
1.000000 0.484909 0.000000
0.000000 0.707503 0.000000
0.000000 0.707066 0.000000
0.000000 0.705640 0.000000
0.000000 0.702898 0.000000
0.400826 0.698354 0.000000
0.711517 0.689215 0.000000
1.000000 0.668333 0.000000
1.000000 0.685730 0.000000
1.000000 0.725821 0.000000
0.000000 1.000000 0.000000
0.000000 1.000000 0.000000
0.000000 1.000000 0.000000
0.000000 0.998273 0.000000
0.000000 0.992969 0.000000
0.568487 0.983334 0.000000
0.995275 0.965165 0.000000
1.000000 0.970957 0.000000
1.000000 0.983188 0.000000
0.000000 1.000000 0.000000
0.000000 1.000000 0.000000
0.000000 1.000000 0.000000
0.000000 1.000000 0.000000
0.000000 1.000000 0.000000
0.613183 1.000000 0.000000
1.000000 1.000000 0.000000
1.000000 1.000000 0.000000
1.000000 1.000000 0.000000
0.000000 1.000000 0.000000
0.000000 1.000000 0.000000
0.000000 1.000000 0.000000
0.000000 1.000000 0.000000
0.177493 1.000000 0.000000
0.713050 1.000000 0.000000
1.000000 1.000000 0.000000
1.000000 1.000000 0.000000
1.000000 1.000000 0.000000
0.000000 0.000000 0.025631
0.051021 0.000000 0.035369
0.211067 0.000000 0.043061
0.381460 0.000000 0.045972
0.556525 0.000000 0.044623
0.780578 0.000000 0.037088
1.000000 0.000000 0.013323
1.000000 0.000000 0.004742
1.000000 0.000000 0.017132
0.000000 0.042652 0.038616
0.040312 0.040312 0.040312
0.211295 0.028361 0.042815
0.383414 0.000182 0.043212
0.558620 0.000000 0.040379
0.782486 0.000000 0.031610
1.000000 0.000000 0.006603
1.000000 0.000000 0.000000
1.000000 0.000000 0.008489
0.000000 0.185636 0.035410
0.000000 0.184382 0.035144
0.184940 0.179003 0.033935
0.376758 0.165695 0.030925
0.558172 0.139150 0.025324
0.784693 0.069552 0.013793
1.000000 0.000000 0.000000
1.000000 0.000000 0.000000
1.000000 0.000000 0.000000
0.000000 0.341759 0.012382
0.000000 0.340976 0.011425
0.076625 0.338077 0.008433
0.342502 0.331641 0.003104
0.543397 0.319785 0.000000
0.779994 0.293844 0.000000
1.000000 0.218573 0.000000
1.000000 0.205830 0.000000
1.000000 0.253741 0.000000
0.000000 0.502229 0.000000
0.000000 0.501651 0.000000
0.000000 0.499668 0.000000
0.257967 0.495603 0.000000
0.504109 0.488501 0.000000
0.761724 0.473621 0.000000
1.000000 0.435471 0.000000
1.000000 0.444226 0.000000
1.000000 0.484803 0.000000
0.000000 0.707636 0.000000
0.000000 0.707195 0.000000
0.000000 0.705759 0.000000
0.000000 0.703001 0.000000
0.399357 0.698437 0.000000
0.710785 0.689270 0.000000
1.000000 0.668356 0.000000
1.000000 0.685729 0.000000
1.000000 0.725777 0.000000
0.000000 1.000000 0.000000
0.000000 1.000000 0.000000
0.000000 1.000000 0.000000
0.000000 0.998289 0.000000
0.000000 0.992975 0.000000
0.567383 0.983324 0.000000
0.994630 0.965139 0.000000
1.000000 0.970911 0.000000
1.000000 0.983117 0.000000
0.000000 1.000000 0.000000
0.000000 1.000000 0.000000
0.000000 1.000000 0.000000
0.000000 1.000000 0.000000
0.000000 1.000000 0.000000
0.612018 1.000000 0.000000
1.000000 1.000000 0.000000
1.000000 1.000000 0.000000
1.000000 1.000000 0.000000
0.000000 1.000000 0.000000
0.000000 1.000000 0.000000
0.000000 1.000000 0.000000
0.000000 1.000000 0.000000
0.172951 1.000000 0.000000
0.711867 1.000000 0.000000
1.000000 1.000000 0.000000
1.000000 1.000000 0.000000
1.000000 1.000000 0.000000
0.000000 0.000000 0.128044
0.048044 0.000000 0.143356
0.210495 0.000000 0.163449
0.381322 0.000000 0.177982
0.556494 0.000000 0.187750
0.780586 0.000000 0.194648
1.000000 0.000000 0.195633
1.000000 0.000000 0.207880
1.000000 0.000000 0.232570
0.000000 0.043544 0.154771
0.032550 0.040610 0.160115
0.208756 0.027749 0.170810
0.382489 0.000000 0.180828
0.558207 0.000000 0.188278
0.782310 0.000000 0.193555
1.000000 0.000000 0.193144
1.000000 0.000000 0.204710
1.000000 0.000000 0.228806
0.000000 0.186520 0.174031
0.000000 0.185108 0.175583
0.179361 0.179361 0.179361
0.374452 0.165626 0.183632
0.556974 0.138624 0.187009
0.784084 0.068191 0.188778
1.000000 0.000000 0.184822
1.000000 0.000000 0.194579
1.000000 0.000000 0.217013
0.000000 0.342400 0.176653
0.000000 0.341565 0.177029
0.063856 0.338526 0.177912
0.338755 0.331905 0.178714
0.541389 0.319849 0.178754
0.778894 0.293653 0.176819
1.000000 0.217977 0.168164
1.000000 0.205245 0.175456
1.000000 0.252996 0.195467
0.000000 0.502731 0.163587
0.000000 0.502129 0.163390
0.000000 0.500081 0.162696
0.251896 0.495921 0.161231
0.501259 0.488709 0.158606
0.760143 0.473683 0.153006
1.000000 0.435358 0.138538
1.000000 0.444064 0.143001
1.000000 0.484485 0.160229
0.000000 0.708030 0.118908
0.000000 0.707578 0.118127
0.000000 0.706111 0.115713
0.000000 0.703306 0.111445
0.394908 0.698683 0.104949
0.708576 0.689434 0.092787
1.000000 0.668426 0.065252
1.000000 0.685728 0.064905
1.000000 0.725645 0.078418
0.000000 1.000000 0.000000
0.000000 1.000000 0.000000
0.000000 1.000000 0.000000
0.000000 0.998335 0.000000
0.000000 0.992990 0.000000
0.564053 0.983293 0.000000
0.992688 0.965057 0.000000
1.000000 0.970775 0.000000
1.000000 0.982903 0.000000
0.000000 1.000000 0.000000
0.000000 1.000000 0.000000
0.000000 1.000000 0.000000
0.000000 1.000000 0.000000
0.000000 1.000000 0.000000
0.608504 1.000000 0.000000
0.999794 1.000000 0.000000
1.000000 1.000000 0.000000
1.000000 1.000000 0.000000
0.000000 1.000000 0.025231
0.000000 1.000000 0.023484
0.000000 1.000000 0.018233
0.000000 1.000000 0.009445
0.158728 1.000000 0.000000
0.708301 1.000000 0.000000
1.000000 1.000000 0.000000
1.000000 1.000000 0.000000
1.000000 1.000000 0.000000
0.000000 0.000000 0.252793
0.038704 0.000000 0.265401
0.208049 0.000000 0.287729
0.380548 0.000000 0.307652
0.556189 0.000000 0.323577
0.780481 0.000000 0.338569
1.000000 0.000000 0.352784
1.000000 0.000000 0.376216
1.000000 0.000000 0.408808
0.000000 0.044309 0.278029
0.018176 0.040657 0.284432
0.203648 0.026558 0.298515
0.380558 0.000000 0.313520
0.557315 0.000000 0.326710
0.781911 0.000000 0.339781
1.000000 0.000000 0.352485
1.000000 0.000000 0.375038
1.000000 0.000000 0.406950
0.000000 0.187786 0.307330
0.000000 0.186142 0.309841
0.169376 0.179838 0.316306
0.370380 0.165439 0.324582
0.554847 0.137698 0.332905
0.782995 0.065890 0.341902
1.000000 0.000000 0.350948
1.000000 0.000000 0.371196
1.000000 0.000000 0.401203
0.000000 0.343400 0.324048
0.000000 0.342482 0.325150
0.042281 0.339224 0.328151
0.332307 0.332307 0.332307
0.537952 0.319929 0.336787
0.777007 0.293317 0.341817
1.000000 0.216970 0.346608
1.000000 0.204257 0.363831
1.000000 0.251747 0.391048
0.000000 0.503535 0.329405
0.000000 0.502896 0.329871
0.000000 0.500742 0.331152
0.241393 0.496430 0.332938
0.496421 0.489038 0.334823
0.757467 0.473775 0.336700
1.000000 0.435162 0.337554
1.000000 0.443789 0.351651
1.000000 0.483951 0.375593
0.000000 0.708672 0.321157
0.000000 0.708203 0.321199
0.000000 0.706686 0.321277
0.000000 0.703803 0.321259
0.387344 0.699084 0.320950
0.704857 0.689700 0.319807
1.000000 0.668536 0.316456
1.000000 0.685721 0.326987
1.000000 0.725422 0.346647
0.000000 1.000000 0.280100
0.000000 1.000000 0.279847
0.000000 1.000000 0.279071
0.000000 0.998407 0.277715
0.000000 0.993011 0.275688
0.558440 0.983238 0.272016
0.989432 0.964918 0.265765
1.000000 0.970545 0.276786
1.000000 0.982545 0.298780
0.000000 1.000000 0.305394
0.000000 1.000000 0.305036
0.000000 1.000000 0.303950
0.000000 1.000000 0.302094
0.000000 1.000000 0.299403
0.602590 1.000000 0.294715
0.996072 1.000000 0.288762
1.000000 1.000000 0.298425
1.000000 1.000000 0.316501
0.000000 1.000000 0.352415
0.000000 1.000000 0.351923
0.000000 1.000000 0.350439
0.000000 1.000000 0.347937
0.132595 1.000000 0.344375
0.702310 1.000000 0.338326
1.000000 1.000000 0.332598
1.000000 1.000000 0.338323
1.000000 1.000000 0.349425
0.000000 0.000000 0.380978
0.020730 0.000000 0.391430
0.202232 0.000000 0.413350
0.378487 0.000000 0.435940
0.555283 0.000000 0.455826
0.780100 0.000000 0.476369
1.000000 0.000000 0.499360
1.000000 0.000000 0.531569
1.000000 0.000000 0.572310
0.000000 0.044402 0.403568
0.000000 0.040049 0.410151
0.194853 0.024599 0.425654
0.377125 0.000000 0.443589
0.555672 0.000000 0.460590
0.781147 0.000000 0.478990
1.000000 0.000000 0.500262
1.000000 0.000000 0.531386
1.000000 0.000000 0.571351
0.000000 0.189193 0.437482
0.000000 0.187271 0.440586
0.153821 0.180287 0.448779
0.364216 0.165034 0.459723
0.551608 0.136300 0.471388
0.781318 0.062604 0.485184
1.000000 0.000000 0.502296
1.000000 0.000000 0.530563
1.000000 0.000000 0.568356
0.000000 0.344665 0.462662
0.000000 0.343640 0.464244
0.011491 0.340098 0.468634
0.322841 0.332793 0.474972
0.532949 0.319986 0.482277
0.774258 0.292807 0.491554
1.000000 0.215535 0.503865
1.000000 0.202847 0.528369
1.000000 0.249980 0.562987
0.000000 0.504599 0.478196
0.000000 0.503909 0.479052
0.000000 0.501615 0.481478
0.225791 0.497098 0.485109
0.489464 0.489465 0.489464
0.753636 0.473879 0.495209
1.000000 0.434874 0.503198
1.000000 0.443391 0.523811
1.000000 0.483196 0.554714
0.000000 0.709543 0.485475
0.000000 0.709050 0.485858
0.000000 0.707463 0.486952
0.000000 0.704476 0.488605
0.376425 0.699626 0.490596
0.699567 0.690055 0.493186
1.000000 0.668680 0.496899
1.000000 0.685705 0.513113
1.000000 0.725106 0.539193
0.000000 1.000000 0.476425
0.000000 1.000000 0.476503
0.000000 1.000000 0.476716
0.000000 0.998495 0.477012
0.000000 0.993028 0.477305
0.550449 0.983151 0.477504
0.984834 0.964717 0.478271
1.000000 0.970218 0.492087
1.000000 0.982042 0.516393
0.000000 1.000000 0.512151
0.000000 1.000000 0.512062
0.000000 1.000000 0.511788
0.000000 1.000000 0.511301
0.000000 1.000000 0.510557
0.594185 1.000000 0.509177
0.990823 1.000000 0.508398
1.000000 1.000000 0.518905
1.000000 1.000000 0.537754
0.000000 1.000000 0.563401
0.000000 1.000000 0.563161
0.000000 1.000000 0.562437
0.000000 1.000000 0.561218
0.088324 1.000000 0.559483
0.693820 1.000000 0.556542
1.000000 1.000000 0.554595
1.000000 1.000000 0.560944
1.000000 1.000000 0.572910
0.000000 0.000000 0.545036
0.000000 0.000000 0.553556
0.187912 0.000000 0.573738
0.373038 0.000000 0.597351
0.552712 0.000000 0.620122
0.778919 0.000000 0.645467
1.000000 0.000000 0.676547
1.000000 0.000000 0.717993
1.000000 0.000000 0.768498
0.000000 0.043033 0.564481
0.000000 0.037901 0.570756
0.176447 0.020781 0.586493
0.369826 0.000000 0.606192
0.552054 0.000000 0.626192
0.779394 0.000000 0.649295
1.000000 0.000000 0.678468
1.000000 0.000000 0.718617
1.000000 0.000000 0.768226
0.000000 0.190773 0.600132
0.000000 0.188481 0.603645
0.123158 0.180552 0.613122
0.352873 0.164043 0.626240
0.545623 0.133743 0.640818
0.778178 0.057012 0.658974
1.000000 0.000000 0.683490
1.000000 0.000000 0.720205
1.000000 0.000000 0.767304
0.000000 0.346452 0.631865
0.000000 0.345271 0.633865
0.000000 0.341307 0.639483
0.305995 0.333417 0.647776
0.524195 0.319947 0.657644
0.769440 0.291872 0.670789
1.000000 0.213094 0.689858
1.000000 0.200445 0.722015
1.000000 0.247010 0.765439
0.000000 0.506212 0.655891
0.000000 0.505444 0.657096
0.000000 0.502933 0.660552
0.197218 0.498097 0.665837
0.477471 0.490086 0.672395
0.747080 0.473988 0.681546
1.000000 0.434360 0.695669
1.000000 0.442704 0.723075
1.000000 0.481933 0.762194
0.000000 0.710911 0.675484
0.000000 0.710381 0.676154
0.000000 0.708685 0.678098
0.000000 0.705530 0.681138
0.357444 0.700471 0.685016
0.690603 0.690604 0.690603
1.000000 0.668892 0.699838
1.000000 0.685657 0.721842
1.000000 0.724573 0.755377
0.000000 1.000000 0.688100
0.000000 1.000000 0.688405
0.000000 1.000000 0.689297
0.000000 0.998610 0.690712
0.000000 0.993030 0.692553
0.536873 0.982985 0.695271
0.977125 0.964367 0.700569
1.000000 0.969665 0.718070
1.000000 0.981203 0.747213
0.000000 1.000000 0.735225
0.000000 1.000000 0.735307
0.000000 1.000000 0.735543
0.000000 1.000000 0.735909
0.000000 1.000000 0.736362
0.579945 1.000000 0.736969
0.982041 1.000000 0.739417
1.000000 1.000000 0.751929
1.000000 1.000000 0.773852
0.000000 1.000000 0.795673
0.000000 1.000000 0.795584
0.000000 1.000000 0.795314
0.000000 1.000000 0.794855
0.000169 1.000000 0.794190
0.679499 1.000000 0.793036
0.998254 1.000000 0.793418
1.000000 1.000000 0.801016
1.000000 1.000000 0.815107
0.000000 0.000000 0.797394
0.000000 0.000000 0.804026
0.143559 0.000000 0.821303
0.356082 0.000000 0.844098
0.544225 0.000000 0.868406
0.774740 0.000000 0.897796
1.000000 0.000000 0.935266
1.000000 0.000000 0.977153
1.000000 0.000000 1.000000
0.000000 0.037075 0.813173
0.000000 0.030977 0.818698
0.123431 0.011557 0.833418
0.349985 0.000000 0.853464
0.541888 0.000000 0.875472
0.774247 0.000000 0.902687
1.000000 0.000000 0.937825
1.000000 0.000000 0.977856
1.000000 0.000000 1.000000
0.000000 0.191938 0.847628
0.000000 0.189094 0.851318
0.034599 0.179682 0.861530
0.325798 0.161022 0.876255
0.531415 0.127743 0.893363
0.770631 0.045251 0.915323
1.000000 0.000000 0.944508
1.000000 0.000000 0.979600
1.000000 0.000000 1.000000
0.000000 0.349094 0.884106
0.000000 0.347655 0.886475
0.000000 0.342983 0.893191
0.266987 0.334083 0.903226
0.504866 0.319432 0.915244
0.758940 0.289711 0.931110
1.000000 0.208153 0.952920
1.000000 0.196069 0.981443
1.000000 0.242429 1.000000
0.000000 0.508969 0.915303
0.000000 0.508067 0.916771
0.000000 0.505175 0.920969
0.124210 0.499774 0.927337
0.451826 0.491086 0.935109
0.733541 0.474070 0.945590
1.000000 0.433389 0.960433
1.000000 0.441662 0.982203
1.000000 0.480248 1.000000
0.000000 0.713473 0.941948
0.000000 0.712875 0.942690
0.000000 0.710984 0.944823
0.000000 0.707531 0.948090
0.317165 0.702098 0.952119
0.673018 0.691705 0.957603
1.000000 0.669448 0.965555
1.000000 0.685885 0.979972
1.000000 0.724161 0.995222
0.000000 1.000000 0.957468
0.000000 1.000000 0.957679
0.000000 1.000000 0.958283
0.000000 0.998926 0.959197
0.000000 0.993148 0.960297
0.512352 0.982808 0.961702
0.963906 0.963907 0.963906
1.000000 0.968934 0.971915
1.000000 0.980129 0.982028
0.000000 1.000000 0.981806
0.000000 1.000000 0.981750
0.000000 1.000000 0.981574
0.000000 1.000000 0.981255
0.000000 1.000000 0.980757
0.558611 1.000000 0.979811
0.969244 1.000000 0.978786
1.000000 1.000000 0.982287
1.000000 1.000000 0.987457
0.000000 1.000000 0.998410
0.000000 1.000000 0.998228
0.000000 1.000000 0.997681
0.000000 1.000000 0.996761
0.000000 1.000000 0.995460
0.663390 1.000000 0.993270
0.987020 1.000000 0.991022
1.000000 1.000000 0.991995
1.000000 1.000000 0.993714
0.000000 0.000000 1.000000
0.000000 0.000000 1.000000
0.069429 0.000000 1.000000
0.342085 0.000000 1.000000
0.544864 0.000000 1.000000
0.782804 0.000000 1.000000
1.000000 0.000000 1.000000
1.000000 0.000000 1.000000
1.000000 0.000000 1.000000
0.000000 0.029268 1.000000
0.000000 0.022414 1.000000
0.040887 0.001115 1.000000
0.334543 0.000000 1.000000
0.541506 0.000000 1.000000
0.781556 0.000000 1.000000
1.000000 0.000000 1.000000
1.000000 0.000000 1.000000
1.000000 0.000000 1.000000
0.000000 0.196537 1.000000
0.000000 0.193200 1.000000
0.000000 0.182452 1.000000
0.306938 0.161877 1.000000
0.528814 0.126121 1.000000
0.776154 0.039253 1.000000
1.000000 0.000000 1.000000
1.000000 0.000000 1.000000
1.000000 0.000000 1.000000
0.000000 0.356964 1.000000
0.000000 0.355244 1.000000
0.000000 0.349801 1.000000
0.242664 0.339811 1.000000
0.500046 0.323930 1.000000
0.762495 0.292636 1.000000
1.000000 0.209945 1.000000
1.000000 0.200871 1.000000
1.000000 0.245309 1.000000
0.000000 0.517381 1.000000
0.000000 0.516306 1.000000
0.000000 0.512930 1.000000
0.075359 0.506813 1.000000
0.444956 0.497277 1.000000
0.735403 0.479140 1.000000
1.000000 0.437635 1.000000
1.000000 0.446156 1.000000
1.000000 0.483187 1.000000
0.000000 0.721469 1.000000
0.000000 0.720772 1.000000
0.000000 0.718596 1.000000
0.000000 0.714703 1.000000
0.306082 0.708723 1.000000
0.673179 0.697561 1.000000
1.000000 0.674674 1.000000
1.000000 0.690562 1.000000
1.000000 0.727399 1.000000
0.000000 1.000000 1.000000
0.000000 1.000000 1.000000
0.000000 1.000000 1.000000
0.000000 1.000000 1.000000
0.000000 0.996002 1.000000
0.513771 0.985177 1.000000
0.963643 0.965868 1.000000
1.000000 0.970398 1.000000
1.000000 0.980846 1.000000
0.000000 1.000000 1.000000
0.000000 1.000000 1.000000
0.000000 1.000000 1.000000
0.000000 1.000000 1.000000
0.000000 1.000000 1.000000
0.562192 1.000000 1.000000
0.969270 1.000000 1.000000
0.999986 0.999986 0.999986
1.000000 0.999992 0.999992
0.000000 1.000000 1.000000
0.000000 1.000000 1.000000
0.000000 1.000000 1.000000
0.000000 1.000000 1.000000
0.000000 1.000000 1.000000
0.665745 1.000000 1.000000
0.986827 1.000000 1.000000
0.999995 1.000000 0.999997
1.000000 1.000000 0.999998
0.000000 0.000000 1.000000
0.000000 0.000000 1.000000
0.112405 0.000000 1.000000
0.373569 0.000000 1.000000
0.576779 0.000000 1.000000
0.814743 0.000000 1.000000
1.000000 0.000000 1.000000
1.000000 0.000000 1.000000
1.000000 0.000000 1.000000
0.000000 0.037577 1.000000
0.000000 0.029604 1.000000
0.080537 0.005240 1.000000
0.364030 0.000000 1.000000
0.571674 0.000000 1.000000
0.812114 0.000000 1.000000
1.000000 0.000000 1.000000
1.000000 0.000000 1.000000
1.000000 0.000000 1.000000
0.000000 0.212166 1.000000
0.000000 0.208332 1.000000
0.000000 0.196205 1.000000
0.331659 0.173644 1.000000
0.554632 0.135586 1.000000
0.803158 0.043963 1.000000
1.000000 0.000000 1.000000
1.000000 0.000000 1.000000
1.000000 0.000000 1.000000
0.000000 0.373920 1.000000
0.000000 0.371836 1.000000
0.000000 0.365367 1.000000
0.262265 0.353863 1.000000
0.520620 0.336182 1.000000
0.784982 0.302490 1.000000
1.000000 0.219191 1.000000
1.000000 0.213348 1.000000
1.000000 0.252601 1.000000
0.000000 0.534121 1.000000
0.000000 0.532790 1.000000
0.000000 0.528683 1.000000
0.095660 0.521459 1.000000
0.460605 0.510563 1.000000
0.753404 0.490555 1.000000
1.000000 0.447871 1.000000
1.000000 0.456084 1.000000
1.000000 0.489676 1.000000
0.000000 0.737026 1.000000
0.000000 0.736165 1.000000
0.000000 0.733516 1.000000
0.000000 0.728888 1.000000
0.316845 0.721975 1.000000
0.686299 0.709471 1.000000
1.000000 0.685561 1.000000
1.000000 0.700174 1.000000
1.000000 0.734105 1.000000
0.000000 1.000000 1.000000
0.000000 1.000000 1.000000
0.000000 1.000000 1.000000
0.000000 1.000000 1.000000
0.000000 1.000000 1.000000
0.528118 0.989785 1.000000
0.967848 0.969815 1.000000
1.000000 0.973411 1.000000
1.000000 0.982426 1.000000
0.000000 1.000000 1.000000
0.000000 1.000000 1.000000
0.000000 1.000000 1.000000
0.000000 1.000000 1.000000
0.000000 1.000000 1.000000
0.574462 1.000000 1.000000
0.971921 1.000000 1.000000
0.999987 0.999988 1.000000
1.000000 0.999993 1.000000
0.000000 1.000000 1.000000
0.000000 1.000000 1.000000
0.000000 1.000000 1.000000
0.000000 1.000000 1.000000
0.000000 1.000000 1.000000
0.672268 1.000000 1.000000
0.987592 1.000000 1.000000
0.999995 1.000000 1.000000
1.000000 1.000000 1.000000
