lut/luts/iPhoneCam_HLG_to_Rec709_Cinematic_33.cube
TITLE "iPhone standard camera HDR (HLG/BT.2020) to Rec.709 - cinematic"
LUT_3D_SIZE 5
DOMAIN_MIN 0.0 0.0 0.0
DOMAIN_MAX 1.0 1.0 1.0
0.000000 0.000000 0.009212
0.153284 0.000000 0.015046
0.501630 0.000000 0.000000
0.942900 0.002298 0.000000
0.942900 0.002298 0.000000
0.000000 0.162383 0.026442
0.146849 0.161014 0.031004
0.516527 0.131226 0.002603
0.942900 0.002298 0.000000
0.942900 0.002298 0.000000
0.020942 0.483234 0.020891
0.020706 0.480670 0.020656
0.498280 0.483387 0.033583
0.983392 0.443457 0.021342
0.987985 0.493500 0.025935
0.088238 0.987636 0.046188
0.088238 0.987636 0.046188
0.087584 0.980515 0.045534
1.000000 0.979857 0.070457
1.000000 0.998244 0.072263
0.088238 0.987636 0.046188
0.088238 0.987636 0.046188
0.256437 0.992542 0.051094
1.000000 1.000000 0.073826
1.000000 1.000000 0.073826
0.000000 0.000000 0.128214
0.154269 0.000000 0.166937
0.503379 0.000000 0.164084
0.944736 0.004135 0.162668
0.945083 0.004481 0.196997
0.000000 0.165234 0.188295
0.151463 0.162989 0.181086
0.525700 0.132233 0.167315
0.944635 0.004033 0.152621
0.944937 0.004335 0.182539
0.022539 0.485450 0.172989
0.022285 0.482757 0.171915
0.507550 0.485053 0.169561
0.984678 0.444606 0.150084
0.989450 0.494574 0.174810
0.088238 0.987636 0.046188
0.088238 0.987636 0.046188
0.087586 0.980536 0.045536
1.000000 0.979676 0.070375
1.000000 0.997956 0.072236
0.088475 0.987873 0.069637
0.088409 0.987808 0.063134
0.238655 0.992023 0.050575
1.000000 1.000000 0.073826
1.000000 1.000000 0.073826
0.000000 0.000000 0.349550
0.160553 0.000000 0.379350
0.504748 0.000000 0.413197
0.947587 0.006985 0.444948
0.948272 0.007670 0.512747
0.000000 0.170414 0.407303
0.141954 0.165750 0.411364
0.522861 0.132399 0.431454
0.947615 0.007013 0.447677
0.948235 0.007633 0.509072
0.025666 0.490296 0.465557
0.025419 0.487304 0.468329
0.509200 0.488598 0.467150
0.988056 0.447538 0.488948
0.993032 0.496971 0.541319
0.092710 0.992108 0.488971
0.092713 0.992111 0.489241
0.092070 0.985054 0.489140
1.000000 0.983603 0.514625
1.000000 1.000000 0.552084
0.093526 0.992925 0.569805
0.093517 0.992915 0.568909
0.177189 0.995329 0.568605
1.000000 1.000000 0.589259
1.000000 1.000000 0.606280
0.000000 0.000000 0.702275
0.133622 0.000000 0.725878
0.519141 0.000000 0.775337
0.951679 0.011077 0.850073
0.952286 0.011684 0.910236
0.020047 0.177045 0.759848
0.052842 0.165717 0.771568
0.519113 0.127133 0.810055
0.951765 0.011164 0.858663
0.952286 0.011684 0.910236
0.051175 0.498825 0.851203
0.050875 0.495034 0.856117
0.477866 0.493383 0.880436
0.992210 0.450326 0.913758
0.996938 0.498165 0.954888
0.097225 0.996623 0.936045
0.097233 0.996631 0.936803
0.096614 0.989709 0.938037
1.000000 0.986763 0.965314
1.000000 1.000000 0.984662
0.097609 0.997008 0.974096
0.097602 0.997001 0.973419
0.097582 0.996980 0.971354
1.000000 1.000000 0.994509
1.000000 1.000000 0.997370
0.004648 0.000000 0.882598
0.111167 0.000000 0.885705
0.551226 0.000000 0.898539
0.952286 0.011684 0.910236
0.952286 0.011684 0.910236
0.024375 0.198966 0.902324
0.022891 0.182798 0.900840
0.542845 0.136721 0.910533
0.952286 0.011684 0.910236
0.952286 0.011684 0.910236
0.054309 0.525098 0.932258
0.053803 0.519590 0.931753
0.488606 0.513965 0.942798
0.993927 0.465368 0.951877
0.997814 0.507714 0.955764
0.097624 0.997022 0.975574
0.097624 0.997022 0.975574
0.097624 0.997022 0.975574
1.000000 0.993195 0.999517
1.000000 1.000000 1.000000
0.097624 0.997022 0.975574
0.097624 0.997022 0.975574
0.097624 0.997022 0.975574
1.000000 1.000000 1.000000
1.000000 1.000000 1.000000
