lut/luts/iPhoneCam_Rec709_Cinematic_33.cube
TITLE "iPhone standard camera (Rec.709) - cinematic (matches Apple Log 2 pipeline)"
LUT_3D_SIZE 9
DOMAIN_MIN 0.0 0.0 0.0
DOMAIN_MAX 1.0 1.0 1.0
0.000000 0.000000 0.009212
0.071717 0.000000 0.012667
0.190172 0.000000 0.016122
0.317547 0.000000 0.004708
0.446243 0.000000 0.000000
0.567882 0.000000 0.000000
0.696577 0.000000 0.000000
0.824445 0.000000 0.000000
0.942900 0.002298 0.000000
0.000000 0.101282 0.020834
0.083339 0.104737 0.024289
0.202427 0.108192 0.026688
0.331122 0.111647 0.013076
0.459703 0.115101 0.000000
0.581456 0.118556 0.000000
0.710151 0.122011 0.000000
0.836067 0.125466 0.000000
0.954522 0.128920 0.000000
0.000000 0.227904 0.030026
0.097000 0.231359 0.032513
0.216035 0.234814 0.035000
0.344696 0.238269 0.021444
0.471325 0.241723 0.011275
0.595031 0.245178 0.009479
0.723726 0.248633 0.002693
0.847689 0.252088 0.000639
0.966144 0.255542 0.004094
0.001199 0.354526 0.022293
0.120234 0.357981 0.024781
0.239269 0.361436 0.027268
0.358304 0.364891 0.029756
0.482947 0.368345 0.022897
0.608605 0.371800 0.019148
0.737300 0.375255 0.012363
0.859311 0.378710 0.012261
0.977766 0.382164 0.015716
0.020750 0.481148 0.020700
0.139205 0.484603 0.024155
0.257660 0.488058 0.027610
0.376114 0.491513 0.031064
0.494569 0.494967 0.034519
0.622180 0.498422 0.028818
0.750875 0.501877 0.022032
0.870933 0.505332 0.023883
0.989388 0.508786 0.027338
0.040612 0.607770 0.024082
0.159647 0.611225 0.026957
0.278682 0.614680 0.029831
0.397717 0.618135 0.032705
0.516753 0.621589 0.035580
0.635788 0.625044 0.038454
0.764101 0.628499 0.032051
0.882555 0.631954 0.035505
1.000000 0.635408 0.038960
0.063846 0.734392 0.024092
0.182882 0.737847 0.026966
0.301904 0.741302 0.029854
0.420358 0.744757 0.033308
0.538813 0.748211 0.036763
0.657268 0.751666 0.040218
0.775723 0.755121 0.043673
0.894177 0.758576 0.047127
1.000000 0.762030 0.050582
0.076616 0.861014 0.034566
0.195071 0.864469 0.038021
0.313526 0.867924 0.041476
0.431980 0.871379 0.044930
0.550435 0.874833 0.048385
0.668890 0.878288 0.051840
0.787345 0.881743 0.055295
0.905799 0.885198 0.058749
1.000000 0.888652 0.062204
0.088238 0.987636 0.046188
0.206693 0.991091 0.049643
0.325148 0.994546 0.053098
0.443602 0.998001 0.056552
0.562057 1.000000 0.060007
0.680512 1.000000 0.063462
0.798967 1.000000 0.066917
0.917421 1.000000 0.070371
1.000000 1.000000 0.073826
0.000000 0.000000 0.125385
0.072890 0.000000 0.128840
0.191345 0.000000 0.132295
0.318955 0.000000 0.120490
0.447651 0.000000 0.106877
0.569290 0.000000 0.106078
0.697985 0.000000 0.099293
0.825619 0.000017 0.093569
0.944073 0.003472 0.097023
0.000000 0.102456 0.137007
0.084795 0.105910 0.139990
0.213457 0.109365 0.126433
0.342152 0.112820 0.112820
0.463791 0.116275 0.112911
0.592487 0.119729 0.106126
0.718786 0.123184 0.101736
0.837241 0.126639 0.105191
0.955695 0.130094 0.108645
0.000000 0.229078 0.145863
0.108030 0.232532 0.132258
0.227065 0.235987 0.134745
0.354044 0.239442 0.123994
0.477366 0.242897 0.122581
0.606061 0.246351 0.115795
0.730408 0.249806 0.113358
0.848863 0.253261 0.116813
0.967317 0.256716 0.120267
0.002574 0.355700 0.138131
0.128756 0.359154 0.128706
0.247211 0.362609 0.132161
0.365666 0.366064 0.135616
0.490940 0.369519 0.132250
0.619636 0.372973 0.125465
0.742030 0.376428 0.124980
0.860485 0.379883 0.128435
0.978939 0.383338 0.131889
0.021923 0.482322 0.136873
0.147443 0.485776 0.133263
0.266478 0.489231 0.136138
0.385513 0.492686 0.139012
0.504548 0.496141 0.141886
0.633210 0.499595 0.135134
0.753652 0.503050 0.136602
0.872107 0.506505 0.140057
0.990561 0.509960 0.143511
0.041986 0.608944 0.140054
0.170677 0.612398 0.133273
0.289713 0.615853 0.136147
0.408748 0.619308 0.139021
0.527783 0.622763 0.141896
0.646818 0.626217 0.144770
0.765274 0.629672 0.148224
0.883729 0.633127 0.151679
1.000000 0.636582 0.155133
0.065221 0.735566 0.140064
0.184622 0.739020 0.142572
0.303077 0.742475 0.146027
0.421532 0.745930 0.149482
0.539986 0.749385 0.152936
0.658441 0.752839 0.156391
0.776896 0.756294 0.159846
0.895351 0.759749 0.163301
1.000000 0.763204 0.166755
0.077789 0.862188 0.150739
0.196244 0.865642 0.154194
0.314699 0.869097 0.157649
0.433154 0.872552 0.161104
0.551608 0.876007 0.164558
0.670063 0.879461 0.168013
0.788518 0.882916 0.171468
0.906973 0.886371 0.174923
1.000000 0.889826 0.178377
0.089411 0.988810 0.162361
0.207866 0.992264 0.165816
0.326321 0.995719 0.169271
0.444776 0.999174 0.172726
0.563230 1.000000 0.176180
0.681685 1.000000 0.179635
0.800140 1.000000 0.183090
0.918595 1.000000 0.186545
1.000000 1.000000 0.189999
0.000000 0.000000 0.241559
0.074063 0.000000 0.245013
0.192518 0.000000 0.248468
0.320326 0.000000 0.236335
0.449021 0.000000 0.222722
0.570660 0.000000 0.222055
0.699355 0.000000 0.215269
0.826792 0.001190 0.209742
0.945247 0.004645 0.213197
0.000000 0.103629 0.253181
0.095792 0.107084 0.239790
0.214865 0.110538 0.242215
0.343560 0.113993 0.228602
0.465199 0.117448 0.228850
0.593895 0.120903 0.222064
0.719959 0.124357 0.217909
0.838414 0.127812 0.221364
0.956869 0.131267 0.224819
0.000000 0.230251 0.261708
0.109405 0.233706 0.248095
0.236762 0.237160 0.236712
0.359701 0.240615 0.235683
0.488396 0.244070 0.228897
0.613126 0.247525 0.226076
0.731581 0.250979 0.229531
0.850036 0.254434 0.232986
0.968491 0.257889 0.236441
0.003944 0.356873 0.253976
0.129929 0.360328 0.244879
0.254274 0.363782 0.242444
0.373309 0.367237 0.245319
0.501971 0.370692 0.238566
0.624748 0.374147 0.237698
0.743203 0.377601 0.241153
0.861658 0.381056 0.244608
0.980113 0.384511 0.248063
0.023097 0.483495 0.253047
0.148818 0.486950 0.249235
0.277508 0.490404 0.242454
0.396544 0.493859 0.245328
0.515579 0.497314 0.248202
0.636370 0.500769 0.249320
0.754825 0.504223 0.252775
0.873280 0.507678 0.256230
0.991735 0.511133 0.259685
0.043357 0.610117 0.256030
0.172052 0.613572 0.249245
0.292628 0.617026 0.250578
0.411083 0.620481 0.254033
0.529538 0.623936 0.257488
0.647992 0.627391 0.260942
0.766447 0.630845 0.264397
0.884902 0.634300 0.267852
1.000000 0.637755 0.271307
0.066591 0.736739 0.256040
0.185795 0.740194 0.258745
0.304250 0.743648 0.262200
0.422705 0.747103 0.265655
0.541160 0.750558 0.269110
0.659614 0.754013 0.272564
0.778069 0.757467 0.276019
0.896524 0.760922 0.279474
1.000000 0.764377 0.282929
0.078963 0.863361 0.266913
0.197417 0.866816 0.270367
0.315872 0.870270 0.273822
0.434327 0.873725 0.277277
0.552782 0.877180 0.280732
0.671236 0.880635 0.284186
0.789691 0.884089 0.287641
0.908146 0.887544 0.291096
1.000000 0.890999 0.294551
0.090585 0.989983 0.278535
0.209039 0.993438 0.281989
0.327494 0.996892 0.285444
0.445949 1.000000 0.288899
0.564404 1.000000 0.292354
0.682858 1.000000 0.295808
0.801313 1.000000 0.299263
0.919768 1.000000 0.302718
1.000000 1.000000 0.306173
0.000000 0.000000 0.344780
0.083622 0.000000 0.347212
0.202657 0.000000 0.349699
0.321696 0.000000 0.352179
0.450391 0.000000 0.338567
0.572030 0.000000 0.338031
0.700726 0.000000 0.331245
0.827965 0.002363 0.325915
0.946420 0.005818 0.329370
0.000000 0.104802 0.353148
0.106823 0.108257 0.339535
0.225891 0.111712 0.341967
0.344768 0.115166 0.344718
0.466570 0.118621 0.344826
0.595265 0.122076 0.338040
0.721132 0.125531 0.334082
0.839587 0.128985 0.337537
0.958042 0.132440 0.340992
0.000000 0.231424 0.361516
0.119481 0.234879 0.349431
0.242036 0.238334 0.348784
0.361109 0.241788 0.351621
0.489804 0.245243 0.344835
0.614300 0.248698 0.342250
0.732754 0.252153 0.345704
0.851209 0.255607 0.349159
0.969664 0.259062 0.352614
0.005314 0.358046 0.369821
0.131103 0.361501 0.361053
0.255649 0.364956 0.358416
0.384339 0.368410 0.351635
0.507467 0.371865 0.350417
0.625922 0.375320 0.353872
0.744376 0.378775 0.357326
0.862831 0.382229 0.360781
0.981286 0.385684 0.364236
0.024270 0.484668 0.369220
0.150188 0.488123 0.365211
0.278883 0.491578 0.358426
0.400634 0.495032 0.358584
0.519089 0.498487 0.362039
0.637544 0.501942 0.365494
0.755998 0.505397 0.368948
0.874453 0.508851 0.372403
0.992908 0.512306 0.375858
0.044727 0.611290 0.372006
0.173422 0.614745 0.365221
0.293801 0.618200 0.366751
0.412256 0.621654 0.370206
0.530711 0.625109 0.373661
0.649166 0.628564 0.377116
0.767620 0.632019 0.380570
0.886075 0.635473 0.384025
1.000000 0.638928 0.387480
0.067962 0.737912 0.372016
0.186969 0.741367 0.374919
0.305423 0.744822 0.378373
0.423878 0.748276 0.381828
0.542333 0.751731 0.385283
0.660788 0.755186 0.388738
0.779242 0.758641 0.392192
0.897697 0.762095 0.395647
1.000000 0.765550 0.399102
0.080136 0.864534 0.383086
0.198591 0.867989 0.386541
0.317045 0.871444 0.389995
0.435500 0.874898 0.393450
0.553955 0.878353 0.396905
0.672410 0.881808 0.400360
0.790864 0.885263 0.403814
0.909319 0.888717 0.407269
1.000000 0.892172 0.410724
0.091758 0.991156 0.394708
0.210213 0.994611 0.398163
0.328667 0.998066 0.401617
0.447122 1.000000 0.405072
0.565577 1.000000 0.408527
0.684032 1.000000 0.411982
0.802486 1.000000 0.415436
0.920941 1.000000 0.418891
1.000000 1.000000 0.422346
0.000000 0.000000 0.444525
0.094652 0.000000 0.446956
0.213687 0.000000 0.449444
0.332722 0.000000 0.451931
0.451762 0.000000 0.454411
0.573401 0.000000 0.454007
0.702096 0.000082 0.447221
0.829138 0.003537 0.442088
0.947593 0.006991 0.445543
0.000000 0.105975 0.452892
0.110797 0.109430 0.452217
0.229866 0.112885 0.455058
0.348901 0.116340 0.457932
0.467940 0.119794 0.460802
0.596635 0.123249 0.454016
0.722306 0.126704 0.450256
0.840760 0.130159 0.453710
0.959215 0.133613 0.457165
0.002199 0.232597 0.462149
0.124372 0.236052 0.461886
0.253067 0.239507 0.455100
0.372135 0.242962 0.457941
0.491175 0.246416 0.460812
0.615473 0.249871 0.458423
0.733928 0.253326 0.461878
0.852382 0.256781 0.465332
0.970837 0.260235 0.468787
0.013821 0.359219 0.473771
0.137946 0.362674 0.471556
0.266641 0.366129 0.464770
0.390185 0.369584 0.463135
0.508640 0.373038 0.466590
0.627095 0.376493 0.470045
0.745550 0.379948 0.473500
0.864004 0.383403 0.476954
0.982459 0.386857 0.480409
0.025443 0.485841 0.485393
0.151558 0.489296 0.481187
0.280253 0.492751 0.474402
0.401807 0.496206 0.474757
0.520262 0.499660 0.478212
0.638717 0.503115 0.481667
0.757172 0.506570 0.485122
0.875626 0.510025 0.488576
0.994081 0.513479 0.492031
0.046098 0.612463 0.487983
0.174793 0.615918 0.481197
0.294975 0.619373 0.482925
0.413429 0.622828 0.486379
0.531884 0.626282 0.489834
0.650339 0.629737 0.493289
0.768794 0.633192 0.496744
0.887248 0.636647 0.500198
1.000000 0.640101 0.503653
0.069332 0.739085 0.487992
0.188142 0.742540 0.491092
0.306597 0.745995 0.494547
0.425051 0.749450 0.498001
0.543506 0.752904 0.501456
0.661961 0.756359 0.504911
0.780416 0.759814 0.508366
0.898870 0.763269 0.511820
1.000000 0.766723 0.515275
0.081309 0.865707 0.499259
0.199764 0.869162 0.502714
0.318219 0.872617 0.506169
0.436673 0.876072 0.509623
0.555128 0.879526 0.513078
0.673583 0.882981 0.516533
0.792038 0.886436 0.519988
0.910492 0.889891 0.523442
1.000000 0.893345 0.526897
0.092931 0.992329 0.510881
0.211386 0.995784 0.514336
0.329841 0.999239 0.517791
0.448295 1.000000 0.521245
0.566750 1.000000 0.524700
0.685205 1.000000 0.528155
0.803660 1.000000 0.531610
0.922114 1.000000 0.535064
1.000000 1.000000 0.538519
0.000000 0.000000 0.555078
0.098626 0.000000 0.558490
0.217662 0.000000 0.561364
0.336697 0.000000 0.564239
0.455732 0.000000 0.567113
0.574771 0.000000 0.569983
0.703466 0.001255 0.563197
0.830312 0.004710 0.558262
0.948766 0.008165 0.561716
0.000000 0.107149 0.565318
0.121827 0.110603 0.558533
0.240896 0.114058 0.561374
0.359931 0.117513 0.564248
0.478966 0.120968 0.567122
0.598006 0.124422 0.569993
0.723479 0.127877 0.566429
0.841934 0.131332 0.569884
0.960388 0.134787 0.573338
0.006707 0.233771 0.574988
0.135402 0.237225 0.568202
0.261282 0.240680 0.564232
0.379737 0.244135 0.567687
0.498191 0.247590 0.571141
0.616646 0.251044 0.574596
0.735101 0.254499 0.578051
0.853556 0.257954 0.581506
0.972010 0.261409 0.584960
0.020281 0.360393 0.584657
0.148976 0.363847 0.577872
0.272904 0.367302 0.575854
0.391359 0.370757 0.579309
0.509813 0.374212 0.582763
0.628268 0.377666 0.586218
0.746723 0.381121 0.589673
0.865178 0.384576 0.593128
0.983632 0.388031 0.596582
0.033856 0.487015 0.594327
0.162551 0.490469 0.587541
0.284526 0.493924 0.587476
0.402981 0.497379 0.590931
0.521435 0.500834 0.594385
0.639890 0.504288 0.597840
0.758345 0.507743 0.601295
0.876800 0.511198 0.604750
0.995254 0.514653 0.608204
0.047468 0.613637 0.603959
0.176163 0.617091 0.597173
0.296148 0.620546 0.599098
0.414603 0.624001 0.602553
0.533057 0.627456 0.606007
0.651512 0.630910 0.609462
0.769967 0.634365 0.612917
0.888422 0.637820 0.616372
1.000000 0.641275 0.619826
0.070702 0.740259 0.603968
0.189315 0.743713 0.607265
0.307770 0.747168 0.610720
0.426225 0.750623 0.614175
0.544679 0.754078 0.617629
0.663134 0.757532 0.621084
0.781589 0.760987 0.624539
0.900044 0.764442 0.627994
1.000000 0.767897 0.631448
0.082482 0.866881 0.615432
0.200937 0.870335 0.618887
0.319392 0.873790 0.622342
0.437847 0.877245 0.625797
0.556301 0.880700 0.629251
0.674756 0.884154 0.632706
0.793211 0.887609 0.636161
0.911666 0.891064 0.639616
1.000000 0.894519 0.643070
0.094104 0.993503 0.627054
0.212559 0.996957 0.630509
0.331014 1.000000 0.633964
0.449469 1.000000 0.637419
0.567923 1.000000 0.640873
0.686378 1.000000 0.644328
0.804833 1.000000 0.647783
0.923288 1.000000 0.651238
1.000000 1.000000 0.654692
0.000000 0.000000 0.661965
0.109657 0.000000 0.664806
0.228692 0.000000 0.667680
0.347727 0.000000 0.670555
0.466762 0.000000 0.673429
0.585797 0.000000 0.676303
0.704837 0.002428 0.679174
0.831485 0.005883 0.674435
0.949940 0.009338 0.677890
0.004163 0.108322 0.671635
0.132378 0.111777 0.665328
0.250833 0.115231 0.668783
0.369288 0.118686 0.672238
0.487743 0.122141 0.675693
0.606197 0.125596 0.679147
0.724652 0.129050 0.682602
0.843107 0.132505 0.686057
0.961562 0.135960 0.689512
0.017737 0.234944 0.681304
0.144000 0.238399 0.676950
0.262455 0.241853 0.680405
0.380910 0.245308 0.683860
0.499365 0.248763 0.687315
0.617819 0.252218 0.690769
0.736274 0.255672 0.694224
0.854729 0.259127 0.697679
0.973184 0.262582 0.701134
0.031312 0.361566 0.690974
0.155622 0.365021 0.688572
0.274077 0.368475 0.692027
0.392532 0.371930 0.695482
0.510987 0.375385 0.698937
0.629441 0.378840 0.702391
0.747896 0.382294 0.705846
0.866351 0.385749 0.709301
0.984806 0.389204 0.712756
0.044886 0.488188 0.700643
0.167244 0.491643 0.700194
0.285699 0.495097 0.703649
0.404154 0.498552 0.707104
0.522609 0.502007 0.710559
0.641063 0.505462 0.714013
0.759518 0.508916 0.717468
0.877973 0.512371 0.720923
0.996428 0.515826 0.724378
0.058461 0.614810 0.710313
0.178866 0.618265 0.711816
0.297321 0.621719 0.715271
0.415776 0.625174 0.718726
0.534231 0.628629 0.722181
0.652685 0.632084 0.725635
0.771140 0.635538 0.729090
0.889595 0.638993 0.732545
1.000000 0.642448 0.736000
0.072034 0.741432 0.719984
0.190488 0.744887 0.723438
0.308943 0.748341 0.726893
0.427398 0.751796 0.730348
0.545853 0.755251 0.733803
0.664307 0.758706 0.737257
0.782762 0.762160 0.740712
0.901217 0.765615 0.744167
1.000000 0.769070 0.747622
0.083656 0.868054 0.731606
0.202110 0.871509 0.735060
0.320565 0.874963 0.738515
0.439020 0.878418 0.741970
0.557475 0.881873 0.745425
0.675929 0.885328 0.748879
0.794384 0.888782 0.752334
0.912839 0.892237 0.755789
1.000000 0.895692 0.759244
0.095278 0.994676 0.743228
0.213732 0.998131 0.746682
0.332187 1.000000 0.750137
0.450642 1.000000 0.753592
0.569097 1.000000 0.757047
0.687551 1.000000 0.760501
0.806006 1.000000 0.763956
0.924461 1.000000 0.767411
1.000000 1.000000 0.770866
0.001618 0.000000 0.768281
0.120687 0.000000 0.771122
0.239722 0.000000 0.773996
0.358757 0.000000 0.776871
0.477294 0.000000 0.780244
0.595749 0.000147 0.783699
0.714203 0.003602 0.787153
0.832658 0.007056 0.790608
0.951113 0.010511 0.794063
0.015097 0.109495 0.778047
0.133552 0.112950 0.781502
0.252006 0.116405 0.784956
0.370461 0.119859 0.788411
0.488916 0.123314 0.791866
0.607371 0.126769 0.795321
0.725825 0.130224 0.798775
0.844280 0.133678 0.802230
0.962735 0.137133 0.805685
0.026719 0.236117 0.789669
0.145174 0.239572 0.793124
0.263628 0.243027 0.796578
0.382083 0.246481 0.800033
0.500538 0.249936 0.803488
0.618993 0.253391 0.806943
0.737447 0.256846 0.810397
0.855902 0.260300 0.813852
0.974357 0.263755 0.817307
0.038341 0.362739 0.801291
0.156796 0.366194 0.804746
0.275250 0.369649 0.808200
0.393705 0.373103 0.811655
0.512160 0.376558 0.815110
0.630615 0.380013 0.818565
0.749069 0.383468 0.822019
0.867524 0.386922 0.825474
0.985979 0.390377 0.828929
0.049963 0.489361 0.812913
0.168418 0.492816 0.816368
0.286872 0.496271 0.819822
0.405327 0.499725 0.823277
0.523782 0.503180 0.826732
0.642237 0.506635 0.830187
0.760691 0.510090 0.833641
0.879146 0.513544 0.837096
0.997601 0.516999 0.840551
0.061585 0.615983 0.824535
0.180040 0.619438 0.827990
0.298494 0.622893 0.831444
0.416949 0.626347 0.834899
0.535404 0.629802 0.838354
0.653859 0.633257 0.841809
0.772313 0.636712 0.845263
0.890768 0.640166 0.848718
1.000000 0.643621 0.852173
0.073207 0.742605 0.836157
0.191662 0.746060 0.839612
0.310116 0.749515 0.843066
0.428571 0.752969 0.846521
0.547026 0.756424 0.849976
0.665481 0.759879 0.853431
0.783935 0.763334 0.856885
0.902390 0.766788 0.860340
1.000000 0.770243 0.863795
0.084829 0.869227 0.847779
0.203284 0.872682 0.851234
0.321738 0.876137 0.854688
0.440193 0.879591 0.858143
0.558648 0.883046 0.861598
0.677103 0.886501 0.865053
0.795557 0.889956 0.868507
0.914012 0.893410 0.871962
1.000000 0.896865 0.875417
0.096451 0.995849 0.859401
0.214906 0.999304 0.862856
0.333360 1.000000 0.866310
0.451815 1.000000 0.869765
0.570270 1.000000 0.873220
0.688725 1.000000 0.876675
0.807179 1.000000 0.880129
0.925634 1.000000 0.883584
1.000000 1.000000 0.887039
0.004648 0.000000 0.882598
0.123103 0.000000 0.886053
0.241558 0.000000 0.889508
0.360012 0.000000 0.892962
0.478467 0.000000 0.896417
0.596922 0.001320 0.899872
0.715377 0.004775 0.903327
0.833831 0.008230 0.906781
0.952286 0.011684 0.910236
0.016270 0.110668 0.894220
0.134725 0.114123 0.897675
0.253180 0.117578 0.901130
0.371634 0.121033 0.904584
0.490089 0.124487 0.908039
0.608544 0.127942 0.911494
0.726999 0.131397 0.914949
0.845453 0.134852 0.918403
0.963908 0.138306 0.921858
0.027892 0.237290 0.905842
0.146347 0.240745 0.909297
0.264802 0.244200 0.912752
0.383256 0.247655 0.916206
0.501711 0.251109 0.919661
0.620166 0.254564 0.923116
0.738621 0.258019 0.926571
0.857075 0.261474 0.930025
0.975530 0.264928 0.933480
0.039514 0.363912 0.917464
0.157969 0.367367 0.920919
0.276424 0.370822 0.924374
0.394878 0.374277 0.927828
0.513333 0.377731 0.931283
0.631788 0.381186 0.934738
0.750243 0.384641 0.938193
0.868697 0.388096 0.941647
0.987152 0.391550 0.945102
0.051136 0.490534 0.929086
0.169591 0.493989 0.932541
0.288046 0.497444 0.935996
0.406500 0.500899 0.939450
0.524955 0.504353 0.942905
0.643410 0.507808 0.946360
0.761865 0.511263 0.949815
0.880319 0.514718 0.953269
0.998774 0.518172 0.956724
0.062758 0.617156 0.940708
0.181213 0.620611 0.944163
0.299668 0.624066 0.947618
0.418122 0.627521 0.951072
0.536577 0.630975 0.954527
0.655032 0.634430 0.957982
0.773487 0.637885 0.961437
0.891941 0.641340 0.964891
1.000000 0.644794 0.968346
0.074380 0.743778 0.952330
0.192835 0.747233 0.955785
0.311290 0.750688 0.959240
0.429744 0.754143 0.962694
0.548199 0.757597 0.966149
0.666654 0.761052 0.969604
0.785109 0.764507 0.973059
0.903563 0.767962 0.976513
1.000000 0.771416 0.979968
0.086002 0.870400 0.963952
0.204457 0.873855 0.967407
0.322912 0.877310 0.970862
0.441366 0.880765 0.974316
0.559821 0.884219 0.977771
0.678276 0.887674 0.981226
0.796731 0.891129 0.984681
0.915185 0.894584 0.988135
1.000000 0.898038 0.991590
0.097624 0.997022 0.975574
0.216079 1.000000 0.979029
0.334534 1.000000 0.982484
0.452988 1.000000 0.985938
0.571443 1.000000 0.989393
0.689898 1.000000 0.992848
0.808353 1.000000 0.996303
0.926807 1.000000 0.999757
1.000000 1.000000 1.000000
