lut/luts/iPhoneCam_HLG_to_Rec709_Neutral_33.cube
TITLE "iPhone standard camera HDR (HLG/BT.2020) to Rec.709 - neutral"
LUT_3D_SIZE 5
DOMAIN_MIN 0.0 0.0 0.0
DOMAIN_MAX 1.0 1.0 1.0
0.000000 0.000000 0.000000
0.211074 0.000000 0.000000
0.556508 0.000000 0.000000
1.000000 0.000000 0.000000
1.000000 0.000000 0.000000
0.000000 0.185318 0.000000
0.186733 0.178871 0.000000
0.558558 0.139320 0.000000
1.000000 0.000000 0.000000
1.000000 0.000000 0.000000
0.000000 0.502059 0.000000
0.000000 0.499528 0.000000
0.505051 0.488430 0.000000
1.000000 0.435508 0.000000
1.000000 0.484909 0.000000
0.000000 1.000000 0.000000
0.000000 1.000000 0.000000
0.000000 0.992969 0.000000
0.995275 0.965165 0.000000
1.000000 0.983188 0.000000
0.000000 1.000000 0.000000
0.000000 1.000000 0.000000
0.177493 1.000000 0.000000
1.000000 1.000000 0.000000
1.000000 1.000000 0.000000
0.000000 0.000000 0.128044
0.210495 0.000000 0.163449
0.556494 0.000000 0.187750
1.000000 0.000000 0.195633
1.000000 0.000000 0.232570
0.000000 0.186520 0.174031
0.179361 0.179361 0.179361
0.556974 0.138624 0.187009
1.000000 0.000000 0.184822
1.000000 0.000000 0.217013
0.000000 0.502731 0.163587
0.000000 0.500081 0.162696
0.501259 0.488709 0.158606
1.000000 0.435358 0.138538
1.000000 0.484485 0.160229
0.000000 1.000000 0.000000
0.000000 1.000000 0.000000
0.000000 0.992990 0.000000
0.992688 0.965057 0.000000
1.000000 0.982903 0.000000
0.000000 1.000000 0.025231
0.000000 1.000000 0.018233
0.158728 1.000000 0.000000
1.000000 1.000000 0.000000
1.000000 1.000000 0.000000
0.000000 0.000000 0.380978
0.202232 0.000000 0.413350
0.555283 0.000000 0.455826
1.000000 0.000000 0.499360
1.000000 0.000000 0.572310
0.000000 0.189193 0.437482
0.153821 0.180287 0.448779
0.551608 0.136300 0.471388
1.000000 0.000000 0.502296
1.000000 0.000000 0.568356
0.000000 0.504599 0.478196
0.000000 0.501615 0.481478
0.489464 0.489465 0.489464
1.000000 0.434874 0.503198
1.000000 0.483196 0.554714
0.000000 1.000000 0.476425
0.000000 1.000000 0.476716
0.000000 0.993028 0.477305
0.984834 0.964717 0.478271
1.000000 0.982042 0.516393
0.000000 1.000000 0.563401
0.000000 1.000000 0.562437
0.088324 1.000000 0.559483
1.000000 1.000000 0.554595
1.000000 1.000000 0.572910
0.000000 0.000000 0.797394
0.143559 0.000000 0.821303
0.544225 0.000000 0.868406
1.000000 0.000000 0.935266
1.000000 0.000000 1.000000
0.000000 0.191938 0.847628
0.034599 0.179682 0.861530
0.531415 0.127743 0.893363
1.000000 0.000000 0.944508
1.000000 0.000000 1.000000
0.000000 0.508969 0.915303
0.000000 0.505175 0.920969
0.451826 0.491086 0.935109
1.000000 0.433389 0.960433
1.000000 0.480248 1.000000
0.000000 1.000000 0.957468
0.000000 1.000000 0.958283
0.000000 0.993148 0.960297
0.963906 0.963907 0.963906
1.000000 0.980129 0.982028
0.000000 1.000000 0.998410
0.000000 1.000000 0.997681
0.000000 1.000000 0.995460
0.987020 1.000000 0.991022
1.000000 1.000000 0.993714
0.000000 0.000000 1.000000
0.112405 0.000000 1.000000
0.576779 0.000000 1.000000
1.000000 0.000000 1.000000
1.000000 0.000000 1.000000
0.000000 0.212166 1.000000
0.000000 0.196205 1.000000
0.554632 0.135586 1.000000
1.000000 0.000000 1.000000
1.000000 0.000000 1.000000
0.000000 0.534121 1.000000
0.000000 0.528683 1.000000
0.460605 0.510563 1.000000
1.000000 0.447871 1.000000
1.000000 0.489676 1.000000
0.000000 1.000000 1.000000
0.000000 1.000000 1.000000
0.000000 1.000000 1.000000
0.967848 0.969815 1.000000
1.000000 0.982426 1.000000
0.000000 1.000000 1.000000
0.000000 1.000000 1.000000
0.000000 1.000000 1.000000
0.987592 1.000000 1.000000
1.000000 1.000000 1.000000
