lut/luts/iPhoneCam_Rec709_LogMatch_33.cube
TITLE "iPhone standard camera (Rec.709) - cinematic + Apple Log 2 look match"
LUT_3D_SIZE 33
DOMAIN_MIN 0.0 0.0 0.0
DOMAIN_MAX 1.0 1.0 1.0
0.000000 0.017118 0.051557
0.023998 0.017708 0.052148
0.052376 0.018299 0.052739
0.080755 0.018890 0.053329
0.109133 0.019481 0.053920
0.137511 0.020071 0.054511
0.165889 0.020662 0.055102
0.196616 0.021253 0.051778
0.227428 0.021844 0.048313
0.258240 0.022434 0.044848
0.289051 0.023025 0.041383
0.319863 0.023616 0.037918
0.350675 0.024207 0.034454
0.381486 0.024798 0.030989
0.412298 0.025388 0.027524
0.442294 0.025979 0.025419
0.470672 0.026570 0.026009
0.499050 0.027161 0.026600
0.528489 0.027751 0.026131
0.559300 0.028342 0.024288
0.590112 0.028933 0.022446
0.620924 0.029524 0.020603
0.651735 0.030114 0.018760
0.682547 0.030705 0.016918
0.713359 0.031296 0.015075
0.746618 0.031934 0.013086
0.791858 0.032819 0.011258
0.828301 0.033578 0.012017
0.859531 0.034228 0.012667
0.886294 0.034785 0.013224
0.909228 0.035262 0.013702
0.928882 0.035671 0.014111
0.945724 0.036022 0.014462
0.000000 0.046892 0.053544
0.025985 0.047483 0.054135
0.054364 0.048074 0.054726
0.082742 0.048665 0.055317
0.111120 0.049256 0.055908
0.139498 0.049846 0.056498
0.168126 0.050437 0.056674
0.198938 0.051028 0.053209
0.229749 0.051619 0.049744
0.260561 0.052209 0.046279
0.291373 0.052800 0.042814
0.322184 0.053391 0.039349
0.352996 0.053982 0.035884
0.383807 0.054572 0.032420
0.414619 0.055163 0.028955
0.444281 0.055754 0.027406
0.472659 0.056345 0.027997
0.501038 0.056935 0.028587
0.530810 0.057526 0.027784
0.561621 0.058117 0.025942
0.592433 0.058708 0.024099
0.623245 0.059298 0.022256
0.654056 0.059889 0.020414
0.684868 0.060480 0.018571
0.715680 0.061071 0.016728
0.748939 0.061708 0.014739
0.793845 0.062594 0.013246
0.830288 0.063352 0.014004
0.861519 0.064003 0.014655
0.888281 0.064560 0.015212
0.911216 0.065037 0.015689
0.930869 0.065446 0.016098
0.947712 0.065797 0.016449
0.000000 0.076667 0.055532
0.027973 0.077258 0.056123
0.056351 0.077849 0.056713
0.084729 0.078440 0.057304
0.113108 0.079030 0.057895
0.141486 0.079621 0.058486
0.170447 0.080212 0.058105
0.201259 0.080803 0.054640
0.232070 0.081393 0.051175
0.262882 0.081984 0.047710
0.293694 0.082575 0.044245
0.324505 0.083166 0.040780
0.355317 0.083757 0.037315
0.386129 0.084347 0.033850
0.416940 0.084938 0.030386
0.446268 0.085529 0.029393
0.474647 0.086120 0.029984
0.503025 0.086710 0.030575
0.533131 0.087301 0.029438
0.563943 0.087892 0.027595
0.594754 0.088483 0.025753
0.625566 0.089073 0.023910
0.656378 0.089664 0.022067
0.687189 0.090255 0.020225
0.718001 0.090846 0.018382
0.751260 0.091483 0.016393
0.795832 0.092369 0.015233
0.832276 0.093127 0.015992
0.863506 0.093777 0.016642
0.890269 0.094335 0.017199
0.913203 0.094812 0.017676
0.932857 0.095221 0.018086
0.949699 0.095572 0.018436
0.001582 0.106442 0.057519
0.029960 0.107033 0.058110
0.058338 0.107624 0.058701
0.086717 0.108215 0.059292
0.115095 0.108805 0.059882
0.143473 0.109396 0.060473
0.172768 0.109987 0.059536
0.203580 0.110578 0.056071
0.234392 0.111168 0.052606
0.265203 0.111759 0.049141
0.296015 0.112350 0.045676
0.326827 0.112941 0.042211
0.357638 0.113531 0.038746
0.388450 0.114122 0.035281
0.419262 0.114713 0.031816
0.448256 0.115304 0.031381
0.476634 0.115894 0.031971
0.505012 0.116485 0.032562
0.535452 0.117076 0.031091
0.566264 0.117667 0.029249
0.597076 0.118257 0.027406
0.627887 0.118848 0.025563
0.658699 0.119439 0.023721
0.689511 0.120030 0.021878
0.720322 0.120621 0.020035
0.753582 0.121258 0.018046
0.797820 0.122144 0.017221
0.834263 0.122902 0.017979
0.865493 0.123552 0.018629
0.892256 0.124109 0.019186
0.915191 0.124587 0.019664
0.934844 0.124996 0.020073
0.951686 0.125347 0.020424
0.003569 0.136217 0.059507
0.031948 0.136808 0.060097
0.060326 0.137399 0.060688
0.088704 0.137989 0.061279
0.117082 0.138580 0.061870
0.145461 0.139171 0.062460
0.175090 0.139762 0.060967
0.205901 0.140352 0.057502
0.236713 0.140943 0.054037
0.267525 0.141534 0.050572
0.298336 0.142125 0.047107
0.329148 0.142715 0.043642
0.359960 0.143306 0.040177
0.390771 0.143897 0.036712
0.421583 0.144488 0.033247
0.450243 0.145079 0.033368
0.478621 0.145669 0.033959
0.507000 0.146260 0.034550
0.537774 0.146851 0.032745
0.568585 0.147442 0.030902
0.599397 0.148032 0.029059
0.630208 0.148623 0.027217
0.661020 0.149214 0.025374
0.691832 0.149805 0.023532
0.722643 0.150395 0.021689
0.755903 0.151033 0.019700
0.799807 0.151918 0.019208
0.836251 0.152677 0.019967
0.867481 0.153327 0.020617
0.894244 0.153884 0.021174
0.917178 0.154362 0.021651
0.936831 0.154771 0.022060
0.953674 0.155121 0.022411
0.005557 0.165992 0.061494
0.033935 0.166583 0.062085
0.062313 0.167173 0.062675
0.090691 0.167764 0.063266
0.119070 0.168355 0.063857
0.147448 0.168946 0.064448
0.177411 0.169537 0.062397
0.208222 0.170127 0.058933
0.239034 0.170718 0.055468
0.269846 0.171309 0.052003
0.300657 0.171900 0.048538
0.331469 0.172490 0.045073
0.362281 0.173081 0.041608
0.393092 0.173672 0.038143
0.423852 0.174263 0.034765
0.452231 0.174853 0.035355
0.480609 0.175444 0.035946
0.509283 0.176035 0.036241
0.540095 0.176626 0.034398
0.570906 0.177216 0.032556
0.601718 0.177807 0.030713
0.632530 0.178398 0.028870
0.663341 0.178989 0.027028
0.694153 0.179579 0.025185
0.724965 0.180170 0.023342
0.758224 0.180808 0.021353
0.801795 0.181693 0.021195
0.838238 0.182452 0.021954
0.869468 0.183102 0.022604
0.896231 0.183659 0.023161
0.919165 0.184137 0.023639
0.938819 0.184546 0.024048
0.955661 0.184896 0.024398
0.008909 0.195767 0.061207
0.037386 0.196358 0.061632
0.065864 0.196948 0.062057
0.094341 0.197539 0.062483
0.122819 0.198130 0.062908
0.151296 0.198721 0.063333
0.179774 0.199311 0.063759
0.210544 0.199902 0.060363
0.241355 0.200493 0.056899
0.272167 0.201084 0.053434
0.302979 0.201674 0.049969
0.333790 0.202265 0.046504
0.364602 0.202856 0.043039
0.395414 0.203447 0.039574
0.425840 0.204037 0.036752
0.454218 0.204628 0.037343
0.482596 0.205219 0.037933
0.511604 0.205810 0.037894
0.542416 0.206401 0.036052
0.573228 0.206991 0.034209
0.604039 0.207582 0.032366
0.634851 0.208173 0.030524
0.665663 0.208764 0.028681
0.696474 0.209354 0.026839
0.727286 0.209945 0.024996
0.760545 0.210583 0.023007
0.803782 0.211468 0.023183
0.840225 0.212227 0.023941
0.871455 0.212877 0.024591
0.898218 0.213434 0.025149
0.921153 0.213911 0.025626
0.940806 0.214321 0.026035
0.957648 0.214671 0.026386
0.013564 0.225542 0.058747
0.042042 0.226132 0.059173
0.070519 0.226723 0.059598
0.098997 0.227314 0.060023
0.127474 0.227905 0.060449
0.155952 0.228495 0.060874
0.184429 0.229086 0.061299
0.212907 0.229677 0.061725
0.243677 0.230268 0.058329
0.274488 0.230859 0.054865
0.305300 0.231449 0.051400
0.336112 0.232040 0.047935
0.366923 0.232631 0.044470
0.397735 0.233222 0.041005
0.427827 0.233812 0.038739
0.456205 0.234403 0.039330
0.484584 0.234994 0.039921
0.513926 0.235585 0.039548
0.544737 0.236175 0.037705
0.575549 0.236766 0.035863
0.606361 0.237357 0.034020
0.637172 0.237948 0.032177
0.667984 0.238538 0.030335
0.698796 0.239129 0.028492
0.729607 0.239720 0.026649
0.762867 0.240358 0.024660
0.805769 0.241243 0.025170
0.842213 0.242002 0.025929
0.873443 0.242652 0.026579
0.900206 0.243209 0.027136
0.923140 0.243686 0.027613
0.942794 0.244095 0.028022
0.959636 0.244446 0.028373
0.018220 0.255317 0.056288
0.046697 0.255907 0.056713
0.075175 0.256498 0.057139
0.103652 0.257089 0.057564
0.132130 0.257680 0.057989
0.160607 0.258270 0.058415
0.189085 0.258861 0.058840
0.217562 0.259452 0.059265
0.246040 0.260043 0.059691
0.276810 0.260633 0.056295
0.307621 0.261224 0.052831
0.338433 0.261815 0.049366
0.369245 0.262406 0.045901
0.400056 0.262996 0.042436
0.429814 0.263587 0.040727
0.458193 0.264178 0.041317
0.486571 0.264769 0.041908
0.516247 0.265359 0.041201
0.547058 0.265950 0.039359
0.577870 0.266541 0.037516
0.608682 0.267132 0.035673
0.639493 0.267723 0.033831
0.670305 0.268313 0.031988
0.701117 0.268904 0.030146
0.731928 0.269495 0.028303
0.765188 0.270133 0.026314
0.807757 0.271018 0.027157
0.844200 0.271776 0.027916
0.875430 0.272427 0.028566
0.902193 0.272984 0.029123
0.925127 0.273461 0.029601
0.944781 0.273870 0.030010
0.961623 0.274221 0.030360
0.022875 0.285091 0.053829
0.051352 0.285682 0.054254
0.079830 0.286273 0.054679
0.108308 0.286864 0.055105
0.136785 0.287454 0.055530
0.165263 0.288045 0.055955
0.193740 0.288636 0.056381
0.222218 0.289227 0.056806
0.250695 0.289817 0.057231
0.279173 0.290408 0.057657
0.309942 0.290999 0.054261
0.340754 0.291590 0.050797
0.371566 0.292181 0.047332
0.402377 0.292771 0.043867
0.431802 0.293362 0.042714
0.460180 0.293953 0.043305
0.488558 0.294544 0.043896
0.518568 0.295134 0.042855
0.549380 0.295725 0.041012
0.580191 0.296316 0.039170
0.611003 0.296907 0.037327
0.641815 0.297497 0.035484
0.672626 0.298088 0.033642
0.703438 0.298679 0.031799
0.734250 0.299270 0.029956
0.767217 0.299907 0.028259
0.809744 0.300793 0.029145
0.846187 0.301551 0.029903
0.877418 0.302201 0.030553
0.904180 0.302759 0.031111
0.927115 0.303236 0.031588
0.946768 0.303645 0.031997
0.963610 0.303996 0.032348
0.027530 0.314866 0.051369
0.056008 0.315457 0.051795
0.084485 0.316048 0.052220
0.112963 0.316639 0.052645
0.141440 0.317229 0.053071
0.169918 0.317820 0.053496
0.198395 0.318411 0.053921
0.226873 0.319002 0.054347
0.255350 0.319592 0.054772
0.283828 0.320183 0.055197
0.312305 0.320774 0.055623
0.343075 0.321365 0.052227
0.373887 0.321955 0.048763
0.404699 0.322546 0.045298
0.433789 0.323137 0.044701
0.462167 0.323728 0.045292
0.490546 0.324318 0.045883
0.520889 0.324909 0.044508
0.551701 0.325500 0.042666
0.582513 0.326091 0.040823
0.613324 0.326681 0.038980
0.644136 0.327272 0.037138
0.674948 0.327863 0.035295
0.705759 0.328454 0.033452
0.736571 0.329045 0.031610
0.769204 0.329682 0.030247
0.811731 0.330568 0.031132
0.848175 0.331326 0.031891
0.879405 0.331976 0.032541
0.906168 0.332533 0.033098
0.929102 0.333011 0.033575
0.948756 0.333420 0.033985
0.965598 0.333771 0.034335
0.032186 0.344641 0.048910
0.060663 0.345232 0.049335
0.089141 0.345823 0.049761
0.117618 0.346413 0.050186
0.146096 0.347004 0.050611
0.174573 0.347595 0.051037
0.203051 0.348186 0.051462
0.231528 0.348776 0.051887
0.260006 0.349367 0.052313
0.288483 0.349958 0.052738
0.316961 0.350549 0.053163
0.345438 0.351139 0.053589
0.376208 0.351730 0.050193
0.407020 0.352321 0.046729
0.435776 0.352912 0.046689
0.464155 0.353503 0.047280
0.492533 0.354093 0.047870
0.523211 0.354684 0.046162
0.554022 0.355275 0.044319
0.584834 0.355866 0.042477
0.615646 0.356456 0.040634
0.646457 0.357047 0.038791
0.677269 0.357638 0.036949
0.708080 0.358229 0.035106
0.738892 0.358819 0.033263
0.771192 0.359457 0.032234
0.813719 0.360342 0.033119
0.850162 0.361101 0.033878
0.881392 0.361751 0.034528
0.908155 0.362308 0.035085
0.931089 0.362786 0.035563
0.950743 0.363195 0.035972
0.967585 0.363546 0.036323
0.036841 0.374416 0.046450
0.065319 0.375007 0.046876
0.093796 0.375597 0.047301
0.122274 0.376188 0.047727
0.150751 0.376779 0.048152
0.179229 0.377370 0.048577
0.207706 0.377961 0.049003
0.236184 0.378551 0.049428
0.264661 0.379142 0.049853
0.293139 0.379733 0.050279
0.321616 0.380324 0.050704
0.350094 0.380914 0.051129
0.378571 0.381505 0.051555
0.409341 0.382096 0.048159
0.437764 0.382687 0.048676
0.466142 0.383277 0.049267
0.494720 0.383868 0.049658
0.525532 0.384459 0.047815
0.556343 0.385050 0.045973
0.587155 0.385640 0.044130
0.617967 0.386231 0.042287
0.648778 0.386822 0.040445
0.679590 0.387413 0.038602
0.710402 0.388004 0.036759
0.741213 0.388594 0.034917
0.773179 0.389232 0.034221
0.815706 0.390117 0.035107
0.852149 0.390876 0.035865
0.883380 0.391526 0.036516
0.910142 0.392083 0.037073
0.933077 0.392561 0.037550
0.952730 0.392970 0.037959
0.969573 0.393320 0.038310
0.041497 0.404191 0.043991
0.069974 0.404782 0.044416
0.098452 0.405372 0.044842
0.126929 0.405963 0.045267
0.155407 0.406554 0.045693
0.183884 0.407145 0.046118
0.212362 0.407735 0.046543
0.240839 0.408326 0.046969
0.269317 0.408917 0.047394
0.297794 0.409508 0.047819
0.326238 0.410098 0.048300
0.354616 0.410689 0.048891
0.382995 0.411280 0.049482
0.411373 0.411871 0.050073
0.439751 0.412462 0.050664
0.468129 0.413052 0.051254
0.497041 0.413643 0.051311
0.527853 0.414234 0.049469
0.558665 0.414825 0.047626
0.589476 0.415415 0.045783
0.620288 0.416006 0.043941
0.651100 0.416597 0.042098
0.681911 0.417188 0.040256
0.712723 0.417778 0.038413
0.743535 0.418369 0.036570
0.775167 0.419007 0.036209
0.817693 0.419892 0.037094
0.854137 0.420651 0.037853
0.885367 0.421301 0.038503
0.912130 0.421858 0.039060
0.935064 0.422335 0.039537
0.954718 0.422745 0.039947
0.971560 0.423095 0.040297
0.044443 0.433966 0.044380
0.072821 0.434556 0.044971
0.101199 0.435147 0.045562
0.129578 0.435738 0.046152
0.157956 0.436329 0.046743
0.186334 0.436920 0.047334
0.214712 0.437510 0.047925
0.243091 0.438101 0.048516
0.271469 0.438692 0.049106
0.299847 0.439283 0.049697
0.328225 0.439873 0.050288
0.356604 0.440464 0.050879
0.384982 0.441055 0.051469
0.413360 0.441646 0.052060
0.441739 0.442236 0.052651
0.470117 0.442827 0.053242
0.499363 0.443418 0.052965
0.530174 0.444009 0.051122
0.560986 0.444599 0.049280
0.591798 0.445190 0.047437
0.622609 0.445781 0.045594
0.653421 0.446372 0.043752
0.684233 0.446962 0.041909
0.715044 0.447553 0.040066
0.745856 0.448144 0.038224
0.777154 0.448782 0.038196
0.819681 0.449667 0.039081
0.856124 0.450426 0.039840
0.887354 0.451076 0.040490
0.914117 0.451633 0.041047
0.937051 0.452110 0.041525
0.956705 0.452519 0.041934
0.973547 0.452870 0.042285
0.046430 0.463741 0.046368
0.074808 0.464331 0.046958
0.103187 0.464922 0.047549
0.131565 0.465513 0.048140
0.159943 0.466104 0.048731
0.188322 0.466694 0.049321
0.216700 0.467285 0.049912
0.245078 0.467876 0.050503
0.273456 0.468467 0.051094
0.301835 0.469057 0.051684
0.330213 0.469648 0.052275
0.358591 0.470239 0.052866
0.386969 0.470830 0.053457
0.415348 0.471420 0.054047
0.443726 0.472011 0.054638
0.472104 0.472602 0.055229
0.501684 0.473193 0.054618
0.532495 0.473784 0.052776
0.563307 0.474374 0.050933
0.594119 0.474965 0.049090
0.624930 0.475556 0.047248
0.655742 0.476147 0.045405
0.686554 0.476737 0.043563
0.717365 0.477328 0.041720
0.748177 0.477919 0.039877
0.779141 0.478557 0.040184
0.821668 0.479442 0.041069
0.858112 0.480201 0.041828
0.889342 0.480851 0.042478
0.916104 0.481408 0.043035
0.939039 0.481885 0.043512
0.958692 0.482294 0.043921
0.975535 0.482645 0.044272
0.048418 0.493515 0.048355
0.076884 0.494106 0.048857
0.105362 0.494697 0.049349
0.133839 0.495288 0.049840
0.162317 0.495878 0.050332
0.190794 0.496469 0.050823
0.219272 0.497060 0.051315
0.247749 0.497651 0.051806
0.276227 0.498242 0.052298
0.304704 0.498832 0.052789
0.333182 0.499423 0.053281
0.361659 0.500014 0.053772
0.390137 0.500605 0.054264
0.418614 0.501195 0.054755
0.447092 0.501786 0.055247
0.475569 0.502377 0.055739
0.504047 0.502968 0.056230
0.534817 0.503558 0.054429
0.565628 0.504149 0.052587
0.596440 0.504740 0.050744
0.627252 0.505331 0.048901
0.658063 0.505921 0.047059
0.688875 0.506512 0.045216
0.719687 0.507103 0.043373
0.750496 0.507694 0.041533
0.781129 0.508331 0.042171
0.823655 0.509217 0.043056
0.860099 0.509975 0.043815
0.891329 0.510626 0.044465
0.918092 0.511183 0.045022
0.941026 0.511660 0.045500
0.960680 0.512069 0.045909
0.977522 0.512420 0.046259
0.053062 0.523290 0.047685
0.081540 0.523881 0.048177
0.110017 0.524472 0.048668
0.138495 0.525063 0.049160
0.166972 0.525653 0.049651
0.195450 0.526244 0.050143
0.223927 0.526835 0.050634
0.252405 0.527426 0.051126
0.280882 0.528016 0.051617
0.309360 0.528607 0.052109
0.337837 0.529198 0.052600
0.366315 0.529789 0.053092
0.394792 0.530379 0.053583
0.423270 0.530970 0.054075
0.451747 0.531561 0.054566
0.480225 0.532152 0.055058
0.508702 0.532742 0.055549
0.537180 0.533333 0.056041
0.567950 0.533924 0.054240
0.598761 0.534515 0.052397
0.629573 0.535106 0.050555
0.660385 0.535696 0.048712
0.691196 0.536287 0.046870
0.722008 0.536878 0.045027
0.752483 0.537469 0.043521
0.783116 0.538106 0.044158
0.825643 0.538992 0.045044
0.862086 0.539750 0.045802
0.893316 0.540400 0.046452
0.920079 0.540957 0.047009
0.943014 0.541435 0.047487
0.962667 0.541844 0.047896
0.979509 0.542195 0.048247
0.057717 0.553065 0.047004
0.086195 0.553656 0.047496
0.114673 0.554247 0.047988
0.143150 0.554837 0.048479
0.171628 0.555428 0.048971
0.200105 0.556019 0.049462
0.228583 0.556610 0.049954
0.257060 0.557200 0.050445
0.285538 0.557791 0.050937
0.314015 0.558382 0.051428
0.342493 0.558973 0.051920
0.370970 0.559564 0.052411
0.399448 0.560154 0.052903
0.427925 0.560745 0.053394
0.456403 0.561336 0.053886
0.484880 0.561927 0.054377
0.513358 0.562517 0.054869
0.541835 0.563108 0.055360
0.570313 0.563699 0.055852
0.601083 0.564290 0.054051
0.631894 0.564880 0.052208
0.662706 0.565471 0.050366
0.693517 0.566062 0.048523
0.724329 0.566653 0.046680
0.754471 0.567243 0.045508
0.785103 0.567881 0.046146
0.827630 0.568766 0.047031
0.864074 0.569525 0.047790
0.895304 0.570175 0.048440
0.922067 0.570732 0.048997
0.945001 0.571210 0.049474
0.964655 0.571619 0.049883
0.981497 0.571970 0.050234
0.062373 0.582840 0.046324
0.090850 0.583431 0.046815
0.119328 0.584022 0.047307
0.147805 0.584612 0.047798
0.176283 0.585203 0.048290
0.204760 0.585794 0.048781
0.233238 0.586385 0.049273
0.261715 0.586975 0.049764
0.290193 0.587566 0.050256
0.318670 0.588157 0.050747
0.347148 0.588748 0.051239
0.375625 0.589338 0.051730
0.404103 0.589929 0.052222
0.432581 0.590520 0.052714
0.461058 0.591111 0.053205
0.489536 0.591701 0.053697
0.518013 0.592292 0.054188
0.546491 0.592883 0.054680
0.574968 0.593474 0.055171
0.603446 0.594064 0.055663
0.634215 0.594655 0.053862
0.665027 0.595246 0.052019
0.695839 0.595837 0.050176
0.726650 0.596428 0.048334
0.756458 0.597018 0.047495
0.787091 0.597656 0.048133
0.829618 0.598541 0.049018
0.866061 0.599300 0.049777
0.897291 0.599950 0.050427
0.924054 0.600507 0.050984
0.946988 0.600985 0.051462
0.966642 0.601394 0.051871
0.983484 0.601744 0.052221
0.067028 0.612615 0.045643
0.095506 0.613206 0.046135
0.123983 0.613796 0.046626
0.152461 0.614387 0.047118
0.180938 0.614978 0.047609
0.209416 0.615569 0.048101
0.237893 0.616159 0.048592
0.266371 0.616750 0.049084
0.294848 0.617341 0.049575
0.323326 0.617932 0.050067
0.351803 0.618522 0.050558
0.380281 0.619113 0.051050
0.408758 0.619704 0.051541
0.437236 0.620295 0.052033
0.465713 0.620886 0.052524
0.494191 0.621476 0.053016
0.522668 0.622067 0.053507
0.551146 0.622658 0.053999
0.579623 0.623249 0.054490
0.608101 0.623839 0.054982
0.636578 0.624430 0.055473
0.667348 0.625021 0.053673
0.698160 0.625612 0.051830
0.728972 0.626202 0.049987
0.758445 0.626793 0.049483
0.789078 0.627431 0.050120
0.831605 0.628316 0.051006
0.868048 0.629075 0.051764
0.899279 0.629725 0.052414
0.926041 0.630282 0.052972
0.948976 0.630760 0.053449
0.968629 0.631169 0.053858
0.985471 0.631519 0.054209
0.071684 0.642390 0.044962
0.100161 0.642980 0.045454
0.128639 0.643571 0.045946
0.157116 0.644162 0.046437
0.185594 0.644753 0.046929
0.214071 0.645344 0.047420
0.242549 0.645934 0.047912
0.271026 0.646525 0.048403
0.299504 0.647116 0.048895
0.327981 0.647707 0.049386
0.356459 0.648297 0.049878
0.384936 0.648888 0.050369
0.413414 0.649479 0.050861
0.441891 0.650070 0.051352
0.470369 0.650660 0.051844
0.498846 0.651251 0.052335
0.527324 0.651842 0.052827
0.555801 0.652433 0.053318
0.584279 0.653023 0.053810
0.612756 0.653614 0.054301
0.641234 0.654205 0.054793
0.669711 0.654796 0.055284
0.700481 0.655387 0.053483
0.731293 0.655977 0.051641
0.760433 0.656568 0.051470
0.791065 0.657206 0.052108
0.833592 0.658091 0.052993
0.870036 0.658850 0.053752
0.901266 0.659500 0.054402
0.928029 0.660057 0.054959
0.950963 0.660534 0.055436
0.970617 0.660944 0.055846
0.987459 0.661294 0.056196
0.076339 0.672165 0.044282
0.104817 0.672755 0.044773
0.133294 0.673346 0.045265
0.161772 0.673937 0.045756
0.190249 0.674528 0.046248
0.218727 0.675118 0.046739
0.247204 0.675709 0.047231
0.275682 0.676300 0.047722
0.304159 0.676891 0.048214
0.332637 0.677481 0.048705
0.361114 0.678072 0.049197
0.389592 0.678663 0.049688
0.418069 0.679254 0.050180
0.446547 0.679845 0.050672
0.475024 0.680435 0.051163
0.503502 0.681026 0.051655
0.531979 0.681617 0.052146
0.560457 0.682208 0.052638
0.588934 0.682798 0.053129
0.617412 0.683389 0.053621
0.645889 0.683980 0.054112
0.674367 0.684571 0.054604
0.702844 0.685161 0.055095
0.733614 0.685752 0.053294
0.762420 0.686343 0.053457
0.793053 0.686981 0.054095
0.835580 0.687866 0.054980
0.872023 0.688625 0.055739
0.903253 0.689275 0.056389
0.930016 0.689832 0.056946
0.952950 0.690309 0.057424
0.972604 0.690718 0.057833
0.989446 0.691069 0.058183
0.080994 0.701939 0.043601
0.109472 0.702530 0.044093
0.137949 0.703121 0.044584
0.166427 0.703712 0.045076
0.194904 0.704303 0.045567
0.223382 0.704893 0.046059
0.251859 0.705484 0.046550
0.280337 0.706075 0.047042
0.308815 0.706666 0.047533
0.337292 0.707256 0.048025
0.365770 0.707847 0.048516
0.394247 0.708438 0.049008
0.422725 0.709029 0.049499
0.451202 0.709619 0.049991
0.479680 0.710210 0.050482
0.508157 0.710801 0.050974
0.536635 0.711392 0.051465
0.565112 0.711982 0.051957
0.593590 0.712573 0.052448
0.622067 0.713164 0.052940
0.650545 0.713755 0.053431
0.679022 0.714345 0.053923
0.707500 0.714936 0.054414
0.735977 0.715527 0.054906
0.764407 0.716118 0.055445
0.795040 0.716755 0.056082
0.837567 0.717641 0.056968
0.874010 0.718399 0.057726
0.905241 0.719050 0.058377
0.932003 0.719607 0.058934
0.954938 0.720084 0.059411
0.974591 0.720493 0.059820
0.991434 0.720844 0.060171
0.085316 0.731714 0.043254
0.113695 0.732305 0.043845
0.142073 0.732896 0.044435
0.170451 0.733487 0.045026
0.198830 0.734077 0.045617
0.227208 0.734668 0.046208
0.255586 0.735259 0.046798
0.283964 0.735850 0.047389
0.312343 0.736440 0.047980
0.340721 0.737031 0.048571
0.369099 0.737622 0.049161
0.397477 0.738213 0.049752
0.425856 0.738803 0.050343
0.454234 0.739394 0.050934
0.482612 0.739985 0.051524
0.510990 0.740576 0.052115
0.539369 0.741167 0.052706
0.567747 0.741757 0.053297
0.596125 0.742348 0.053888
0.624503 0.742939 0.054478
0.652882 0.743530 0.055069
0.681260 0.744120 0.055660
0.709638 0.744711 0.056251
0.738017 0.745302 0.056841
0.766395 0.745893 0.057432
0.797028 0.746530 0.058070
0.839554 0.747416 0.058955
0.875998 0.748174 0.059714
0.907228 0.748824 0.060364
0.933991 0.749382 0.060921
0.956925 0.749859 0.061398
0.976579 0.750268 0.061808
0.993421 0.750619 0.062158
0.087462 0.763855 0.045399
0.115840 0.764445 0.045990
0.144218 0.765036 0.046581
0.172597 0.765627 0.047171
0.200975 0.766218 0.047762
0.229353 0.766808 0.048353
0.257731 0.767399 0.048944
0.286110 0.767990 0.049534
0.314488 0.768581 0.050125
0.342866 0.769171 0.050716
0.371244 0.769762 0.051307
0.399623 0.770353 0.051897
0.428001 0.770944 0.052488
0.456379 0.771535 0.053079
0.484757 0.772125 0.053670
0.513136 0.772716 0.054260
0.541514 0.773307 0.054851
0.569892 0.773898 0.055442
0.598270 0.774488 0.056033
0.626649 0.775079 0.056624
0.655027 0.775670 0.057214
0.683405 0.776261 0.057805
0.711784 0.776851 0.058396
0.740162 0.777442 0.058987
0.768540 0.778033 0.059577
0.799173 0.778671 0.060215
0.841700 0.779556 0.061100
0.878143 0.780315 0.061859
0.909373 0.780965 0.062509
0.936136 0.781522 0.063066
0.959070 0.781999 0.063544
0.978724 0.782408 0.063953
0.995566 0.782759 0.064303
0.090440 0.808474 0.048377
0.118818 0.809065 0.048968
0.147196 0.809656 0.049559
0.175575 0.810247 0.050150
0.203953 0.810837 0.050740
0.232331 0.811428 0.051331
0.260710 0.812019 0.051922
0.289088 0.812610 0.052513
0.317466 0.813200 0.053103
0.345844 0.813791 0.053694
0.374223 0.814382 0.054285
0.402601 0.814973 0.054876
0.430979 0.815564 0.055466
0.459357 0.816154 0.056057
0.487736 0.816745 0.056648
0.516114 0.817336 0.057239
0.544492 0.817927 0.057829
0.572870 0.818517 0.058420
0.601249 0.819108 0.059011
0.629627 0.819699 0.059602
0.658005 0.820290 0.060193
0.686383 0.820880 0.060783
0.714762 0.821471 0.061374
0.743140 0.822062 0.061965
0.771518 0.822653 0.062556
