lut/luts/iPhoneCam_Rec709_Cinematic_33.cube
TITLE "iPhone standard camera (Rec.709) - cinematic (matches Apple Log 2 pipeline)"
LUT_3D_SIZE 33
DOMAIN_MIN 0.0 0.0 0.0
DOMAIN_MAX 1.0 1.0 1.0
0.000000 0.000000 0.009212
0.000000 0.000000 0.010076
0.012490 0.000000 0.010939
0.042103 0.000000 0.011803
0.071717 0.000000 0.012667
0.101331 0.000000 0.013530
0.130944 0.000000 0.014394
0.160558 0.000000 0.015258
0.190172 0.000000 0.016122
0.221026 0.000000 0.014917
0.253200 0.000000 0.011514
0.285374 0.000000 0.008111
0.317547 0.000000 0.004708
0.349721 0.000000 0.001305
0.381895 0.000000 0.000000
0.414069 0.000000 0.000000
0.446243 0.000000 0.000000
0.477695 0.000000 0.000000
0.507309 0.000000 0.000000
0.536922 0.000000 0.000000
0.567882 0.000000 0.000000
0.600056 0.000000 0.000000
0.632229 0.000000 0.000000
0.664403 0.000000 0.000000
0.696577 0.000000 0.000000
0.728751 0.000000 0.000000
0.760924 0.000000 0.000000
0.793098 0.000000 0.000000
0.824445 0.000000 0.000000
0.854059 0.000000 0.000000
0.883673 0.000571 0.000000
0.913286 0.001435 0.000000
0.942900 0.002298 0.000000
0.000000 0.006316 0.012118
0.000000 0.007180 0.012981
0.015395 0.008043 0.013845
0.045009 0.008907 0.014709
0.074622 0.009771 0.015572
0.104236 0.010634 0.016436
0.133850 0.011498 0.017300
0.163463 0.012362 0.018163
0.193077 0.013225 0.019027
0.224420 0.014089 0.017009
0.256593 0.014953 0.013606
0.288767 0.015816 0.010203
0.320941 0.016680 0.006800
0.353115 0.017544 0.003397
0.385289 0.018408 0.000000
0.417462 0.019271 0.000000
0.449636 0.020135 0.000000
0.480600 0.020999 0.000000
0.510214 0.021862 0.000000
0.539828 0.022726 0.000000
0.571275 0.023590 0.000000
0.603449 0.024453 0.000000
0.635623 0.025317 0.000000
0.667797 0.026181 0.000000
0.699971 0.027044 0.000000
0.732144 0.027908 0.000000
0.764318 0.028772 0.000000
0.796492 0.029635 0.000000
0.827351 0.030499 0.000000
0.856965 0.031363 0.000000
0.886578 0.032227 0.000000
0.916192 0.033090 0.000000
0.945806 0.033954 0.000000
0.000000 0.037971 0.015023
0.000000 0.038835 0.015887
0.018301 0.039699 0.016750
0.047914 0.040562 0.017614
0.077528 0.041426 0.018478
0.107142 0.042290 0.019341
0.136755 0.043154 0.020205
0.166369 0.044017 0.021069
0.195983 0.044881 0.021933
0.227813 0.045745 0.019101
0.259987 0.046608 0.015698
0.292161 0.047472 0.012295
0.324335 0.048336 0.008892
0.356508 0.049199 0.005489
0.388682 0.050063 0.002086
0.420856 0.050927 0.000000
0.453030 0.051790 0.000000
0.483506 0.052654 0.000000
0.513120 0.053518 0.000000
0.542733 0.054381 0.000000
0.574669 0.055245 0.000000
0.606843 0.056109 0.000000
0.639017 0.056973 0.000000
0.671190 0.057836 0.000000
0.703364 0.058700 0.000000
0.735538 0.059564 0.000000
0.767712 0.060427 0.000000
0.799885 0.061291 0.000000
0.830256 0.062155 0.000000
0.859870 0.063018 0.000000
0.889484 0.063882 0.000000
0.919097 0.064746 0.000000
0.948711 0.065609 0.000000
0.000000 0.069627 0.017929
0.000000 0.070491 0.018792
0.021206 0.071354 0.019656
0.050820 0.072218 0.020520
0.080433 0.073082 0.021383
0.110047 0.073945 0.022247
0.139661 0.074809 0.023111
0.169274 0.075673 0.023974
0.199033 0.076536 0.024596
0.231207 0.077400 0.021193
0.263381 0.078264 0.017790
0.295555 0.079127 0.014387
0.327728 0.079991 0.010984
0.359902 0.080855 0.007581
0.392076 0.081719 0.004177
0.424250 0.082582 0.000774
0.456423 0.083446 0.000000
0.486411 0.084310 0.000000
0.516025 0.085173 0.000000
0.545889 0.086037 0.000000
0.578063 0.086901 0.000000
0.610236 0.087764 0.000000
0.642410 0.088628 0.000000
0.674584 0.089492 0.000000
0.706758 0.090355 0.000000
0.738932 0.091219 0.000000
0.771105 0.092083 0.000000
0.803279 0.092946 0.000000
0.833162 0.093810 0.000000
0.862776 0.094674 0.000000
0.892389 0.095538 0.000000
0.922003 0.096401 0.000000
0.951617 0.097265 0.000000
0.000000 0.101282 0.020834
0.000000 0.102146 0.021698
0.024112 0.103010 0.022561
0.053725 0.103873 0.023425
0.083339 0.104737 0.024289
0.112953 0.105601 0.025152
0.142566 0.106465 0.026016
0.172180 0.107328 0.026880
0.202427 0.108192 0.026688
0.234601 0.109056 0.023285
0.266774 0.109919 0.019882
0.298948 0.110783 0.016479
0.331122 0.111647 0.013076
0.363296 0.112510 0.009673
0.395470 0.113374 0.006269
0.427643 0.114238 0.002866
0.459703 0.115101 0.000000
0.489317 0.115965 0.000517
0.518931 0.116829 0.001380
0.549282 0.117692 0.001506
0.581456 0.118556 0.000000
0.613630 0.119420 0.000000
0.645804 0.120284 0.000000
0.677978 0.121147 0.000000
0.710151 0.122011 0.000000
0.742325 0.122875 0.000000
0.774499 0.123738 0.000000
0.806454 0.124602 0.000000
0.836067 0.125466 0.000000
0.865681 0.126329 0.000000
0.895295 0.127193 0.000000
0.924908 0.128057 0.000000
0.954522 0.128920 0.000000
0.000000 0.132938 0.023740
0.000000 0.133802 0.024603
0.027017 0.134665 0.025467
0.056631 0.135529 0.026331
0.086244 0.136393 0.027194
0.115858 0.137256 0.028058
0.145472 0.138120 0.028922
0.175085 0.138984 0.029785
0.205820 0.139847 0.028780
0.237994 0.140711 0.025377
0.270168 0.141575 0.021974
0.302342 0.142438 0.018571
0.334516 0.143302 0.015168
0.366689 0.144166 0.011765
0.398863 0.145030 0.008361
0.431037 0.145893 0.004958
0.462609 0.146757 0.002559
0.492222 0.147621 0.003422
0.521836 0.148484 0.004286
0.552676 0.149348 0.003923
0.584850 0.150212 0.002227
0.617024 0.151075 0.000530
0.649197 0.151939 0.000000
0.681371 0.152803 0.000000
0.713545 0.153666 0.000000
0.745719 0.154530 0.000000
0.777893 0.155394 0.000000
0.809359 0.156257 0.000000
0.838973 0.157121 0.000000
0.868587 0.157985 0.000000
0.898200 0.158849 0.000000
0.927814 0.159712 0.000000
0.957428 0.160576 0.000000
0.000000 0.164593 0.026645
0.000309 0.165457 0.027509
0.029923 0.166321 0.028372
0.059536 0.167184 0.029236
0.089150 0.168048 0.030100
0.118764 0.168912 0.030963
0.148377 0.169776 0.031827
0.177991 0.170639 0.032691
0.209214 0.171503 0.030872
0.241388 0.172367 0.027469
0.273562 0.173230 0.024066
0.305735 0.174094 0.020663
0.337909 0.174958 0.017260
0.370083 0.175821 0.013857
0.402257 0.176685 0.010453
0.434431 0.177549 0.007050
0.465514 0.178412 0.005464
0.495128 0.179276 0.006328
0.524742 0.180140 0.007191
0.556070 0.181003 0.006341
0.588243 0.181867 0.004644
0.620417 0.182731 0.002948
0.652591 0.183595 0.001251
0.684765 0.184458 0.000000
0.716939 0.185322 0.000000
0.749112 0.186186 0.000000
0.781286 0.187049 0.000000
0.812265 0.187913 0.000000
0.841878 0.188777 0.000000
0.871492 0.189640 0.000000
0.901106 0.190504 0.000000
0.930719 0.191368 0.000000
0.960333 0.192231 0.000000
0.000000 0.196249 0.029551
0.003214 0.197113 0.030414
0.032828 0.197976 0.031278
0.062442 0.198840 0.032142
0.092055 0.199704 0.033005
0.121669 0.200567 0.033869
0.151283 0.201431 0.034733
0.180896 0.202295 0.035596
0.212608 0.203158 0.032964
0.244781 0.204022 0.029561
0.276955 0.204886 0.026158
0.309129 0.205749 0.022755
0.341303 0.206613 0.019352
0.373477 0.207477 0.015948
0.405650 0.208341 0.012545
0.437824 0.209204 0.009142
0.468420 0.210068 0.008370
0.498033 0.210932 0.009233
0.527647 0.211795 0.010097
0.559463 0.212659 0.008758
0.591637 0.213523 0.007062
0.623811 0.214386 0.005365
0.655985 0.215250 0.003669
0.688158 0.216114 0.001972
0.720332 0.216977 0.000276
0.752506 0.217841 0.000000
0.784680 0.218705 0.000000
0.815170 0.219568 0.000000
0.844784 0.220432 0.000000
0.874398 0.221296 0.000000
0.904011 0.222160 0.000000
0.933625 0.223023 0.000325
0.963239 0.223887 0.001189
0.000000 0.227904 0.030026
0.007723 0.228768 0.030647
0.037482 0.229632 0.031269
0.067241 0.230495 0.031891
0.097000 0.231359 0.032513
0.126758 0.232223 0.033135
0.156517 0.233087 0.033757
0.186276 0.233950 0.034379
0.216035 0.234814 0.035000
0.248175 0.235678 0.031653
0.280349 0.236541 0.028250
0.312523 0.237405 0.024847
0.344696 0.238269 0.021444
0.376870 0.239132 0.018040
0.409044 0.239996 0.014637
0.441218 0.240860 0.011234
0.471325 0.241723 0.011275
0.500939 0.242587 0.012139
0.530683 0.243451 0.012872
0.562857 0.244314 0.011175
0.595031 0.245178 0.009479
0.627205 0.246042 0.007783
0.659378 0.246906 0.006086
0.691552 0.247769 0.004390
0.723726 0.248633 0.002693
0.755900 0.249497 0.000997
0.788073 0.250360 0.000000
0.818076 0.251224 0.000000
0.847689 0.252088 0.000639
0.877303 0.252951 0.001503
0.906917 0.253815 0.002367
0.936530 0.254679 0.003230
0.966144 0.255542 0.004094
0.000000 0.259560 0.028093
0.013532 0.260424 0.028714
0.043291 0.261287 0.029336
0.073049 0.262151 0.029958
0.102808 0.263015 0.030580
0.132567 0.263878 0.031202
0.162326 0.264742 0.031824
0.192085 0.265606 0.032446
0.221843 0.266469 0.033067
0.251602 0.267333 0.033689
0.283742 0.268197 0.030342
0.315916 0.269060 0.026939
0.348090 0.269924 0.023536
0.380264 0.270788 0.020132
0.412438 0.271652 0.016729
0.444611 0.272515 0.013326
0.474231 0.273379 0.014181
0.503844 0.274243 0.015044
0.534077 0.275106 0.015289
0.566251 0.275970 0.013593
0.598424 0.276834 0.011896
0.630598 0.277697 0.010200
0.662772 0.278561 0.008504
0.694946 0.279425 0.006807
0.727120 0.280288 0.005111
0.759293 0.281152 0.003414
0.791368 0.282016 0.001817
0.820981 0.282879 0.002681
0.850595 0.283743 0.003545
0.880209 0.284607 0.004408
0.909822 0.285471 0.005272
0.939436 0.286334 0.006136
0.969050 0.287198 0.007000
0.000000 0.291215 0.026159
0.019340 0.292079 0.026781
0.049099 0.292943 0.027403
0.078858 0.293806 0.028025
0.108617 0.294670 0.028647
0.138376 0.295534 0.029269
0.168134 0.296398 0.029891
0.197893 0.297261 0.030512
0.227652 0.298125 0.031134
0.257411 0.298989 0.031756
0.287170 0.299852 0.032378
0.319310 0.300716 0.029031
0.351484 0.301580 0.025627
0.383657 0.302443 0.022224
0.415831 0.303307 0.018821
0.447522 0.304171 0.016222
0.477136 0.305034 0.017086
0.506750 0.305898 0.017950
0.537470 0.306762 0.017707
0.569644 0.307625 0.016010
0.601818 0.308489 0.014314
0.633992 0.309353 0.012617
0.666166 0.310217 0.010921
0.698339 0.311080 0.009224
0.730513 0.311944 0.007528
0.762687 0.312808 0.005832
0.794273 0.313671 0.004723
0.823887 0.314535 0.005587
0.853500 0.315399 0.006450
0.883114 0.316262 0.007314
0.912728 0.317126 0.008178
0.942341 0.317990 0.009041
0.971955 0.318853 0.009905
0.000000 0.322871 0.024226
0.025149 0.323735 0.024848
0.054908 0.324598 0.025470
0.084667 0.325462 0.026092
0.114425 0.326326 0.026714
0.144184 0.327189 0.027336
0.173943 0.328053 0.027958
0.203702 0.328917 0.028579
0.233461 0.329780 0.029201
0.263219 0.330644 0.029823
0.292978 0.331508 0.030445
0.322737 0.332371 0.031067
0.354877 0.333235 0.027719
0.387051 0.334099 0.024316
0.419225 0.334963 0.020913
0.450428 0.335826 0.019128
0.480042 0.336690 0.019992
0.509655 0.337554 0.020855
0.540864 0.338417 0.020124
0.573038 0.339281 0.018427
0.605212 0.340145 0.016731
0.637385 0.341008 0.015035
0.669559 0.341872 0.013338
0.701733 0.342736 0.011642
0.733907 0.343599 0.009945
0.766081 0.344463 0.008249
0.797179 0.345327 0.007628
0.826792 0.346190 0.008492
0.856406 0.347054 0.009356
0.886020 0.347918 0.010219
0.915633 0.348782 0.011083
0.945247 0.349645 0.011947
0.974861 0.350509 0.012811
0.001199 0.354526 0.022293
0.030958 0.355390 0.022915
0.060717 0.356254 0.023537
0.090475 0.357117 0.024159
0.120234 0.357981 0.024781
0.149993 0.358845 0.025403
0.179752 0.359709 0.026025
0.209510 0.360572 0.026646
0.239269 0.361436 0.027268
0.269028 0.362300 0.027890
0.298787 0.363163 0.028512
0.328546 0.364027 0.029134
0.358304 0.364891 0.029756
0.390445 0.365754 0.026408
0.422619 0.366618 0.023005
0.453333 0.367482 0.022033
0.482947 0.368345 0.022897
0.512561 0.369209 0.023761
0.544258 0.370073 0.022541
0.576431 0.370936 0.020845
0.608605 0.371800 0.019148
0.640779 0.372664 0.017452
0.672953 0.373528 0.015756
0.705127 0.374391 0.014059
0.737300 0.375255 0.012363
0.769474 0.376119 0.010666
0.800084 0.376982 0.010534
0.829698 0.377846 0.011398
0.859311 0.378710 0.012261
0.888925 0.379573 0.013125
0.918539 0.380437 0.013989
0.948152 0.381301 0.014852
0.977766 0.382164 0.015716
0.007008 0.386182 0.020360
0.036766 0.387046 0.020982
0.066525 0.387909 0.021604
0.096284 0.388773 0.022226
0.126043 0.389637 0.022848
0.155801 0.390500 0.023470
0.185560 0.391364 0.024091
0.215319 0.392228 0.024713
0.245078 0.393091 0.025335
0.274837 0.393955 0.025957
0.304595 0.394819 0.026579
0.334354 0.395682 0.027201
0.364113 0.396546 0.027823
0.393872 0.397410 0.028444
0.426012 0.398274 0.025097
0.456239 0.399137 0.024939
0.485853 0.400001 0.025803
0.515477 0.400865 0.026655
0.547651 0.401728 0.024959
0.579825 0.402592 0.023262
0.611999 0.403456 0.021566
0.644173 0.404319 0.019869
0.676346 0.405183 0.018173
0.708520 0.406047 0.016477
0.740694 0.406910 0.014780
0.772868 0.407774 0.013084
0.802990 0.408638 0.013439
0.832603 0.409501 0.014303
0.862217 0.410365 0.015167
0.891831 0.411229 0.016030
0.921444 0.412093 0.016894
0.951058 0.412956 0.017758
0.980672 0.413820 0.018622
0.012816 0.417837 0.018427
0.042575 0.418701 0.019049
0.072334 0.419565 0.019671
0.102093 0.420428 0.020293
0.131851 0.421292 0.020915
0.161610 0.422156 0.021537
0.191369 0.423020 0.022158
0.221128 0.423883 0.022780
0.250886 0.424747 0.023402
0.280645 0.425611 0.024024
0.310404 0.426474 0.024646
0.340163 0.427338 0.025268
0.369922 0.428202 0.025890
0.399680 0.429065 0.026511
0.429439 0.429929 0.027133
0.459144 0.430793 0.027844
0.488758 0.431656 0.028708
0.518871 0.432520 0.029072
0.551045 0.433384 0.027376
0.583219 0.434247 0.025680
0.615392 0.435111 0.023983
0.647566 0.435975 0.022287
0.679740 0.436839 0.020590
0.711914 0.437702 0.018894
0.744088 0.438566 0.017198
0.776261 0.439430 0.015501
0.805895 0.440293 0.016345
0.835509 0.441157 0.017209
0.865122 0.442021 0.018072
0.894736 0.442884 0.018936
0.924350 0.443748 0.019800
0.953963 0.444612 0.020663
0.983577 0.445475 0.021527
0.017845 0.449493 0.017795
0.047458 0.450357 0.018658
0.077072 0.451220 0.019522
0.106686 0.452084 0.020386
0.136299 0.452948 0.021249
0.165913 0.453811 0.022113
0.195527 0.454675 0.022977
0.225140 0.455539 0.023840
0.254754 0.456402 0.024704
0.284368 0.457266 0.025568
0.313982 0.458130 0.026431
0.343595 0.458993 0.027295
0.373209 0.459857 0.028159
0.402823 0.460721 0.029022
0.432436 0.461585 0.029886
0.462050 0.462448 0.030750
0.491664 0.463312 0.031614
0.522265 0.464176 0.031490
0.554439 0.465039 0.029793
0.586612 0.465903 0.028097
0.618786 0.466767 0.026401
0.650960 0.467630 0.024704
0.683134 0.468494 0.023008
0.715307 0.469358 0.021311
0.747481 0.470221 0.019615
0.779187 0.471085 0.018387
0.808801 0.471949 0.019250
0.838414 0.472812 0.020114
0.868028 0.473676 0.020978
0.897642 0.474540 0.021841
0.927255 0.475404 0.022705
0.956869 0.476267 0.023569
0.986483 0.477131 0.024433
0.020750 0.481148 0.020700
0.050364 0.482012 0.021564
0.079978 0.482876 0.022427
0.109591 0.483739 0.023291
0.139205 0.484603 0.024155
0.168819 0.485467 0.025018
0.198432 0.486331 0.025882
0.228046 0.487194 0.026746
0.257660 0.488058 0.027610
0.287273 0.488922 0.028473
0.316887 0.489785 0.029337
0.346501 0.490649 0.030201
0.376114 0.491513 0.031064
0.405728 0.492376 0.031928
0.435342 0.493240 0.032792
0.464955 0.494104 0.033655
0.494569 0.494967 0.034519
0.525658 0.495831 0.033907
0.557832 0.496695 0.032211
0.590006 0.497558 0.030514
0.622180 0.498422 0.028818
0.654354 0.499286 0.027122
0.686527 0.500150 0.025425
0.718701 0.501013 0.023729
0.750875 0.501877 0.022032
0.782092 0.502741 0.021292
0.811706 0.503604 0.022156
0.841320 0.504468 0.023020
0.870933 0.505332 0.023883
0.900547 0.506195 0.024747
0.930161 0.507059 0.025611
0.959774 0.507923 0.026474
0.989388 0.508786 0.027338
0.023656 0.512804 0.023606
0.053269 0.513668 0.024469
0.082883 0.514531 0.025333
0.112497 0.515395 0.026197
0.142221 0.516259 0.026949
0.171980 0.517122 0.027668
0.201739 0.517986 0.028387
0.231498 0.518850 0.029105
0.261256 0.519713 0.029824
0.291015 0.520577 0.030542
0.320774 0.521441 0.031261
0.350533 0.522304 0.031980
0.380292 0.523168 0.032698
0.410050 0.524032 0.033417
0.439809 0.524896 0.034135
0.469568 0.525759 0.034854
0.499327 0.526623 0.035573
0.529085 0.527487 0.036291
0.561226 0.528350 0.034628
0.593400 0.529214 0.032932
0.625573 0.530078 0.031235
0.657747 0.530941 0.029539
0.689921 0.531805 0.027843
0.722095 0.532669 0.026146
0.754268 0.533532 0.024450
0.784998 0.534396 0.024198
0.814612 0.535260 0.025061
0.844225 0.536123 0.025925
0.873839 0.536987 0.026789
0.903453 0.537851 0.027652
0.933066 0.538715 0.028516
0.962680 0.539578 0.029380
0.992294 0.540442 0.030244
0.028995 0.544459 0.024078
0.058753 0.545323 0.024796
0.088512 0.546187 0.025515
0.118271 0.547050 0.026233
0.148030 0.547914 0.026952
0.177789 0.548778 0.027670
0.207547 0.549642 0.028389
0.237306 0.550505 0.029108
0.267065 0.551369 0.029826
0.296824 0.552233 0.030545
0.326583 0.553096 0.031263
0.356341 0.553960 0.031982
0.386100 0.554824 0.032701
0.415859 0.555687 0.033419
0.445618 0.556551 0.034138
0.475376 0.557415 0.034856
0.505135 0.558278 0.035575
0.534894 0.559142 0.036294
0.564653 0.560006 0.037012
0.596793 0.560869 0.035349
0.628967 0.561733 0.033653
0.661141 0.562597 0.031956
0.693315 0.563461 0.030260
0.725488 0.564324 0.028563
0.757662 0.565188 0.026867
0.787903 0.566052 0.027103
0.817517 0.566915 0.027967
0.847131 0.567779 0.028831
0.876744 0.568643 0.029694
0.906358 0.569506 0.030558
0.935972 0.570370 0.031422
0.965585 0.571234 0.032285
0.995199 0.572097 0.033149
0.034803 0.576115 0.024080
0.064562 0.576979 0.024798
0.094321 0.577842 0.025517
0.124080 0.578706 0.026236
0.153838 0.579570 0.026954
0.183597 0.580433 0.027673
0.213356 0.581297 0.028391
0.243115 0.582161 0.029110
0.272874 0.583024 0.029829
0.302632 0.583888 0.030547
0.332391 0.584752 0.031266
0.362150 0.585615 0.031984
0.391909 0.586479 0.032703
0.421668 0.587343 0.033422
0.451426 0.588207 0.034140
0.481185 0.589070 0.034859
0.510944 0.589934 0.035577
0.540703 0.590798 0.036296
0.570461 0.591661 0.037014
0.600220 0.592525 0.037733
0.632361 0.593389 0.036070
0.664534 0.594252 0.034374
0.696708 0.595116 0.032677
0.728882 0.595980 0.030981
0.761056 0.596843 0.029284
0.790809 0.597707 0.030009
0.820423 0.598571 0.030872
0.850036 0.599434 0.031736
0.879650 0.600298 0.032600
0.909264 0.601162 0.033463
0.938877 0.602026 0.034327
0.968491 0.602889 0.035191
0.998105 0.603753 0.036055
0.040612 0.607770 0.024082
0.070371 0.608634 0.024801
0.100130 0.609498 0.025519
0.129888 0.610361 0.026238
0.159647 0.611225 0.026957
0.189406 0.612089 0.027675
0.219165 0.612953 0.028394
0.248923 0.613816 0.029112
0.278682 0.614680 0.029831
0.308441 0.615544 0.030550
0.338200 0.616407 0.031268
0.367959 0.617271 0.031987
0.397717 0.618135 0.032705
0.427476 0.618998 0.033424
0.457235 0.619862 0.034142
0.486994 0.620726 0.034861
0.516753 0.621589 0.035580
0.546511 0.622453 0.036298
0.576270 0.623317 0.037017
0.606029 0.624180 0.037735
0.635788 0.625044 0.038454
0.667928 0.625908 0.036791
0.700102 0.626772 0.035095
0.732276 0.627635 0.033398
0.764101 0.628499 0.032051
0.793714 0.629363 0.032914
0.823328 0.630226 0.033778
0.852942 0.631090 0.034642
0.882555 0.631954 0.035505
0.912169 0.632817 0.036369
0.941783 0.633681 0.037233
0.971396 0.634545 0.038096
1.000000 0.635408 0.038960
0.046421 0.639426 0.024085
0.076179 0.640290 0.024803
0.105938 0.641153 0.025522
0.135697 0.642017 0.026240
0.165456 0.642881 0.026959
0.195214 0.643744 0.027678
0.224973 0.644608 0.028396
0.254732 0.645472 0.029115
0.284491 0.646335 0.029833
0.314250 0.647199 0.030552
0.344008 0.648063 0.031271
0.373767 0.648926 0.031989
0.403526 0.649790 0.032708
0.433285 0.650654 0.033426
0.463044 0.651518 0.034145
0.492802 0.652381 0.034863
0.522561 0.653245 0.035582
0.552320 0.654109 0.036301
0.582079 0.654972 0.037019
0.611838 0.655836 0.037738
0.641596 0.656700 0.038456
0.671355 0.657563 0.039175
0.703495 0.658427 0.037512
0.735669 0.659291 0.035816
0.767006 0.660154 0.034956
0.796620 0.661018 0.035820
0.826234 0.661882 0.036683
0.855847 0.662745 0.037547
0.885461 0.663609 0.038411
0.915075 0.664473 0.039274
0.944688 0.665337 0.040138
0.974302 0.666200 0.041002
1.000000 0.667064 0.041866
0.052229 0.671081 0.024087
0.081988 0.671945 0.024806
0.111747 0.672809 0.025524
0.141506 0.673672 0.026243
0.171264 0.674536 0.026961
0.201023 0.675400 0.027680
0.230782 0.676264 0.028399
0.260541 0.677127 0.029117
0.290299 0.677991 0.029836
0.320058 0.678855 0.030554
0.349817 0.679718 0.031273
0.379576 0.680582 0.031991
0.409335 0.681446 0.032710
0.439093 0.682309 0.033429
0.468852 0.683173 0.034147
0.498611 0.684037 0.034866
0.528370 0.684900 0.035584
0.558129 0.685764 0.036303
0.587887 0.686628 0.037022
0.617646 0.687491 0.037740
0.647405 0.688355 0.038459
0.677164 0.689219 0.039177
0.706922 0.690083 0.039896
0.739063 0.690946 0.038233
0.769912 0.691810 0.037862
0.799525 0.692674 0.038725
0.829139 0.693537 0.039589
0.858753 0.694401 0.040453
0.888366 0.695265 0.041316
0.917980 0.696128 0.042180
0.947594 0.696992 0.043044
0.977207 0.697856 0.043907
1.000000 0.698719 0.044771
0.058038 0.702737 0.024089
0.087797 0.703601 0.024808
0.117555 0.704464 0.025527
0.147314 0.705328 0.026245
0.177073 0.706192 0.026964
0.206832 0.707055 0.027682
0.236591 0.707919 0.028401
0.266349 0.708783 0.029120
0.296108 0.709646 0.029838
0.325867 0.710510 0.030557
0.355626 0.711374 0.031275
0.385384 0.712237 0.031994
0.415143 0.713101 0.032712
0.444902 0.713965 0.033431
0.474661 0.714829 0.034150
0.504420 0.715692 0.034868
0.534178 0.716556 0.035587
0.563937 0.717420 0.036305
0.593696 0.718283 0.037024
0.623455 0.719147 0.037743
0.653214 0.720011 0.038461
0.682972 0.720874 0.039180
0.712731 0.721738 0.039898
0.742490 0.722602 0.040617
0.772817 0.723465 0.040767
0.802431 0.724329 0.041631
0.832045 0.725193 0.042494
0.861658 0.726056 0.043358
0.891272 0.726920 0.044222
0.920886 0.727784 0.045085
0.950499 0.728648 0.045949
0.980113 0.729511 0.046813
1.000000 0.730375 0.047677
0.063846 0.734392 0.024092
0.093605 0.735256 0.024810
0.123364 0.736120 0.025529
0.153123 0.736983 0.026248
0.182882 0.737847 0.026966
0.212640 0.738711 0.027685
0.242399 0.739575 0.028403
0.272158 0.740438 0.029122
0.301904 0.741302 0.029854
0.331517 0.742166 0.030717
0.361131 0.743029 0.031581
0.390745 0.743893 0.032445
0.420358 0.744757 0.033308
0.449972 0.745620 0.034172
0.479586 0.746484 0.035036
0.509199 0.747348 0.035899
0.538813 0.748211 0.036763
0.568427 0.749075 0.037627
0.598041 0.749939 0.038490
0.627654 0.750802 0.039354
0.657268 0.751666 0.040218
0.686882 0.752530 0.041081
0.716495 0.753394 0.041945
0.746109 0.754257 0.042809
0.775723 0.755121 0.043673
0.805336 0.755985 0.044536
0.834950 0.756848 0.045400
0.864564 0.757712 0.046264
0.894177 0.758576 0.047127
0.923791 0.759439 0.047991
0.953405 0.760303 0.048855
0.983018 0.761167 0.049718
1.000000 0.762030 0.050582
0.067900 0.766048 0.025850
0.097513 0.766912 0.026713
0.127127 0.767775 0.027577
0.156741 0.768639 0.028441
0.186354 0.769503 0.029304
0.215968 0.770366 0.030168
0.245582 0.771230 0.031032
0.275195 0.772094 0.031895
0.304809 0.772957 0.032759
0.334423 0.773821 0.033623
0.364037 0.774685 0.034486
0.393650 0.775548 0.035350
0.423264 0.776412 0.036214
0.452878 0.777276 0.037077
0.482491 0.778140 0.037941
0.512105 0.779003 0.038805
0.541719 0.779867 0.039669
0.571332 0.780731 0.040532
0.600946 0.781594 0.041396
0.630560 0.782458 0.042260
0.660173 0.783322 0.043123
0.689787 0.784185 0.043987
0.719401 0.785049 0.044851
0.749014 0.785913 0.045714
0.778628 0.786776 0.046578
0.808242 0.787640 0.047442
0.837856 0.788504 0.048305
0.867469 0.789367 0.049169
0.897083 0.790231 0.050033
0.926697 0.791095 0.050896
0.956310 0.791959 0.051760
0.985924 0.792822 0.052624
1.000000 0.793686 0.053488
0.070805 0.797703 0.028755
0.100419 0.798567 0.029619
0.130033 0.799431 0.030482
0.159646 0.800294 0.031346
0.189260 0.801158 0.032210
0.218874 0.802022 0.033073
0.248487 0.802886 0.033937
0.278101 0.803749 0.034801
0.307715 0.804613 0.035665
0.337328 0.805477 0.036528
0.366942 0.806340 0.037392
0.396556 0.807204 0.038256
0.426169 0.808068 0.039119
0.455783 0.808931 0.039983
0.485397 0.809795 0.040847
0.515010 0.810659 0.041710
0.544624 0.811522 0.042574
0.574238 0.812386 0.043438
0.603852 0.813250 0.044301
0.633465 0.814113 0.045165
0.663079 0.814977 0.046029
0.692693 0.815841 0.046892
0.722306 0.816705 0.047756
0.751920 0.817568 0.048620
0.781534 0.818432 0.049484
