lut/luts/iPhoneCam_HLG_to_Rec709_LogMatch_33.cube
TITLE "iPhone standard camera HDR (HLG/BT.2020) to Rec.709 - cinematic + Log look match"
LUT_3D_SIZE 33
DOMAIN_MIN 0.0 0.0 0.0
DOMAIN_MAX 1.0 1.0 1.0
0.000000 0.017118 0.051557
0.000000 0.017152 0.051592
0.004435 0.017301 0.051741
0.018946 0.017603 0.052043
0.042146 0.018086 0.052526
0.075210 0.018775 0.053214
0.112097 0.019542 0.053982
0.149482 0.020321 0.054760
0.189048 0.021108 0.052629
0.230520 0.021903 0.047965
0.272363 0.022705 0.043260
0.314542 0.023514 0.038517
0.357030 0.024329 0.033739
0.399802 0.025149 0.028929
0.442044 0.025974 0.025413
0.481909 0.026804 0.026243
0.522581 0.027638 0.026484
0.568845 0.028525 0.023717
0.620721 0.029520 0.020615
0.678744 0.030632 0.017145
0.745520 0.031913 0.013152
0.838768 0.033795 0.012235
0.907516 0.035227 0.013666
0.945724 0.036022 0.014462
0.945724 0.036022 0.014462
0.945724 0.036022 0.014462
0.945724 0.036022 0.014462
0.945724 0.036022 0.014462
0.945724 0.036022 0.014462
0.945724 0.036022 0.014462
0.945724 0.036022 0.014462
0.945724 0.036022 0.014462
0.945724 0.036022 0.014462
0.000000 0.018563 0.051654
0.000000 0.018520 0.051678
0.004561 0.018279 0.051807
0.019189 0.017629 0.052049
0.042498 0.018094 0.052533
0.075622 0.018783 0.053223
0.112466 0.019550 0.053990
0.149813 0.020328 0.054767
0.189373 0.021114 0.052593
0.230816 0.021909 0.047932
0.272634 0.022710 0.043230
0.314793 0.023519 0.038489
0.357263 0.024333 0.033713
0.400019 0.025153 0.028905
0.442232 0.025978 0.025417
0.482086 0.026807 0.026247
0.522762 0.027642 0.026473
0.569016 0.028528 0.023707
0.620882 0.029523 0.020605
0.678895 0.030635 0.017136
0.745751 0.031917 0.013138
0.838907 0.033798 0.012238
0.907602 0.035228 0.013668
0.945724 0.036022 0.014462
0.945724 0.036022 0.014462
0.945724 0.036022 0.014462
0.945724 0.036022 0.014462
0.945724 0.036022 0.014462
0.945724 0.036022 0.014462
0.945724 0.036022 0.014462
0.945724 0.036022 0.014462
0.945724 0.036022 0.014462
0.945724 0.036022 0.014462
0.000000 0.024745 0.052066
0.000000 0.024674 0.052061
0.003454 0.024519 0.052194
0.018957 0.024102 0.052468
0.042814 0.023246 0.052876
0.076243 0.021844 0.053435
0.113064 0.019671 0.054009
0.150462 0.020341 0.054781
0.190088 0.021128 0.052512
0.231515 0.021922 0.047854
0.273308 0.022723 0.043154
0.315437 0.023531 0.038416
0.357876 0.024345 0.033644
0.400604 0.025164 0.028839
0.442744 0.025988 0.025428
0.482574 0.026818 0.026257
0.523268 0.027651 0.026443
0.569499 0.028538 0.023678
0.621340 0.029532 0.020578
0.679329 0.030643 0.017110
0.746413 0.031930 0.013098
0.839307 0.033807 0.012246
0.907853 0.035234 0.013673
0.945724 0.036022 0.014462
0.945724 0.036022 0.014462
0.945724 0.036022 0.014462
0.945724 0.036022 0.014462
0.945724 0.036022 0.014462
0.945724 0.036022 0.014462
0.945724 0.036022 0.014462
0.945724 0.036022 0.014462
0.945724 0.036022 0.014462
0.945724 0.036022 0.014462
0.000000 0.037302 0.052904
0.000000 0.037224 0.052899
0.000000 0.036990 0.052935
0.016351 0.036704 0.053242
0.041408 0.036079 0.053689
0.075923 0.034993 0.054289
0.113653 0.033192 0.054905
0.151303 0.030511 0.055463
0.190996 0.026875 0.052736
0.232157 0.022221 0.047798
0.274013 0.022737 0.043075
0.316184 0.023545 0.038332
0.358640 0.024360 0.033558
0.401369 0.025179 0.028753
0.443441 0.026003 0.025442
0.483258 0.026832 0.026271
0.523993 0.027665 0.026400
0.570203 0.028551 0.023636
0.622022 0.029545 0.020537
0.679984 0.030656 0.017071
0.747426 0.031949 0.013038
0.839926 0.033820 0.012259
0.908246 0.035242 0.013681
0.945724 0.036022 0.014462
0.945724 0.036022 0.014462
0.945724 0.036022 0.014462
0.945724 0.036022 0.014462
0.945724 0.036022 0.014462
0.945724 0.036022 0.014462
0.945724 0.036022 0.014462
0.945724 0.036022 0.014462
0.945724 0.036022 0.014462
0.945724 0.036022 0.014462
0.000000 0.057377 0.054244
0.000000 0.057292 0.054239
0.000000 0.057001 0.054219
0.010446 0.056661 0.054434
0.036970 0.056184 0.054918
0.073010 0.055332 0.055564
0.112697 0.053855 0.056239
0.151506 0.051547 0.056843
0.192125 0.048325 0.053829
0.233804 0.044115 0.048857
0.275522 0.038852 0.043820
0.317338 0.032478 0.038709
0.359277 0.024944 0.033519
0.402048 0.025192 0.028676
0.444117 0.026017 0.025457
0.483964 0.026847 0.026286
0.524778 0.027680 0.026353
0.570996 0.028566 0.023589
0.622813 0.029560 0.020490
0.680766 0.030671 0.017024
0.748660 0.031973 0.012964
0.840696 0.033836 0.012275
0.908744 0.035252 0.013692
0.945724 0.036022 0.014462
0.945724 0.036022 0.014462
0.945724 0.036022 0.014462
0.945724 0.036022 0.014462
0.945724 0.036022 0.014462
0.945724 0.036022 0.014462
0.945724 0.036022 0.014462
0.945724 0.036022 0.014462
0.945724 0.036022 0.014462
0.945724 0.036022 0.014462
0.000210 0.085896 0.056148
0.000204 0.085804 0.056142
0.000184 0.085504 0.056122
0.000747 0.084934 0.056095
0.028815 0.084551 0.056616
0.066262 0.083858 0.057299
0.109320 0.082654 0.058058
0.150127 0.080663 0.058722
0.192189 0.077807 0.055499
0.234818 0.074008 0.050443
0.277202 0.069194 0.045356
0.319497 0.063300 0.040218
0.361789 0.056266 0.035016
0.404123 0.048042 0.029741
0.445375 0.038580 0.026303
0.484556 0.027837 0.026362
0.525432 0.027693 0.026314
0.571711 0.028580 0.023546
0.623574 0.029574 0.020444
0.681557 0.030686 0.016977
0.749955 0.031998 0.012886
0.841532 0.033853 0.012292
0.909299 0.035264 0.013703
0.945724 0.036022 0.014462
0.945724 0.036022 0.014462
0.945724 0.036022 0.014462
0.945724 0.036022 0.014462
0.945724 0.036022 0.014462
0.945724 0.036022 0.014462
0.945724 0.036022 0.014462
0.945724 0.036022 0.014462
0.945724 0.036022 0.014462
0.945724 0.036022 0.014462
0.002576 0.121341 0.058514
0.002571 0.121259 0.058508
0.002553 0.120997 0.058491
0.002521 0.120505 0.058458
0.016378 0.120001 0.058694
0.055543 0.119630 0.059432
0.102553 0.118926 0.060301
0.146475 0.117551 0.061065
0.190601 0.115405 0.057819
0.234729 0.112379 0.052636
0.278188 0.108337 0.047472
0.321270 0.103105 0.042282
0.364122 0.096329 0.037031
0.406899 0.088614 0.031735
0.448041 0.079684 0.029045
0.487470 0.069490 0.029145
0.528114 0.057988 0.027976
0.573401 0.044354 0.024394
0.624150 0.029586 0.020410
0.682225 0.030699 0.016937
0.751131 0.032020 0.012816
0.842335 0.033870 0.012309
0.909857 0.035275 0.013715
0.945724 0.036022 0.014462
0.945724 0.036022 0.014462
0.945724 0.036022 0.014462
0.945724 0.036022 0.014462
0.945724 0.036022 0.014462
0.945724 0.036022 0.014462
0.945724 0.036022 0.014462
0.945724 0.036022 0.014462
0.945724 0.036022 0.014462
0.945724 0.036022 0.014462
0.004977 0.157307 0.060914
0.004972 0.157236 0.060910
0.004957 0.157013 0.060895
0.004930 0.156606 0.060867
0.004888 0.155967 0.060825
0.039738 0.155761 0.061489
0.090682 0.155523 0.062465
0.139348 0.154794 0.063364
0.186209 0.153455 0.060483
0.232479 0.151459 0.055116
0.277503 0.148729 0.049848
0.321787 0.145172 0.044618
0.365621 0.140674 0.039384
0.409178 0.135094 0.034121
0.450481 0.128256 0.032272
0.490374 0.119923 0.032502
0.531938 0.109765 0.030865
0.577499 0.096577 0.027292
0.628331 0.080234 0.023208
0.684893 0.059732 0.018525
0.752159 0.034109 0.012879
0.843002 0.033884 0.012323
0.910358 0.035286 0.013725
0.945724 0.036022 0.014462
0.945724 0.036022 0.014462
0.945724 0.036022 0.014462
0.945724 0.036022 0.014462
0.945724 0.036022 0.014462
0.945724 0.036022 0.014462
0.945724 0.036022 0.014462
0.945724 0.036022 0.014462
0.945724 0.036022 0.014462
0.945724 0.036022 0.014462
0.008584 0.193688 0.061378
0.008574 0.193626 0.061383
0.008544 0.193431 0.061399
0.008489 0.193083 0.061428
0.008405 0.192547 0.061473
0.019539 0.192013 0.061704
0.072759 0.192070 0.062588
0.128990 0.191850 0.063546
0.178335 0.191075 0.063518
0.227509 0.189762 0.057860
0.274589 0.187875 0.052407
0.320414 0.185358 0.047060
0.365452 0.182142 0.041764
0.409983 0.178148 0.036480
0.451749 0.173278 0.035243
0.492294 0.167417 0.035648
0.534951 0.160420 0.033735
0.581208 0.151579 0.030382
0.632694 0.139604 0.026522
0.689824 0.122921 0.022033
0.757566 0.098742 0.016446
0.845706 0.068028 0.014610
0.910742 0.035294 0.013733
0.945724 0.036022 0.014462
0.945724 0.036022 0.014462
0.945724 0.036022 0.014462
0.945724 0.036022 0.014462
0.945724 0.036022 0.014462
0.945724 0.036022 0.014462
0.945724 0.036022 0.014462
0.945724 0.036022 0.014462
0.945724 0.036022 0.014462
0.945724 0.036022 0.014462
0.014329 0.230435 0.058343
0.014321 0.230379 0.058348
0.014294 0.230207 0.058362
0.014246 0.229901 0.058387
0.014174 0.229439 0.058425
0.014072 0.228788 0.058479
0.050873 0.228676 0.059103
0.114760 0.228856 0.060155
0.169760 0.228534 0.061101
0.219351 0.227722 0.060947
0.269131 0.226427 0.055221
0.316929 0.224623 0.049691
0.363476 0.222266 0.044271
0.409205 0.219304 0.038911
0.451718 0.215677 0.038017
0.493011 0.211314 0.038535
0.536682 0.206134 0.036385
0.583610 0.199656 0.033134
0.635796 0.191048 0.029434
0.693705 0.179451 0.025205
0.762307 0.163583 0.020066
0.850674 0.141286 0.019502
0.915676 0.106132 0.018465
0.947149 0.057368 0.015886
0.945724 0.036022 0.014462
0.945724 0.036022 0.014462
0.945724 0.036022 0.014462
0.945724 0.036022 0.014462
0.945724 0.036022 0.014462
0.945724 0.036022 0.014462
0.945724 0.036022 0.014462
0.945724 0.036022 0.014462
0.945724 0.036022 0.014462
0.020126 0.267511 0.055281
0.020118 0.267461 0.055285
0.020094 0.267305 0.055298
0.020051 0.267033 0.055320
0.019988 0.266626 0.055354
0.019899 0.266060 0.055400
0.022970 0.265372 0.055510
0.091340 0.265817 0.056615
0.156694 0.265942 0.057696
0.210875 0.265540 0.058635
0.260734 0.264697 0.058352
0.311053 0.263416 0.052566
0.359492 0.261676 0.046967
0.406695 0.259443 0.041480
0.450291 0.256677 0.040673
0.492480 0.253330 0.041275
0.537160 0.249348 0.038961
0.584837 0.244378 0.035755
0.637753 0.237811 0.032134
0.696391 0.229073 0.028032
0.765322 0.217391 0.023126
0.854341 0.201762 0.023531
0.920502 0.178920 0.023323
0.952936 0.144066 0.021673
0.949272 0.089180 0.018010
0.946082 0.041378 0.014819
0.945724 0.036022 0.014462
0.945724 0.036022 0.014462
0.945921 0.038966 0.014658
0.946955 0.054466 0.015693
0.948071 0.071176 0.016808
0.949249 0.088837 0.017987
0.950490 0.107429 0.019228
0.025970 0.304886 0.052194
0.025963 0.304839 0.052197
0.025940 0.304698 0.052209
0.025902 0.304451 0.052229
0.025845 0.304087 0.052260
0.025767 0.303586 0.052301
0.025663 0.302925 0.052356
0.059161 0.302775 0.052928
0.136628 0.303324 0.054175
0.198652 0.303307 0.055213
0.252312 0.302838 0.056149
0.302450 0.301969 0.055736
0.353255 0.300699 0.049896
0.402271 0.299011 0.044234
0.447337 0.296877 0.043246
0.490600 0.294266 0.043917
0.536318 0.291139 0.041532
0.584865 0.287223 0.038336
0.638606 0.282050 0.034749
0.698032 0.275188 0.030712
0.766823 0.266094 0.026039
0.856927 0.254248 0.027016
0.924068 0.237249 0.027210
0.957509 0.212586 0.026246
0.955188 0.177808 0.023925
0.953002 0.145064 0.021740
0.952155 0.132367 0.020892
0.952536 0.138073 0.021273
0.953380 0.150724 0.022117
0.954311 0.164665 0.023048
0.955239 0.178578 0.023977
0.956155 0.192302 0.024893
0.957060 0.205849 0.025797
0.031856 0.342533 0.049084
0.031850 0.342491 0.049087
0.031829 0.342360 0.049098
0.031794 0.342135 0.049117
0.031742 0.341805 0.049144
0.031672 0.341354 0.049181
0.031580 0.340766 0.049230
0.031463 0.340018 0.049292
0.104995 0.340616 0.050469
0.180672 0.341051 0.051696
0.240728 0.340929 0.052710
0.294052 0.340406 0.053645
0.344471 0.339514 0.053102
0.395716 0.338252 0.047211
0.442700 0.336606 0.045756
0.487250 0.334554 0.046489
0.534056 0.332069 0.044137
0.583622 0.328935 0.040927
0.638315 0.324776 0.037342
0.698633 0.319254 0.033332
0.766705 0.311938 0.029037
0.858587 0.302608 0.030214
0.926854 0.289206 0.030665
0.961345 0.270049 0.030082
0.959637 0.244466 0.028374
0.958224 0.223292 0.026961
0.957806 0.217038 0.026544
0.958166 0.222430 0.026904
0.958826 0.232320 0.027564
0.959564 0.243377 0.028302
0.960324 0.254760 0.029061
0.961096 0.266319 0.029833
0.961877 0.278021 0.030614
0.037782 0.380433 0.045953
0.037776 0.380393 0.045957
0.037757 0.380272 0.045967
0.037724 0.380065 0.045984
0.037677 0.379763 0.046009
0.037613 0.379353 0.046043
0.037530 0.378822 0.046087
0.037425 0.378153 0.046142
0.061644 0.377830 0.046574
0.154309 0.378750 0.048043
0.224243 0.378999 0.049190
0.282968 0.378792 0.050189
0.336074 0.378222 0.051125
0.386773 0.377310 0.050450
0.436204 0.376054 0.048212
0.482290 0.374444 0.049003
0.530252 0.372459 0.046804
0.581011 0.369928 0.043557
0.636810 0.366545 0.039952
0.698150 0.362031 0.035941
0.765160 0.356011 0.031891
0.859331 0.348505 0.033232
0.928989 0.337597 0.033873
0.964814 0.322020 0.033551
0.963468 0.301856 0.032205
0.962450 0.286608 0.031187
0.962235 0.283383 0.030972
0.962602 0.288886 0.031339
0.963198 0.297812 0.031935
0.963863 0.307773 0.032600
0.964556 0.318156 0.033293
0.965269 0.328841 0.034006
0.966000 0.339790 0.034737
0.043415 0.418567 0.043352
0.043413 0.418530 0.043350
0.043405 0.418417 0.043342
0.043392 0.418225 0.043330
0.043374 0.417945 0.043311
0.043348 0.417570 0.043286
0.043316 0.417086 0.043254
0.043276 0.416479 0.043213
0.043226 0.415734 0.043163
0.112712 0.416282 0.044551
0.200640 0.417040 0.046311
0.267042 0.417157 0.047611
0.324754 0.416880 0.048715
0.377691 0.416269 0.049705
0.427636 0.415339 0.050616
0.475561 0.414089 0.051467
0.524772 0.412508 0.049553
0.576924 0.410458 0.046250
0.634005 0.407687 0.042603
0.696519 0.403961 0.038568
0.764427 0.398967 0.034688
0.859105 0.392811 0.036127
0.930501 0.383756 0.036924
0.968066 0.370744 0.036803
0.966967 0.354281 0.035704
0.966203 0.342831 0.034940
0.966114 0.341503 0.034851
0.966493 0.347177 0.035230
0.967058 0.355644 0.035795
0.967686 0.365059 0.036424
0.968346 0.374948 0.037084
0.969031 0.385211 0.037769
0.969739 0.395813 0.038476
0.045975 0.456919 0.045912
0.045973 0.456885 0.045910
0.045966 0.456779 0.045903
0.045954 0.456600 0.045891
0.045936 0.456340 0.045874
0.045913 0.455992 0.045850
0.045883 0.455547 0.045821
0.045846 0.454992 0.045784
0.045801 0.454315 0.045738
0.054155 0.453676 0.045859
0.163898 0.454995 0.048081
0.242744 0.455503 0.049648
0.306850 0.455517 0.050896
0.363878 0.455179 0.051983
0.416737 0.454532 0.052969
0.466873 0.453587 0.053883
0.517457 0.452341 0.052400
0.571237 0.450685 0.049022
0.629800 0.448411 0.045315
0.693662 0.445317 0.041235
0.762708 0.441140 0.037415
0.857821 0.436040 0.038932
0.931374 0.428428 0.039864
0.971178 0.417369 0.039915
0.970262 0.403645 0.038999
0.969678 0.394904 0.038416
0.969679 0.394911 0.038416
0.970069 0.400751 0.038806
0.970617 0.408964 0.039354
0.971224 0.418070 0.039962
0.971867 0.427690 0.040604
0.972537 0.437739 0.041275
0.973234 0.448184 0.041972
0.048713 0.495477 0.048321
0.048708 0.495444 0.048322
0.048693 0.495345 0.048324
0.048666 0.495177 0.048328
0.048628 0.494934 0.048333
0.048578 0.494610 0.048341
0.048513 0.494198 0.048350
0.048433 0.493687 0.048362
0.048388 0.493065 0.048325
0.048338 0.492322 0.048275
0.107479 0.492676 0.049438
0.210906 0.493797 0.051250
0.284627 0.494137 0.052553
0.347186 0.494067 0.053667
0.403762 0.493677 0.054684
0.456608 0.492999 0.055642
0.508125 0.492039 0.055362
0.563811 0.490716 0.051888
0.624089 0.488854 0.048101
0.689494 0.486281 0.043959
0.759938 0.482770 0.040086
0.855362 0.478514 0.041664
0.931567 0.472067 0.042724
0.974194 0.462560 0.042931
0.973421 0.450972 0.042158
0.972974 0.444283 0.041711
0.973041 0.445288 0.041778
0.973441 0.451273 0.042178
0.973978 0.459329 0.042716
0.974574 0.468246 0.043311
0.975205 0.477711 0.043943
0.975869 0.487654 0.044606
0.976562 0.498041 0.045300
0.055123 0.536471 0.047384
0.055118 0.536440 0.047385
0.055104 0.536347 0.047387
0.055079 0.536188 0.047390
0.055043 0.535961 0.047395
0.054996 0.535659 0.047402
0.054936 0.535276 0.047411
0.054862 0.534804 0.047422
0.054773 0.534232 0.047435
0.054667 0.533552 0.047451
0.054541 0.532751 0.047469
0.166296 0.534138 0.049422
0.257322 0.534951 0.051020
0.328065 0.535184 0.052273
0.389711 0.535057 0.053373
0.446111 0.534635 0.054387
0.499106 0.533942 0.055348
0.553881 0.532921 0.055037
0.616269 0.531429 0.051144
0.683553 0.529317 0.046915
0.755788 0.526389 0.042860
0.851317 0.522856 0.044487
0.930961 0.517427 0.045681
0.977311 0.509265 0.046049
0.976659 0.499491 0.045396
0.976326 0.494500 0.045063
0.976447 0.496316 0.045184
0.976855 0.502426 0.045592
0.977385 0.510373 0.046123
0.977972 0.519158 0.046709
0.978597 0.528527 0.047334
0.979257 0.538419 0.047995
0.979951 0.548806 0.048688
0.062310 0.582438 0.046333
0.062305 0.582409 0.046334
0.062292 0.582321 0.046336
0.062269 0.582172 0.046339
0.062235 0.581960 0.046344
0.062191 0.581679 0.046350
0.062136 0.581324 0.046358
0.062068 0.580888 0.046368
0.061986 0.580363 0.046380
0.061888 0.579740 0.046395
0.061774 0.579011 0.046411
0.083510 0.578618 0.046808
0.213816 0.580349 0.049082
0.299463 0.581015 0.050589
0.369028 0.581197 0.051822
0.430580 0.581049 0.052921
0.487286 0.580626 0.053941
0.543761 0.579900 0.054964
0.605187 0.578761 0.054673
0.674915 0.577084 0.050322
0.749570 0.574699 0.045901
0.844785 0.571811 0.047564
0.929185 0.567334 0.048913
0.980726 0.560425 0.049464
0.980183 0.552292 0.048921
0.979950 0.548795 0.048687
0.980118 0.551309 0.048855
0.980533 0.557525 0.049270
0.981057 0.565382 0.049794
0.981637 0.574066 0.050374
0.982258 0.583371 0.050995
0.982917 0.593249 0.051654
0.983613 0.603671 0.052350
0.070348 0.633850 0.045158
0.070344 0.633823 0.045158
0.070331 0.633741 0.045160
0.070310 0.633602 0.045163
0.070279 0.633404 0.045168
0.070238 0.633143 0.045174
0.070186 0.632814 0.045181
0.070124 0.632412 0.045191
0.070048 0.631930 0.045202
0.069959 0.631361 0.045215
0.069856 0.630698 0.045230
0.069736 0.629930 0.045247
0.129360 0.630290 0.046299
0.254073 0.631879 0.048477
0.337881 0.632487 0.049953
0.407515 0.632658 0.051187
0.469642 0.632522 0.052296
0.530294 0.632094 0.053386
0.593855 0.631299 0.054537
0.662572 0.630033 0.054266
0.740330 0.628153 0.049413
0.834546 0.625826 0.050900
0.925633 0.622254 0.052438
0.984471 0.616529 0.053208
0.984027 0.609880 0.052764
0.983881 0.607693 0.052618
0.984088 0.610796 0.052826
0.984508 0.617092 0.053246
0.985027 0.624867 0.053765
0.985601 0.633466 0.054339
0.986220 0.642727 0.054957
0.986879 0.652611 0.055617
0.987579 0.663094 0.056316
0.079319 0.691223 0.043846
0.079315 0.691198 0.043847
0.079303 0.691121 0.043848
0.079283 0.690991 0.043851
0.079254 0.690807 0.043856
0.079216 0.690565 0.043861
0.079168 0.690261 0.043868
0.079110 0.689890 0.043877
0.079041 0.689448 0.043887
0.078960 0.688929 0.043899
0.078866 0.688325 0.043912
0.078757 0.687630 0.043928
0.078633 0.686836 0.043946
0.168200 0.687796 0.045515
0.288172 0.689272 0.047612
0.372469 0.689885 0.049096
0.443221 0.690083 0.050350
0.510047 0.689973 0.051542
0.578574 0.689524 0.052772
0.649910 0.688655 0.054064
0.726610 0.687249 0.053812
0.818658 0.685383 0.054489
0.919369 0.682690 0.056272
0.985589 0.678052 0.057256
0.988227 0.672806 0.056965
0.988157 0.671757 0.056894
0.988397 0.675346 0.057134
0.988820 0.681691 0.057558
0.989334 0.689382 0.058071
0.989902 0.697901 0.058639
0.990518 0.707125 0.059255
0.991179 0.717024 0.059916
0.991883 0.727581 0.060621
0.086878 0.755116 0.044816
0.086877 0.755092 0.044814
0.086872 0.755021 0.044809
0.086864 0.754900 0.044801
0.086853 0.754728 0.044790
0.086838 0.754504 0.044775
0.086819 0.754223 0.044756
0.086796 0.753882 0.044733
0.086769 0.753476 0.044706
0.086737 0.753002 0.044675
0.086701 0.752453 0.044638
0.086659 0.751823 0.044596
0.086611 0.751107 0.044548
0.086557 0.750297 0.044494
0.191153 0.751565 0.046612
0.313179 0.753089 0.049086
0.399804 0.753761 0.050815
0.476514 0.754027 0.052325
0.552363 0.753947 0.053795
0.629464 0.753476 0.055264
0.709272 0.752526 0.056755
0.793872 0.750987 0.058300
0.908869 0.749191 0.060420
0.982292 0.745548 0.061610
0.992824 0.741673 0.061561
0.992819 0.741599 0.061556
0.993084 0.745575 0.061822
0.993509 0.751933 0.062246
0.994016 0.759530 0.062753
0.994579 0.767963 0.063316
0.995213 0.777462 0.063950
0.996273 0.793354 0.065011
0.997352 0.809513 0.066089
0.093391 0.852691 0.051329
0.093390 0.852665 0.051327
0.093384 0.852588 0.051322
0.093376 0.852458 0.051313
0.093363 0.852273 0.051301
0.093347 0.852032 0.051285
0.093327 0.851731 0.051264
0.093303 0.851366 0.051240
0.093274 0.850933 0.051211
0.093240 0.850427 0.051177
0.093201 0.849842 0.051138
0.093156 0.849173 0.051094
0.093106 0.848411 0.051043
0.093048 0.847551 0.050985
0.092984 0.846583 0.050921
0.196323 0.847652 0.053001
0.328249 0.849192 0.055669
0.424400 0.849771 0.057577
0.512544 0.849826 0.059296
0.598441 0.849374 0.060937
0.684993 0.848337 0.062553
0.774068 0.846566 0.064170
0.893002 0.844375 0.066341
0.977003 0.840399 0.067715
0.999177 0.836861 0.067915
0.999244 0.837862 0.067981
0.999619 0.843479 0.068356
1.000000 0.851572 0.068896
1.000000 0.860758 0.069510
1.000000 0.870497 0.070160
1.000000 0.880567 0.070832
1.000000 0.890800 0.071515
1.000000 0.901027 0.072197
0.098356 0.927074 0.056293
0.098355 0.927056 0.056292
0.098351 0.927003 0.056289
0.098345 0.926913 0.056283
0.098337 0.926786 0.056274
0.098326 0.926621 0.056263
0.098312 0.926414 0.056249
0.098295 0.926165 0.056233
0.098276 0.925870 0.056213
0.098253 0.925527 0.056190
0.098226 0.925131 0.056164
0.098196 0.924679 0.056134
0.098162 0.924167 0.056099
0.098123 0.923589 0.056061
0.098080 0.922942 0.056018
0.098032 0.922219 0.055969
0.180166 0.923125 0.057627
0.339241 0.925491 0.060876
0.452139 0.926661 0.063149
0.552852 0.927275 0.065149
0.649757 0.927417 0.067043
0.746703 0.927044 0.068905
0.866213 0.926459 0.071192
0.966031 0.924874 0.073030
1.000000 0.923267 0.073682
1.000000 0.923774 0.073716
1.000000 0.926751 0.073914
1.000000 0.930963 0.074195
1.000000 0.935659 0.074509
1.000000 0.940550 0.074835
1.000000 0.945508 0.075166
1.000000 0.950441 0.075496
1.000000 0.955263 0.075817
0.101215 0.969913 0.059153
0.101215 0.969913 0.059153
0.101215 0.969913 0.059153
0.101215 0.969913 0.059153
0.101215 0.969913 0.059153
0.101215 0.969913 0.059153
0.101215 0.969913 0.059153
0.101215 0.969913 0.059153
0.101215 0.969913 0.059153
0.101215 0.969913 0.059153
0.101215 0.969913 0.059153
0.101191 0.969552 0.059129
0.101155 0.969006 0.059092
0.101114 0.968399 0.059052
0.101069 0.967727 0.059007
0.101020 0.966986 0.058957
0.100966 0.966172 0.058903
0.223469 0.967778 0.061391
0.386543 0.970011 0.064710
0.507637 0.971093 0.067137
0.616855 0.971576 0.069293
0.722478 0.971528 0.071345
0.840764 0.971151 0.073622
0.954774 0.970241 0.075780
1.000000 0.968890 0.076681
1.000000 0.968361 0.076692
1.000000 0.969218 0.076749
1.000000 0.970739 0.076850
1.000000 0.972486 0.076967
1.000000 0.974301 0.077088
1.000000 0.976124 0.077210
1.000000 0.977919 0.077330
1.000000 0.979651 0.077445
0.101215 0.969913 0.059153
0.101215 0.969913 0.059153
0.101215 0.969913 0.059153
0.101215 0.969913 0.059153
0.101215 0.969913 0.059153
0.101215 0.969913 0.059153
0.101215 0.969913 0.059153
0.101215 0.969913 0.059153
0.101215 0.969913 0.059153
0.101215 0.969913 0.059153
0.101215 0.969913 0.059153
0.101215 0.969913 0.059153
0.101215 0.969913 0.059153
0.101215 0.969913 0.059153
0.101215 0.969913 0.059153
0.101215 0.969913 0.059153
0.101215 0.969913 0.059153
0.139210 0.970704 0.059944
0.355545 0.975208 0.064447
0.489894 0.978005 0.067244
0.606390 0.980430 0.069669
0.717060 0.982734 0.071973
0.837986 0.985251 0.074490
0.953426 0.987654 0.076894
1.000000 0.986397 0.077771
1.000000 0.985430 0.077831
1.000000 0.985348 0.077826
1.000000 0.985699 0.077849
1.000000 0.986179 0.077881
1.000000 0.986688 0.077915
1.000000 0.987198 0.077949
1.000000 0.987696 0.077982
1.000000 0.988172 0.078014
0.101215 0.969913 0.059153
0.101215 0.969913 0.059153
0.101215 0.969913 0.059153
0.101215 0.969913 0.059153
0.101215 0.969913 0.059153
0.101215 0.969913 0.059153
0.101215 0.969913 0.059153
0.101215 0.969913 0.059153
0.101215 0.969913 0.059153
0.101215 0.969913 0.059153
0.101215 0.969913 0.059153
0.101215 0.969913 0.059153
0.101215 0.969913 0.059153
0.101215 0.969913 0.059153
0.101215 0.969913 0.059153
0.101215 0.969913 0.059153
0.101215 0.969913 0.059153
0.154327 0.971019 0.060258
0.365647 0.975418 0.064657
0.499887 0.978213 0.067452
0.616906 0.980649 0.069888
0.728267 0.982967 0.072206
0.854675 0.985598 0.074838
0.960212 0.987795 0.077035
1.000000 0.988713 0.077952
