lut/luts/iPhoneCam_HLG_to_Rec709_LogMatch_33.cube
TITLE "iPhone standard camera HDR (HLG/BT.2020) to Rec.709 - cinematic + Log look match"
LUT_3D_SIZE 5
DOMAIN_MIN 0.0 0.0 0.0
DOMAIN_MAX 1.0 1.0 1.0
0.000000 0.017118 0.051557
0.189048 0.021108 0.052629
0.522581 0.027638 0.026484
0.945724 0.036022 0.014462
0.945724 0.036022 0.014462
0.008584 0.193688 0.061378
0.178335 0.191075 0.063518
0.534951 0.160420 0.033735
0.945724 0.036022 0.014462
0.945724 0.036022 0.014462
0.048713 0.495477 0.048321
0.048388 0.493065 0.048325
0.508125 0.492039 0.055362
0.973421 0.450972 0.042158
0.976562 0.498041 0.045300
0.101215 0.969913 0.059153
0.101215 0.969913 0.059153
0.100966 0.966172 0.058903
1.000000 0.968890 0.076681
1.000000 0.979651 0.077445
0.101215 0.969913 0.059153
0.101215 0.969913 0.059153
0.262397 0.973269 0.062508
1.000000 0.988818 0.078057
1.000000 0.988818 0.078057
0.000000 0.017940 0.166235
0.189750 0.022146 0.198709
0.524021 0.028843 0.194388
0.946980 0.037278 0.189674
0.947217 0.037515 0.222755
0.010073 0.195950 0.216827
0.185886 0.192554 0.202277
0.545141 0.160928 0.190678
0.946911 0.037209 0.179992
0.947117 0.037415 0.208823
0.050045 0.497167 0.194636
0.049644 0.494637 0.193897
0.517443 0.493251 0.185633
0.974300 0.451718 0.166226
0.977564 0.498665 0.188777
0.101215 0.969913 0.059153
0.101215 0.969913 0.059153
0.100966 0.966183 0.058904
1.000000 0.968795 0.076649
1.000000 0.979488 0.077434
0.101377 0.970075 0.081750
0.101332 0.970030 0.075483
0.245357 0.972914 0.062153
1.000000 0.988818 0.078057
1.000000 0.988818 0.078057
0.012248 0.019564 0.369132
0.199241 0.023594 0.396719
0.524838 0.030541 0.434264
0.948930 0.039228 0.461698
0.949398 0.039696 0.527034
0.030945 0.200188 0.421265
0.175819 0.194683 0.427699
0.541636 0.160438 0.445433
0.948949 0.039247 0.464328
0.949373 0.039671 0.523493
0.052683 0.500968 0.476027
0.052263 0.498146 0.479028
0.516375 0.495873 0.474312
0.976611 0.453598 0.492792
0.980015 0.499971 0.542003
0.104274 0.972972 0.485849
0.104276 0.972974 0.486109
0.104032 0.969268 0.486389
1.000000 0.971568 0.504897
1.000000 0.982313 0.539893
0.104832 0.973530 0.563746
0.104826 0.973524 0.562883
0.185015 0.975175 0.561907
1.000000 0.992378 0.574764
1.000000 0.992496 0.591166
0.040357 0.022310 0.722414
0.173395 0.025240 0.752832
0.537600 0.033173 0.810348
0.951875 0.042173 0.872584
0.952144 0.042442 0.910082
0.055445 0.205614 0.791660
0.086186 0.194692 0.805554
0.534249 0.154802 0.840340
0.951919 0.042217 0.878699
0.952144 0.042442 0.910082
0.076037 0.508111 0.871848
0.075826 0.504525 0.875780
0.485307 0.499714 0.893345
0.979552 0.455219 0.916162
0.982686 0.500021 0.940623
0.107469 0.976166 0.931507
0.107472 0.976170 0.932000
0.107238 0.972534 0.932967
0.994528 0.974026 0.952465
1.000000 0.984253 0.963710
0.107630 0.976328 0.953988
0.107627 0.976325 0.953626
0.107619 0.976317 0.952516
1.000000 0.995066 0.969025
1.000000 0.995215 0.970539
0.044040 0.023538 0.891177
0.146115 0.025663 0.893302
0.567815 0.034441 0.902081
0.952144 0.042442 0.910082
0.952144 0.042442 0.910082
0.057533 0.225689 0.904670
0.056518 0.210481 0.903655
0.556326 0.163209 0.910285
0.952144 0.042442 0.910082
0.952144 0.042442 0.910082
0.078008 0.532446 0.925145
0.077662 0.527264 0.924799
0.494787 0.518708 0.932354
0.980627 0.469172 0.938564
0.983285 0.509003 0.941223
0.107635 0.976333 0.954773
0.107635 0.976333 0.954773
0.107635 0.976333 0.954773
0.997235 0.977853 0.972179
1.000000 0.985636 0.973036
0.107635 0.976333 0.954773
0.107635 0.976333 0.954773
0.107635 0.976333 0.954773
1.000000 0.995105 0.973544
1.000000 0.995238 0.973677
