lut/luts/iPhoneCam_Rec709_LogMatch_33.cube
TITLE "iPhone standard camera (Rec.709) - cinematic + Apple Log 2 look match"
LUT_3D_SIZE 9
DOMAIN_MIN 0.0 0.0 0.0
DOMAIN_MAX 1.0 1.0 1.0
0.000000 0.017118 0.051557
0.109133 0.019481 0.053920
0.227428 0.021844 0.048313
0.350675 0.024207 0.034454
0.470672 0.026570 0.026009
0.590112 0.028933 0.022446
0.713359 0.031296 0.015075
0.859531 0.034228 0.012667
0.945724 0.036022 0.014462
0.003569 0.136217 0.059507
0.117082 0.138580 0.061870
0.236713 0.140943 0.054037
0.359960 0.143306 0.040177
0.478621 0.145669 0.033959
0.599397 0.148032 0.029059
0.722643 0.150395 0.021689
0.867481 0.153327 0.020617
0.953674 0.155121 0.022411
0.018220 0.255317 0.056288
0.132130 0.257680 0.057989
0.246040 0.260043 0.059691
0.369245 0.262406 0.045901
0.486571 0.264769 0.041908
0.608682 0.267132 0.035673
0.731928 0.269495 0.028303
0.875430 0.272427 0.028566
0.961623 0.274221 0.030360
0.036841 0.374416 0.046450
0.150751 0.376779 0.048152
0.264661 0.379142 0.049853
0.378571 0.381505 0.051555
0.494720 0.383868 0.049658
0.617967 0.386231 0.042287
0.741213 0.388594 0.034917
0.883380 0.391526 0.036516
0.969573 0.393320 0.038310
0.048418 0.493515 0.048355
0.162317 0.495878 0.050332
0.276227 0.498242 0.052298
0.390137 0.500605 0.054264
0.504047 0.502968 0.056230
0.627252 0.505331 0.048901
0.750496 0.507694 0.041533
0.891329 0.510626 0.044465
0.977522 0.512420 0.046259
0.067028 0.612615 0.045643
0.180938 0.614978 0.047609
0.294848 0.617341 0.049575
0.408758 0.619704 0.051541
0.522668 0.622067 0.053507
0.636578 0.624430 0.055473
0.758445 0.626793 0.049483
0.899279 0.629725 0.052414
0.985471 0.631519 0.054209
0.085316 0.731714 0.043254
0.198830 0.734077 0.045617
0.312343 0.736440 0.047980
0.425856 0.738803 0.050343
0.539369 0.741167 0.052706
0.652882 0.743530 0.055069
0.766395 0.745893 0.057432
0.907228 0.748824 0.060364
0.993421 0.750619 0.062158
0.095179 0.879478 0.053117
0.208692 0.881842 0.055480
0.322205 0.884205 0.057843
0.435718 0.886568 0.060206
0.549231 0.888931 0.062569
0.662744 0.891294 0.064932
0.776257 0.893657 0.067295
0.917091 0.896589 0.070227
1.000000 0.898383 0.072021
0.101215 0.969913 0.059153
0.214728 0.972276 0.061516
0.328241 0.974639 0.063879
0.441755 0.977002 0.066242
0.555268 0.979365 0.068605
0.668781 0.981728 0.070968
0.782294 0.984092 0.073331
0.923127 0.987023 0.076263
1.000000 0.988818 0.078057
0.000000 0.017920 0.163510
0.109935 0.020283 0.165873
0.228412 0.022646 0.159962
0.351659 0.025009 0.146103
0.471475 0.027372 0.137962
0.591096 0.029735 0.134216
0.714343 0.032098 0.126846
0.860334 0.035030 0.124620
0.946527 0.036825 0.126414
0.004372 0.137020 0.171459
0.123782 0.139383 0.163993
0.246987 0.141746 0.150204
0.365911 0.144109 0.143548
0.486424 0.146472 0.138911
0.609671 0.148835 0.131541
0.727450 0.151198 0.129637
0.868283 0.154130 0.132569
0.954476 0.155924 0.134363
0.019162 0.256119 0.168007
0.142404 0.258482 0.154156
0.256314 0.260845 0.155857
0.373860 0.263208 0.151498
0.495709 0.265571 0.145525
0.618956 0.267934 0.138155
0.735399 0.270297 0.137587
0.876233 0.273229 0.140519
0.962426 0.275023 0.142313
0.037784 0.375218 0.158169
0.154784 0.377582 0.154721
0.268297 0.379945 0.157084
0.381810 0.382308 0.159447
0.504994 0.384671 0.152139
0.628241 0.387034 0.144768
0.743349 0.389397 0.145536
0.884182 0.392329 0.148468
0.970375 0.394123 0.150262
0.049349 0.494318 0.160178
0.172591 0.496681 0.152813
0.286501 0.499044 0.154779
0.400411 0.501407 0.156745
0.514321 0.503770 0.158711
0.637526 0.506133 0.151382
0.751298 0.508496 0.153486
0.892132 0.511428 0.156418
0.978324 0.513222 0.158212
0.067971 0.613417 0.157456
0.191212 0.615780 0.150090
0.305122 0.618143 0.152056
0.418709 0.620507 0.154346
0.532222 0.622870 0.156709
0.645735 0.625233 0.159072
0.759248 0.627596 0.161435
0.900081 0.630527 0.164367
0.986274 0.632322 0.166161
0.086119 0.732517 0.155206
0.199632 0.734880 0.157569
0.313145 0.737243 0.159932
0.426658 0.739606 0.162295
0.540171 0.741969 0.164659
0.653684 0.744332 0.167022
0.767197 0.746695 0.169385
0.908031 0.749627 0.172316
0.994223 0.751421 0.174111
0.095982 0.880281 0.165069
0.209495 0.882644 0.167432
0.323008 0.885007 0.169795
0.436521 0.887370 0.172158
0.550034 0.889733 0.174521
0.663547 0.892096 0.176884
0.777060 0.894459 0.179247
0.917893 0.897391 0.182179
1.000000 0.899185 0.183973
0.102018 0.970716 0.171105
0.215531 0.973079 0.173468
0.329044 0.975442 0.175831
0.442557 0.977805 0.178194
0.556070 0.980168 0.180557
0.669583 0.982531 0.182920
0.783096 0.984894 0.185284
0.923929 0.987826 0.188215
1.000000 0.989620 0.190010
0.001483 0.018723 0.268366
0.115434 0.021086 0.269998
0.229350 0.023449 0.271690
0.352596 0.025812 0.257831
0.472277 0.028175 0.249914
0.592034 0.030538 0.246034
0.715280 0.032901 0.238663
0.861136 0.035833 0.236572
0.947329 0.037627 0.238367
0.010767 0.137822 0.274090
0.134014 0.140185 0.260230
0.247971 0.142548 0.261853
0.366713 0.144911 0.255501
0.487409 0.147274 0.250682
0.610655 0.149637 0.243311
0.728253 0.152000 0.241590
0.869086 0.154932 0.244522
0.955279 0.156726 0.246316
0.020100 0.256922 0.279735
0.143346 0.259285 0.265875
0.261150 0.261648 0.261087
0.382736 0.264011 0.255377
0.505983 0.266374 0.248006
0.622689 0.268737 0.247176
0.736202 0.271100 0.249539
0.877035 0.274032 0.252471
0.963228 0.275826 0.254265
0.038721 0.376021 0.269897
0.155586 0.378384 0.266674
0.278153 0.380747 0.259983
0.392063 0.383110 0.261949
0.515268 0.385473 0.254620
0.630638 0.387836 0.255126
0.744151 0.390199 0.257489
0.884985 0.393131 0.260421
0.971178 0.394925 0.262215
0.050287 0.495120 0.271996
0.173533 0.497483 0.264625
0.296775 0.499847 0.257260
0.410685 0.502210 0.259226
0.524595 0.504573 0.261192
0.638588 0.506936 0.263075
0.752101 0.509299 0.265438
0.892934 0.512231 0.268370
0.979127 0.514025 0.270164
0.068908 0.614220 0.269273
0.192155 0.616583 0.261903
0.305998 0.618946 0.263935
0.419511 0.621309 0.266299
0.533024 0.623672 0.268662
0.646537 0.626035 0.271025
0.760050 0.628398 0.273388
0.900884 0.631330 0.276319
0.987076 0.633124 0.278114
0.086922 0.733319 0.267159
0.200435 0.735682 0.269522
0.313948 0.738045 0.271885
0.427461 0.740408 0.274248
0.540974 0.742772 0.276611
0.654487 0.745135 0.278974
0.768000 0.747498 0.281337
0.908833 0.750429 0.284269
0.995026 0.752224 0.286063
0.096784 0.881083 0.277022
0.210297 0.883447 0.279385
0.323810 0.885810 0.281748
0.437323 0.888173 0.284111
0.550836 0.890536 0.286474
0.664349 0.892899 0.288837
0.777863 0.895262 0.291200
0.918696 0.898194 0.294132
1.000000 0.899988 0.295926
0.102820 0.971518 0.283058
0.216333 0.973881 0.285421
0.329846 0.976244 0.287784
0.443360 0.978607 0.290147
0.556873 0.980970 0.292510
0.670386 0.983333 0.294873
0.783899 0.985697 0.297236
0.924732 0.988628 0.300168
1.000000 0.990423 0.301962
0.011756 0.019525 0.364533
0.125708 0.021888 0.366164
0.239618 0.024251 0.367866
0.353534 0.026614 0.369558
0.473080 0.028977 0.361867
0.592971 0.031340 0.357852
0.716218 0.033703 0.350481
0.861939 0.036635 0.348525
0.948132 0.038430 0.350319
0.021041 0.138625 0.370256
0.140490 0.140988 0.362727
0.254003 0.143351 0.365090
0.367516 0.145714 0.367453
0.488346 0.148077 0.362499
0.611592 0.150440 0.355129
0.729055 0.152803 0.353542
0.869888 0.155735 0.356474
0.956081 0.157529 0.358268
0.030326 0.257724 0.375980
0.148439 0.260087 0.370677
0.269764 0.262450 0.365228
0.383721 0.264813 0.367147
0.506967 0.267176 0.359777
0.623491 0.269539 0.359129
0.737005 0.271902 0.361492
0.877838 0.274834 0.364424
0.964031 0.276628 0.366218
0.039658 0.376823 0.381625
0.156389 0.379187 0.378626
0.279096 0.381550 0.371795
0.402337 0.383913 0.364430
0.517928 0.386276 0.364715
0.631441 0.388639 0.367078
0.744954 0.391002 0.369441
0.885787 0.393934 0.372373
0.971980 0.395728 0.374167
0.051224 0.495923 0.383814
0.174471 0.498286 0.376443
0.297717 0.500649 0.369073
0.412364 0.503012 0.370302
0.525877 0.505375 0.372665
0.639390 0.507738 0.375028
0.752903 0.510101 0.377391
0.893737 0.513033 0.380323
0.979929 0.514827 0.382117
0.069845 0.615022 0.381091
0.193092 0.617385 0.373720
0.306801 0.619748 0.375888
0.420314 0.622112 0.378251
0.533827 0.624475 0.380614
0.647340 0.626838 0.382977
0.760853 0.629201 0.385340
0.901686 0.632132 0.388272
0.987879 0.633927 0.390066
0.087724 0.734122 0.379111
0.201237 0.736485 0.381474
0.314750 0.738848 0.383837
0.428263 0.741211 0.386200
0.541776 0.743574 0.388564
0.655289 0.745937 0.390927
0.768802 0.748300 0.393290
0.909636 0.751232 0.396221
0.995828 0.753026 0.398016
0.097587 0.881886 0.388974
0.211100 0.884249 0.391337
0.324613 0.886612 0.393700
0.438126 0.888975 0.396063
0.551639 0.891338 0.398426
0.665152 0.893701 0.400789
0.778665 0.896064 0.403152
0.919498 0.898996 0.406084
1.000000 0.900790 0.407878
0.103623 0.972321 0.395010
0.217136 0.974684 0.397373
0.330649 0.977047 0.399736
0.444162 0.979410 0.402099
0.557675 0.981773 0.404462
0.671188 0.984136 0.406825
0.784701 0.986499 0.409189
0.925534 0.989431 0.412120
1.000000 0.991225 0.413915
0.019830 0.020328 0.464367
0.133343 0.022691 0.466730
0.246856 0.025054 0.469093
0.360369 0.027417 0.471456
0.473882 0.029780 0.473819
0.593908 0.032143 0.469669
0.717155 0.034506 0.462299
0.862741 0.037438 0.460477
0.948934 0.039232 0.462272
0.027779 0.139427 0.472317
0.147506 0.141790 0.468466
0.261458 0.144153 0.470390
0.375368 0.146516 0.472356
0.489283 0.148879 0.474317
0.612530 0.151242 0.466947
0.729858 0.153605 0.465495
0.870691 0.156537 0.468427
0.956884 0.158331 0.470221
0.035729 0.258527 0.480266
0.156791 0.260890 0.475080
0.280038 0.263253 0.467709
0.393989 0.265616 0.469634
0.507905 0.267979 0.471594
0.624294 0.270342 0.471081
0.737807 0.272705 0.473444
0.878640 0.275637 0.476376
0.964833 0.277431 0.478170
0.043678 0.377626 0.488215
0.166076 0.379989 0.481694
0.289323 0.382352 0.474323
0.405217 0.384715 0.474305
0.518730 0.387078 0.476668
0.632243 0.389441 0.479031
0.745756 0.391804 0.481394
0.886590 0.394736 0.484326
0.972783 0.396530 0.486120
0.052161 0.496725 0.495631
0.175408 0.499088 0.488261
0.298655 0.501452 0.480890
0.413167 0.503815 0.482254
0.526680 0.506178 0.484617
0.640193 0.508541 0.486980
0.753706 0.510904 0.489343
0.894539 0.513836 0.492275
0.980732 0.515630 0.494069
0.070783 0.615825 0.492909
0.194029 0.618188 0.485538
0.307603 0.620551 0.487840
0.421116 0.622914 0.490204
0.534629 0.625277 0.492567
0.648142 0.627640 0.494930
0.761655 0.630003 0.497293
0.902489 0.632935 0.500224
0.988681 0.634729 0.502019
0.088527 0.734924 0.491064
0.202040 0.737287 0.493427
0.315553 0.739650 0.495790
0.429066 0.742013 0.498153
0.542579 0.744377 0.500516
0.656092 0.746740 0.502879
0.769605 0.749103 0.505242
0.910438 0.752034 0.508174
0.996631 0.753829 0.509968
0.098389 0.882688 0.500927
0.211902 0.885052 0.503290
0.325415 0.887415 0.505653
0.438928 0.889778 0.508016
0.552441 0.892141 0.510379
0.665954 0.894504 0.512742
0.779468 0.896867 0.515105
0.920301 0.899799 0.518037
1.000000 0.901593 0.519831
0.104425 0.973123 0.506963
0.217938 0.975486 0.509326
0.331452 0.977849 0.511689
0.444965 0.980212 0.514052
0.558478 0.982575 0.516415
0.671991 0.984938 0.518778
0.785504 0.987302 0.521141
0.926337 0.990233 0.524073
1.000000 0.992028 0.525867
0.025248 0.021130 0.571704
0.139200 0.023493 0.573628
0.253110 0.025856 0.575594
0.367020 0.028219 0.577560
0.480930 0.030582 0.579526
0.594846 0.032945 0.581487
0.718092 0.035308 0.574116
0.863544 0.038240 0.572430
0.949737 0.040035 0.574224
0.034533 0.140230 0.578318
0.157780 0.142593 0.570947
0.271732 0.144956 0.572871
0.385642 0.147319 0.574837
0.499552 0.149682 0.576803
0.613467 0.152045 0.578764
0.730660 0.154408 0.577447
0.871493 0.157340 0.580379
0.957686 0.159134 0.582173
0.043818 0.259329 0.584932
0.167065 0.261692 0.577561
0.284557 0.264055 0.575945
0.398070 0.266418 0.578308
0.511583 0.268781 0.580671
0.625096 0.271144 0.583034
0.738610 0.273507 0.585397
0.879443 0.276439 0.588329
0.965636 0.278233 0.590123
0.053103 0.378428 0.591545
0.176350 0.380792 0.584175
0.292507 0.383155 0.583894
0.406020 0.385518 0.586257
0.519533 0.387881 0.588620
0.633046 0.390244 0.590983
0.746559 0.392607 0.593346
0.887392 0.395539 0.596278
0.973585 0.397333 0.598072
0.062388 0.497528 0.598159
0.185635 0.499891 0.590789
0.300456 0.502254 0.591844
0.413969 0.504617 0.594207
0.527482 0.506980 0.596570
0.640995 0.509343 0.598933
0.754508 0.511706 0.601296
0.895342 0.514638 0.604228
0.981535 0.516432 0.606022
0.071720 0.616627 0.604726
0.194893 0.618990 0.597430
0.308406 0.621353 0.599793
0.421919 0.623717 0.602156
0.535432 0.626080 0.604519
0.648945 0.628443 0.606882
0.762458 0.630806 0.609245
0.903291 0.633737 0.612177
0.989484 0.635532 0.613971
0.089329 0.735727 0.603016
0.202842 0.738090 0.605379
0.316355 0.740453 0.607742
0.429868 0.742816 0.610105
0.543381 0.745179 0.612469
0.656894 0.747542 0.614832
0.770407 0.749905 0.617195
0.911241 0.752837 0.620126
0.997433 0.754631 0.621921
0.099192 0.883491 0.612879
0.212705 0.885854 0.615242
0.326218 0.888217 0.617605
0.439731 0.890580 0.619968
0.553244 0.892943 0.622331
0.666757 0.895306 0.624694
0.780270 0.897669 0.627057
0.921103 0.900601 0.629989
1.000000 0.902395 0.631783
0.105228 0.973926 0.618915
0.218741 0.976289 0.621278
0.332254 0.978652 0.623641
0.445767 0.981015 0.626004
0.559280 0.983378 0.628367
0.672793 0.985741 0.630730
0.786306 0.988104 0.633094
0.927139 0.991036 0.636025
1.000000 0.992830 0.637820
0.035522 0.021933 0.674185
0.149474 0.024296 0.676109
0.263384 0.026659 0.678075
0.377294 0.029022 0.680041
0.491204 0.031385 0.682007
0.605114 0.033748 0.683973
0.719030 0.036111 0.685934
0.864346 0.039043 0.684382
0.950539 0.040837 0.686177
0.044807 0.141032 0.680799
0.163897 0.143395 0.677585
0.277410 0.145758 0.679948
0.390923 0.148121 0.682311
0.504436 0.150484 0.684674
0.617950 0.152847 0.687037
0.731463 0.155210 0.689400
0.872296 0.158142 0.692332
0.958489 0.159936 0.694126
0.054092 0.260132 0.687413
0.171847 0.262495 0.685534
0.285360 0.264858 0.687897
0.398873 0.267221 0.690260
0.512386 0.269584 0.692623
0.625899 0.271947 0.694986
0.739412 0.274310 0.697349
0.880245 0.277242 0.700281
0.966438 0.279036 0.702075
0.063377 0.379231 0.694027
0.179796 0.381594 0.693484
0.293309 0.383957 0.695847
0.406822 0.386320 0.698210
0.520335 0.388683 0.700573
0.633848 0.391046 0.702936
0.747361 0.393409 0.705299
0.888195 0.396341 0.708231
0.974388 0.398135 0.710025
0.072662 0.498330 0.700641
0.187746 0.500693 0.701433
0.301259 0.503057 0.703796
0.414772 0.505420 0.706159
0.528285 0.507783 0.708522
0.641798 0.510146 0.710885
0.755311 0.512509 0.713248
0.896144 0.515441 0.716180
0.982337 0.517235 0.717974
0.081947 0.617430 0.707254
0.195695 0.619793 0.709382
0.309208 0.622156 0.711745
0.422721 0.624519 0.714109
0.536234 0.626882 0.716472
0.649747 0.629245 0.718835
0.763260 0.631608 0.721198
0.904094 0.634540 0.724129
0.990286 0.636334 0.725924
0.090132 0.736529 0.714969
0.203645 0.738892 0.717332
0.317158 0.741255 0.719695
0.430671 0.743618 0.722058
0.544184 0.745982 0.724421
0.657697 0.748345 0.726784
0.771210 0.750708 0.729147
0.912043 0.753639 0.732079
0.998236 0.755434 0.733873
0.099994 0.884293 0.724832
0.213507 0.886657 0.727195
0.327020 0.889020 0.729558
0.440533 0.891383 0.731921
0.554046 0.893746 0.734284
0.667559 0.896109 0.736647
0.781073 0.898472 0.739010
0.921906 0.901404 0.741942
1.000000 0.903198 0.743736
0.106030 0.974728 0.730868
0.219543 0.977091 0.733231
0.333057 0.979454 0.735594
0.446570 0.981817 0.737957
0.560083 0.984180 0.740320
0.673596 0.986543 0.742683
0.787109 0.988907 0.745046
0.927942 0.991838 0.747978
1.000000 0.993633 0.749772
0.043430 0.022928 0.806169
0.156944 0.025291 0.808532
0.270457 0.027654 0.810895
0.383970 0.030017 0.813258
0.497483 0.032380 0.815621
0.610996 0.034744 0.817984
0.724509 0.037107 0.820348
0.865342 0.040038 0.823279
0.951535 0.041833 0.825074
0.051380 0.142028 0.814119
0.164893 0.144391 0.816482
0.278406 0.146754 0.818845
0.391919 0.149117 0.821208
0.505432 0.151480 0.823571
0.618945 0.153843 0.825934
0.732458 0.156206 0.828297
0.873291 0.159138 0.831229
0.959484 0.160932 0.833023
0.059329 0.261127 0.822068
0.172842 0.263490 0.824431
0.286355 0.265853 0.826794
0.399869 0.268216 0.829157
0.513382 0.270579 0.831520
0.626895 0.272942 0.833883
0.740408 0.275305 0.836246
0.881241 0.278237 0.839178
0.967434 0.280032 0.840973
0.067279 0.380227 0.830018
0.180792 0.382590 0.832381
0.294305 0.384953 0.834744
0.407818 0.387316 0.837107
0.521331 0.389679 0.839470
0.634844 0.392042 0.841833
0.748357 0.394405 0.844196
0.889190 0.397337 0.847128
0.975383 0.399131 0.848922
0.075228 0.499326 0.837967
0.188741 0.501689 0.840330
0.302254 0.504052 0.842693
0.415767 0.506415 0.845056
0.529280 0.508778 0.847419
0.642794 0.511141 0.849782
0.756307 0.513504 0.852145
0.897140 0.516436 0.855077
0.983333 0.518230 0.856871
0.083178 0.618426 0.845916
0.196691 0.620789 0.848280
0.310204 0.623152 0.850643
0.423717 0.625515 0.853006
0.537230 0.627878 0.855369
0.650743 0.630241 0.857732
0.764256 0.632604 0.860095
0.905089 0.635536 0.863027
0.991282 0.637330 0.864821
0.091127 0.737525 0.853866
0.204640 0.739888 0.856229
0.318153 0.742251 0.858592
0.431666 0.744614 0.860955
0.545179 0.746977 0.863318
0.658692 0.749340 0.865681
0.772205 0.751703 0.868044
0.913039 0.754635 0.870976
0.999232 0.756429 0.872770
0.100990 0.885289 0.863729
0.214503 0.887652 0.866092
0.328016 0.890015 0.868455
0.441529 0.892378 0.870818
0.555042 0.894741 0.873181
0.668555 0.897104 0.875544
0.782068 0.899467 0.877907
0.922901 0.902399 0.880839
1.000000 0.904194 0.882633
0.107026 0.975724 0.869765
0.220539 0.978087 0.872128
0.334052 0.980450 0.874491
0.447565 0.982813 0.876854
0.561078 0.985176 0.879217
0.674591 0.987539 0.881580
0.788104 0.989902 0.883943
0.928938 0.992834 0.886875
1.000000 0.994628 0.888669
0.044040 0.023538 0.891177
0.157553 0.025901 0.893540
0.271066 0.028264 0.895903
0.384579 0.030627 0.898266
0.498092 0.032990 0.900629
0.611605 0.035353 0.902992
0.725118 0.037716 0.905355
0.865951 0.040648 0.908287
0.952144 0.042442 0.910082
0.051989 0.142637 0.899127
0.165502 0.145000 0.901490
0.279015 0.147363 0.903853
0.392528 0.149726 0.906216
0.506041 0.152089 0.908579
0.619555 0.154452 0.910942
0.733068 0.156815 0.913305
0.873901 0.159747 0.916237
0.960094 0.161541 0.918031
0.059939 0.261737 0.907076
0.173452 0.264100 0.909439
0.286965 0.266463 0.911802
0.400478 0.268826 0.914165
0.513991 0.271189 0.916528
0.627504 0.273552 0.918891
0.741017 0.275915 0.921254
0.881850 0.278847 0.924186
0.968043 0.280641 0.925980
0.067888 0.380836 0.915025
0.181401 0.383199 0.917389
0.294914 0.385562 0.919752
0.408427 0.387925 0.922115
0.521940 0.390288 0.924478
0.635453 0.392651 0.926841
0.748966 0.395014 0.929204
0.889800 0.397946 0.932136
0.975993 0.399740 0.933930
0.075838 0.499935 0.922975
0.189351 0.502298 0.925338
0.302864 0.504662 0.927701
0.416377 0.507025 0.930064
0.529890 0.509388 0.932427
0.643403 0.511751 0.934790
0.756916 0.514114 0.937153
0.897749 0.517046 0.940085
0.983942 0.518840 0.941879
0.083787 0.619035 0.930924
0.197300 0.621398 0.933287
0.310813 0.623761 0.935650
0.424326 0.626124 0.938014
0.537839 0.628487 0.940377
0.651352 0.630850 0.942740
0.764865 0.633213 0.945103
0.905699 0.636145 0.948034
0.991891 0.637939 0.949829
0.091737 0.738134 0.938874
0.205250 0.740497 0.941237
0.318763 0.742860 0.943600
0.432276 0.745223 0.945963
0.545789 0.747587 0.948326
0.659302 0.749950 0.950689
0.772815 0.752313 0.953052
0.913648 0.755244 0.955984
0.999841 0.757039 0.957778
0.101599 0.885898 0.948737
0.215112 0.888262 0.951100
0.328625 0.890625 0.953463
0.442138 0.892988 0.955826
0.555651 0.895351 0.958189
0.669164 0.897714 0.960552
0.782678 0.900077 0.962915
0.923511 0.903009 0.965847
1.000000 0.904803 0.967641
0.107635 0.976333 0.954773
0.221148 0.978696 0.957136
0.334662 0.981059 0.959499
0.448175 0.983422 0.961862
0.561688 0.985785 0.964225
0.675201 0.988148 0.966588
0.788714 0.990512 0.968951
0.929547 0.993443 0.971883
1.000000 0.995238 0.973677
