lut/luts/iPhoneCam_HLG_to_Rec709_Cinematic_33.cube
TITLE "iPhone standard camera HDR (HLG/BT.2020) to Rec.709 - cinematic"
LUT_3D_SIZE 33
DOMAIN_MIN 0.0 0.0 0.0
DOMAIN_MAX 1.0 1.0 1.0
0.000000 0.000000 0.009212
0.000000 0.000000 0.009263
0.000000 0.000000 0.009480
0.000000 0.000000 0.009922
0.001813 0.000000 0.010628
0.036318 0.000000 0.011634
0.074811 0.000000 0.012757
0.113822 0.000000 0.013895
0.153284 0.000000 0.015046
0.193143 0.000000 0.016208
0.235773 0.000000 0.013357
0.279818 0.000000 0.008699
0.324184 0.000000 0.004006
0.368847 0.000000 0.000000
0.413786 0.000000 0.000000
0.458982 0.000000 0.000000
0.501630 0.000000 0.000000
0.546096 0.000000 0.000000
0.599844 0.000000 0.000000
0.660432 0.000000 0.000000
0.728043 0.000000 0.000000
0.803338 0.000000 0.000000
0.881296 0.000502 0.000000
0.942900 0.002298 0.000000
0.942900 0.002298 0.000000
0.942900 0.002298 0.000000
0.942900 0.002298 0.000000
0.942900 0.002298 0.000000
0.942900 0.002298 0.000000
0.942900 0.002298 0.000000
0.942900 0.002298 0.000000
0.942900 0.002298 0.000000
0.942900 0.002298 0.000000
0.000000 0.000000 0.009353
0.000000 0.000000 0.009388
0.000000 0.000000 0.009577
0.000000 0.000000 0.009931
0.002181 0.000000 0.010639
0.036747 0.000000 0.011647
0.075196 0.000000 0.012768
0.114168 0.000000 0.013905
0.153597 0.000000 0.015055
0.193428 0.000000 0.016216
0.236057 0.000000 0.013327
0.280079 0.000000 0.008671
0.324427 0.000000 0.003980
0.369074 0.000000 0.000000
0.413998 0.000000 0.000000
0.459183 0.000000 0.000000
0.501804 0.000000 0.000000
0.546260 0.000000 0.000000
0.600013 0.000000 0.000000
0.660590 0.000000 0.000000
0.728191 0.000000 0.000000
0.803477 0.000000 0.000000
0.881415 0.000505 0.000000
0.942900 0.002298 0.000000
0.942900 0.002298 0.000000
0.942900 0.002298 0.000000
0.942900 0.002298 0.000000
0.942900 0.002298 0.000000
0.942900 0.002298 0.000000
0.942900 0.002298 0.000000
0.942900 0.002298 0.000000
0.942900 0.002298 0.000000
0.942900 0.002298 0.000000
0.000000 0.000000 0.009956
0.000000 0.000000 0.009949
0.000000 0.000000 0.010143
0.000000 0.000000 0.010544
0.002654 0.000000 0.011141
0.037481 0.000000 0.011957
0.075823 0.000000 0.012797
0.114846 0.000000 0.013925
0.154283 0.000000 0.015075
0.194100 0.000000 0.016236
0.236760 0.000000 0.013253
0.280752 0.000000 0.008600
0.325068 0.000000 0.003912
0.369684 0.000000 0.000000
0.414580 0.000000 0.000000
0.459737 0.000000 0.000000
0.502291 0.000000 0.000000
0.546724 0.000000 0.000000
0.600491 0.000000 0.000000
0.661043 0.000000 0.000000
0.728619 0.000000 0.000000
0.803879 0.000000 0.000000
0.881763 0.000515 0.000000
0.942900 0.002298 0.000000
0.942900 0.002298 0.000000
0.942900 0.002298 0.000000
0.942900 0.002298 0.000000
0.942900 0.002298 0.000000
0.942900 0.002298 0.000000
0.942900 0.002298 0.000000
0.942900 0.002298 0.000000
0.942900 0.002298 0.000000
0.942900 0.002298 0.000000
0.000000 0.000000 0.011182
0.000000 0.000000 0.011174
0.000000 0.000000 0.011226
0.000000 0.000000 0.011676
0.001548 0.000000 0.012329
0.037514 0.000000 0.013206
0.076815 0.000000 0.014107
0.116007 0.000000 0.014922
0.155286 0.000000 0.015648
0.194723 0.000000 0.016282
0.237496 0.000000 0.013175
0.281532 0.000000 0.008517
0.325865 0.000000 0.003828
0.370482 0.000000 0.000000
0.415369 0.000000 0.000000
0.460512 0.000000 0.000000
0.502988 0.000000 0.000000
0.547401 0.000000 0.000000
0.601202 0.000000 0.000000
0.661727 0.000000 0.000000
0.729273 0.000000 0.000000
0.804502 0.000000 0.000000
0.882306 0.000531 0.000000
0.942900 0.002298 0.000000
0.942900 0.002298 0.000000
0.942900 0.002298 0.000000
0.942900 0.002298 0.000000
0.942900 0.002298 0.000000
0.942900 0.002298 0.000000
0.942900 0.002298 0.000000
0.942900 0.002298 0.000000
0.942900 0.002298 0.000000
0.942900 0.002298 0.000000
0.000000 0.017463 0.013141
0.000000 0.017372 0.013132
0.000000 0.017063 0.013104
0.000000 0.016802 0.013417
0.000000 0.016516 0.014126
0.035045 0.015911 0.015070
0.076395 0.014672 0.016057
0.116807 0.012541 0.016940
0.156857 0.009437 0.017727
0.196802 0.005283 0.018416
0.239597 0.000010 0.014279
0.283028 0.000000 0.009094
0.326549 0.000000 0.003803
0.371192 0.000000 0.000000
0.416136 0.000000 0.000000
0.461313 0.000000 0.000000
0.503742 0.000000 0.000000
0.548163 0.000000 0.000000
0.602028 0.000000 0.000000
0.662543 0.000000 0.000000
0.730073 0.000000 0.000000
0.805280 0.000000 0.000000
0.882998 0.000551 0.000000
0.942900 0.002298 0.000000
0.942900 0.002298 0.000000
0.942900 0.002298 0.000000
0.942900 0.002298 0.000000
0.942900 0.002298 0.000000
0.942900 0.002298 0.000000
0.942900 0.002298 0.000000
0.942900 0.002298 0.000000
0.942900 0.002298 0.000000
0.942900 0.002298 0.000000
0.000000 0.047783 0.015924
0.000000 0.047686 0.015915
0.000000 0.047366 0.015885
0.000000 0.046765 0.015847
0.000000 0.046592 0.016608
0.028805 0.046166 0.017607
0.073679 0.045245 0.018717
0.116183 0.043469 0.019687
0.157588 0.040765 0.020545
0.198454 0.037055 0.021299
0.242340 0.032264 0.016488
0.286287 0.026324 0.011286
0.330192 0.019175 0.005996
0.374103 0.010761 0.000606
0.418043 0.001032 0.000000
0.462021 0.000000 0.000000
0.504371 0.000000 0.000000
0.548851 0.000000 0.000000
0.602823 0.000000 0.000000
0.663370 0.000000 0.000000
0.730917 0.000000 0.000000
0.806127 0.000000 0.000000
0.883771 0.000574 0.000000
0.942900 0.002298 0.000000
0.942900 0.002298 0.000000
0.942900 0.002298 0.000000
0.942900 0.002298 0.000000
0.942900 0.002298 0.000000
0.942900 0.002298 0.000000
0.942900 0.002298 0.000000
0.942900 0.002298 0.000000
0.942900 0.002298 0.000000
0.942900 0.002298 0.000000
0.000000 0.085467 0.019382
0.000000 0.085380 0.019374
0.000000 0.085101 0.019349
0.000000 0.084578 0.019301
0.000000 0.084157 0.019647
0.018627 0.084089 0.020725
0.067635 0.083732 0.021995
0.113405 0.082636 0.023113
0.156915 0.080703 0.024095
0.199425 0.077826 0.024654
0.244646 0.073863 0.019469
0.289435 0.068634 0.014232
0.333934 0.061763 0.008899
0.378323 0.053892 0.003500
0.422640 0.044731 0.000000
0.466802 0.034226 0.000000
0.507635 0.022333 0.000000
0.550946 0.008193 0.000000
0.603425 0.000000 0.000000
0.664067 0.000000 0.000000
0.731685 0.000000 0.000000
0.806945 0.000000 0.000000
0.884552 0.000597 0.000000
0.942900 0.002298 0.000000
0.942900 0.002298 0.000000
0.942900 0.002298 0.000000
0.942900 0.002298 0.000000
0.942900 0.002298 0.000000
0.942900 0.002298 0.000000
0.942900 0.002298 0.000000
0.942900 0.002298 0.000000
0.942900 0.002298 0.000000
0.942900 0.002298 0.000000
0.000000 0.123705 0.022892
0.000000 0.123629 0.022885
0.000000 0.123392 0.022863
0.000000 0.122960 0.022824
0.000000 0.122280 0.022761
0.003153 0.122350 0.023733
0.056279 0.122521 0.025159
0.107015 0.122151 0.026474
0.153560 0.121100 0.027616
0.198352 0.119333 0.027993
0.245248 0.116778 0.022736
0.291347 0.113337 0.017497
0.336945 0.108893 0.012234
0.382218 0.103298 0.006916
0.427267 0.096364 0.001519
0.471240 0.087841 0.000000
0.512483 0.077378 0.000000
0.556925 0.063713 0.000000
0.609440 0.046738 0.000000
0.667798 0.025386 0.000000
0.732490 0.000000 0.000000
0.807627 0.000000 0.000000
0.885256 0.000617 0.000000
0.942900 0.002298 0.000000
0.942900 0.002298 0.000000
0.942900 0.002298 0.000000
0.942900 0.002298 0.000000
0.942900 0.002298 0.000000
0.942900 0.002298 0.000000
0.942900 0.002298 0.000000
0.942900 0.002298 0.000000
0.942900 0.002298 0.000000
0.942900 0.002298 0.000000
0.000000 0.162383 0.026442
0.000000 0.162317 0.026436
0.000000 0.162110 0.026417
0.000000 0.161740 0.026383
0.000000 0.161170 0.026331
0.000000 0.160696 0.026597
0.037420 0.161198 0.028114
0.095985 0.161431 0.029690
0.146849 0.161014 0.031004
0.194414 0.159994 0.031575
0.243485 0.158350 0.026155
0.291225 0.156026 0.020825
0.338120 0.152955 0.015528
0.384462 0.149051 0.010227
0.430431 0.144215 0.004893
0.474571 0.138324 0.002123
0.516527 0.131226 0.002603
0.562590 0.122185 0.001144
0.615930 0.109856 0.000000
0.675005 0.092567 0.000000
0.740098 0.067264 0.000000
0.811936 0.034673 0.000000
0.885798 0.000633 0.000000
0.942900 0.002298 0.000000
0.942900 0.002298 0.000000
0.942900 0.002298 0.000000
0.942900 0.002298 0.000000
0.942900 0.002298 0.000000
0.942900 0.002298 0.000000
0.942900 0.002298 0.000000
0.942900 0.002298 0.000000
0.942900 0.002298 0.000000
0.942900 0.002298 0.000000
0.000000 0.201452 0.030028
0.000000 0.201392 0.030023
0.000000 0.201208 0.030006
0.000000 0.200884 0.029976
0.000000 0.200393 0.029931
0.000000 0.199701 0.029867
0.012244 0.199887 0.030902
0.078755 0.200608 0.032733
0.136045 0.200723 0.034265
0.187139 0.200267 0.035487
0.239046 0.199273 0.029811
0.288868 0.197721 0.024317
0.337368 0.195573 0.018919
0.384992 0.192776 0.013565
0.432022 0.189268 0.008220
0.476547 0.184975 0.006343
0.519227 0.179812 0.007016
0.566666 0.173289 0.005124
0.620845 0.164541 0.001428
0.680899 0.152663 0.000000
0.747282 0.136201 0.000000
0.819159 0.112559 0.000000
0.893001 0.075950 0.000000
0.944983 0.024993 0.000000
0.942900 0.002298 0.000000
0.942900 0.002298 0.000000
0.942900 0.002298 0.000000
0.942900 0.002298 0.000000
0.942900 0.002298 0.000000
0.942900 0.002298 0.000000
0.942900 0.002298 0.000000
0.942900 0.002298 0.000000
0.942900 0.002298 0.000000
0.000000 0.240870 0.029234
0.000000 0.240816 0.029237
0.000000 0.240650 0.029247
0.000000 0.240361 0.029265
0.000000 0.239928 0.029291
0.000000 0.239326 0.029328
0.000000 0.238621 0.029447
0.054661 0.239661 0.031006
0.122916 0.240337 0.032518
0.179486 0.240360 0.033806
0.231532 0.239872 0.033774
0.284002 0.238897 0.028039
0.334495 0.237419 0.022478
0.383683 0.235408 0.017016
0.431978 0.232823 0.011607
0.477168 0.229617 0.010349
0.520666 0.225734 0.011157
0.569405 0.220818 0.008883
0.624412 0.214246 0.005321
0.685321 0.205410 0.001248
0.752643 0.193412 0.000000
0.824713 0.176852 0.000000
0.900059 0.153335 0.000000
0.953443 0.117167 0.000000
0.948087 0.058813 0.000000
0.943423 0.007993 0.000000
0.942900 0.002298 0.000000
0.942900 0.002298 0.000000
0.943187 0.005429 0.000000
0.944700 0.021907 0.000000
0.946331 0.039672 0.000000
0.948054 0.058450 0.000000
0.949868 0.078215 0.000000
0.000000 0.280605 0.026807
0.000000 0.280555 0.026810
0.000000 0.280404 0.026820
0.000000 0.280143 0.026836
0.000000 0.279755 0.026859
0.000000 0.279222 0.026892
0.000000 0.278520 0.026935
0.022230 0.278639 0.027724
0.103148 0.279865 0.029488
0.167922 0.280361 0.030932
0.223946 0.280309 0.032212
0.276282 0.279796 0.032047
0.329259 0.278835 0.026259
0.380356 0.277417 0.020637
0.430173 0.275516 0.015116
0.476352 0.273101 0.014212
0.520806 0.270133 0.015128
0.570832 0.266345 0.012549
0.626745 0.261258 0.009059
0.688538 0.254422 0.005103
0.756747 0.245197 0.000597
0.828972 0.232649 0.000000
0.905288 0.215341 0.000000
0.960130 0.190014 0.000000
0.956736 0.153040 0.000000
0.953541 0.118227 0.000000
0.952302 0.104729 0.000000
0.952858 0.110795 0.000000
0.954093 0.124245 0.000000
0.955453 0.139067 0.000000
0.956811 0.153858 0.000000
0.958150 0.168449 0.000000
0.959472 0.182852 0.000000
0.000000 0.320630 0.024363
0.000000 0.320585 0.024366
0.000000 0.320446 0.024375
0.000000 0.320207 0.024389
0.000000 0.319855 0.024411
0.000000 0.319377 0.024440
0.000000 0.318751 0.024478
0.000000 0.317956 0.024527
0.071300 0.319201 0.026196
0.150345 0.320292 0.027926
0.213060 0.320660 0.029331
0.268731 0.320547 0.030608
0.321358 0.320011 0.030308
0.374796 0.319063 0.024471
0.426444 0.317694 0.018794
0.473985 0.315883 0.017972
0.519561 0.313606 0.018979
0.570894 0.310656 0.016191
0.627836 0.306656 0.012734
0.690602 0.301250 0.008841
0.759747 0.293947 0.004442
0.832227 0.284056 0.003085
0.909399 0.270567 0.003929
0.965737 0.251107 0.003687
0.963241 0.223908 0.001190
0.961174 0.201397 0.000000
0.960564 0.194748 0.000000
0.961090 0.200481 0.000000
0.962055 0.210995 0.000005
0.963134 0.222751 0.001084
0.964245 0.234852 0.002195
0.965373 0.247142 0.003323
0.966515 0.259582 0.004465
0.002373 0.360924 0.021903
0.002365 0.360881 0.021905
0.002341 0.360753 0.021913
0.002301 0.360532 0.021927
0.002242 0.360211 0.021946
0.002162 0.359775 0.021973
0.002059 0.359211 0.022007
0.001928 0.358499 0.022051
0.027210 0.358358 0.022636
0.124012 0.360104 0.024728
0.197055 0.360949 0.026338
0.258376 0.361216 0.027718
0.313819 0.361051 0.028992
0.366737 0.360496 0.028557
0.420597 0.359558 0.022675
0.469928 0.358229 0.021647
0.516824 0.356495 0.022738
0.569507 0.354194 0.019848
0.627628 0.351027 0.016395
0.691494 0.346700 0.012530
0.761668 0.340820 0.008192
0.834559 0.332840 0.007506
0.912591 0.321994 0.008609
0.970809 0.306361 0.008758
0.968841 0.284923 0.006791
0.967353 0.268712 0.005303
0.967038 0.265283 0.004988
0.967575 0.271134 0.005525
0.968446 0.280624 0.006396
0.969418 0.291214 0.007368
0.970431 0.302253 0.008381
0.971474 0.313613 0.009424
0.972543 0.325253 0.010492
0.009812 0.401466 0.019427
0.009805 0.401427 0.019429
0.009783 0.401307 0.019437
0.009745 0.401102 0.019449
0.009691 0.400805 0.019467
0.009618 0.400406 0.019492
0.009523 0.399891 0.019523
0.009405 0.399246 0.019563
0.009260 0.398455 0.019611
0.082014 0.399614 0.021193
0.174085 0.401151 0.023191
0.243558 0.401827 0.024731
0.303892 0.402013 0.026094
0.359190 0.401803 0.027367
0.412396 0.401230 0.026795
0.464018 0.400301 0.025249
0.512467 0.399007 0.026421
0.566564 0.397229 0.023550
0.626042 0.394721 0.020076
0.691159 0.391241 0.016212
0.762488 0.386459 0.011901
0.835975 0.379930 0.011751
0.914923 0.371040 0.013053
0.975563 0.358163 0.013513
0.973957 0.340659 0.011906
0.972839 0.328486 0.010789
0.972710 0.327074 0.010660
0.973263 0.333107 0.011213
0.974090 0.342108 0.012039
0.975008 0.352118 0.012958
0.975973 0.362631 0.013923
0.976975 0.373543 0.014925
0.978009 0.384814 0.015959
0.017179 0.442241 0.017129
0.017176 0.442204 0.017126
0.017165 0.442092 0.017115
0.017148 0.441901 0.017098
0.017122 0.441625 0.017072
0.017089 0.441255 0.017038
0.017026 0.440782 0.017026
0.016918 0.440192 0.017062
0.016786 0.439472 0.017106
0.025444 0.438863 0.017343
0.140113 0.441177 0.020299
0.222360 0.442371 0.022590
0.289220 0.442919 0.024415
0.348688 0.443035 0.026004
0.403800 0.442787 0.027446
0.456062 0.442199 0.028782
0.506343 0.441276 0.030035
0.561942 0.439929 0.027316
0.622983 0.437960 0.023801
0.689526 0.435163 0.019915
0.762158 0.431258 0.015604
0.836452 0.425872 0.015868
0.916403 0.418496 0.017332
0.980113 0.407731 0.018063
0.978774 0.393141 0.016724
0.977921 0.383848 0.015871
0.977921 0.383855 0.015871
0.978491 0.390065 0.016441
0.979293 0.398796 0.017243
0.980181 0.408477 0.018131
0.981120 0.418705 0.019070
0.982101 0.429389 0.020051
0.983120 0.440493 0.021070
0.020942 0.483234 0.020891
0.020938 0.483199 0.020888
0.020929 0.483094 0.020879
0.020912 0.482915 0.020862
0.020889 0.482656 0.020838
0.020857 0.482312 0.020807
0.020817 0.481874 0.020767
0.020767 0.481330 0.020717
0.020706 0.480670 0.020656
0.020634 0.479880 0.020584
0.082314 0.480747 0.022299
0.189934 0.482796 0.025341
0.266674 0.483769 0.027466
0.331818 0.484214 0.029236
0.390753 0.484270 0.030806
0.445824 0.483988 0.032243
0.498280 0.483387 0.033583
0.555497 0.482407 0.031164
0.618341 0.480890 0.027587
0.686513 0.478658 0.023658
0.760617 0.475471 0.019325
0.835949 0.471011 0.019888
0.917010 0.464845 0.021490
0.984523 0.455777 0.022473
0.983392 0.443457 0.021342
0.982739 0.436346 0.020689
0.982837 0.437414 0.020787
0.983421 0.443777 0.021371
0.984207 0.452343 0.022157
0.985078 0.461823 0.023027
0.986001 0.471885 0.023951
0.986971 0.482456 0.024921
0.987985 0.493500 0.025935
0.025757 0.526817 0.024076
0.025751 0.526784 0.024076
0.025733 0.526685 0.024076
0.025702 0.526517 0.024076
0.025658 0.526275 0.024076
0.025599 0.525954 0.024076
0.025524 0.525547 0.024076
0.025432 0.525045 0.024076
0.025321 0.524437 0.024076
0.025188 0.523714 0.024076
0.025032 0.522862 0.024076
0.141785 0.525263 0.026899
0.236872 0.526881 0.029201
0.310759 0.527717 0.030990
0.375133 0.528093 0.032551
0.434021 0.528113 0.033981
0.489343 0.527817 0.035325
0.546512 0.527176 0.035340
0.611570 0.526069 0.031675
0.681717 0.524341 0.027679
0.757588 0.521787 0.023301
0.834295 0.518134 0.024054
0.916664 0.513011 0.025784
0.989080 0.505433 0.027030
0.988127 0.495041 0.026076
0.987639 0.489734 0.025589
0.987817 0.491665 0.025767
0.988413 0.498161 0.026363
0.989188 0.506610 0.027138
0.990046 0.515950 0.027996
0.990960 0.525911 0.028910
0.991925 0.536428 0.029875
0.992939 0.547470 0.030889
0.034725 0.575687 0.024080
0.034719 0.575656 0.024080
0.034702 0.575563 0.024080
0.034673 0.575405 0.024080
0.034632 0.575179 0.024080
0.034577 0.574881 0.024080
0.034508 0.574503 0.024080
0.034422 0.574040 0.024080
0.034320 0.573481 0.024080
0.034199 0.572820 0.024080
0.034056 0.572044 0.024080
0.056743 0.571807 0.024631
0.192881 0.574727 0.027923
0.282347 0.576145 0.030089
0.355001 0.576915 0.031849
0.419277 0.577270 0.033408
0.478483 0.577290 0.034845
0.537439 0.576989 0.036277
0.601549 0.576278 0.036355
0.674260 0.575030 0.032258
0.752396 0.573069 0.027805
0.831008 0.570162 0.028615
0.915020 0.565994 0.030474
0.994073 0.559824 0.032023
0.993279 0.551177 0.031229
0.992938 0.547460 0.030888
0.993183 0.550132 0.031133
0.993790 0.556740 0.031739
0.994556 0.565094 0.032506
0.995404 0.574326 0.033354
0.996312 0.584219 0.034262
0.997276 0.594721 0.035225
0.998293 0.605801 0.036243
0.044755 0.630347 0.024084
0.044749 0.630318 0.024084
0.044733 0.630231 0.024084
0.044706 0.630083 0.024084
0.044668 0.629873 0.024084
0.044617 0.629595 0.024084
0.044553 0.629246 0.024084
0.044474 0.628818 0.024084
0.044380 0.628306 0.024084
0.044269 0.627701 0.024084
0.044140 0.626995 0.024084
0.043990 0.626180 0.024084
0.106269 0.627057 0.025592
0.236561 0.629778 0.028742
0.324105 0.631120 0.030862
0.396831 0.631880 0.032624
0.461708 0.632251 0.034197
0.525035 0.632300 0.035734
0.591389 0.631984 0.037346
0.663107 0.631197 0.037491
0.744193 0.629795 0.032921
0.825436 0.627579 0.033597
0.911539 0.624283 0.035590
0.999547 0.619471 0.037497
0.998899 0.612402 0.036848
0.998685 0.610077 0.036635
0.998988 0.613376 0.036938
0.999602 0.620070 0.037552
1.000000 0.628336 0.038311
1.000000 0.637478 0.039150
1.000000 0.647324 0.040054
1.000000 0.657833 0.041018
1.000000 0.668978 0.042041
0.055947 0.691344 0.024089
0.055942 0.691317 0.024089
0.055927 0.691235 0.024089
0.055902 0.691097 0.024089
0.055866 0.690901 0.024088
0.055819 0.690644 0.024088
0.055759 0.690320 0.024088
0.055687 0.689927 0.024088
0.055601 0.689457 0.024088
0.055500 0.688904 0.024088
0.055382 0.688262 0.024088
0.055246 0.687523 0.024088
0.055091 0.686679 0.024088
0.148659 0.688443 0.026352
0.273998 0.691006 0.029383
0.362051 0.692356 0.031515
0.435946 0.693154 0.033305
0.505731 0.693591 0.034997
0.577281 0.693683 0.036733
0.651752 0.693353 0.038542
0.731802 0.692483 0.038758
0.816695 0.690912 0.039024
0.905489 0.688417 0.041159
0.999950 0.684783 0.043343
1.000000 0.679303 0.042989
1.000000 0.678188 0.042887
1.000000 0.682003 0.043237
1.000000 0.688749 0.043856
1.000000 0.696926 0.044606
1.000000 0.705983 0.045438
1.000000 0.715789 0.046338
1.000000 0.726314 0.047304
1.000000 0.737538 0.048334
0.067278 0.759272 0.025228
0.067275 0.759247 0.025225
0.067268 0.759171 0.025218
0.067257 0.759042 0.025207
0.067240 0.758860 0.025190
0.067218 0.758621 0.025168
0.067191 0.758323 0.025140
0.067157 0.757960 0.025107
0.067118 0.757529 0.025068
0.067071 0.757025 0.025021
0.067018 0.756441 0.024968
0.066956 0.755771 0.024906
0.066887 0.755010 0.024836
0.066807 0.754149 0.024757
0.175931 0.756366 0.027854
0.303242 0.759000 0.031470
0.393606 0.760434 0.033998
0.473618 0.761354 0.036206
0.552723 0.761900 0.038356
0.633123 0.762040 0.040503
0.716332 0.761694 0.042682
0.803560 0.760734 0.044913
0.895877 0.758979 0.047208
0.992643 0.756309 0.049540
1.000000 0.752519 0.049709
1.000000 0.752442 0.049702
1.000000 0.756668 0.050090
1.000000 0.763428 0.050710
1.000000 0.771504 0.051452
1.000000 0.780471 0.052275
1.000000 0.790233 0.053171
1.000000 0.800772 0.054138
1.000000 0.812074 0.055175
0.074209 0.834783 0.032158
0.074206 0.834759 0.032156
0.074200 0.834688 0.032150
0.074189 0.834569 0.032139
0.074173 0.834400 0.032123
0.074153 0.834178 0.032103
0.074128 0.833902 0.032078
0.074097 0.833569 0.032047
0.074061 0.833173 0.032011
0.074018 0.832712 0.031968
0.073970 0.832181 0.031920
0.073914 0.831574 0.031864
0.073851 0.830886 0.031801
0.073780 0.830112 0.031730
0.073700 0.829244 0.031650
0.181526 0.831424 0.034709
0.319180 0.834369 0.038628
0.419501 0.836040 0.041441
0.511463 0.837163 0.043984
0.601076 0.837831 0.046424
0.691370 0.838025 0.048839
0.784293 0.837662 0.051275
0.881325 0.836603 0.053757
0.980891 0.834834 0.056244
1.000000 0.832748 0.057073
1.000000 0.833545 0.057146
1.000000 0.838080 0.057562
1.000000 0.844795 0.058179
1.000000 0.852694 0.058904
1.000000 0.861414 0.059704
1.000000 0.870838 0.060569
1.000000 0.880881 0.061491
1.000000 0.891433 0.062459
0.081843 0.917956 0.039792
0.081840 0.917932 0.039790
0.081834 0.917858 0.039783
0.081822 0.917735 0.039772
0.081806 0.917560 0.039756
0.081785 0.917332 0.039735
0.081759 0.917049 0.039709
0.081728 0.916707 0.039678
0.081691 0.916304 0.039641
0.081648 0.915834 0.039598
0.081598 0.915295 0.039548
0.081542 0.914681 0.039492
0.081478 0.913986 0.039428
0.081407 0.913207 0.039357
0.081327 0.912336 0.039277
0.081238 0.911368 0.039188
0.166905 0.912798 0.041591
0.332857 0.916387 0.046319
0.450609 0.918271 0.049615
0.555632 0.919403 0.052505
0.656665 0.919933 0.055236
0.757718 0.919840 0.057911
0.861228 0.919016 0.060587
0.964278 0.917533 0.063192
1.000000 0.916449 0.064755
1.000000 0.917056 0.064811
1.000000 0.920660 0.065142
1.000000 0.925868 0.065620
1.000000 0.931837 0.066168
1.000000 0.938242 0.066756
1.000000 0.944946 0.067371
1.000000 0.951843 0.068004
1.000000 0.958815 0.068644
0.088238 0.987636 0.046188
0.088238 0.987636 0.046188
0.088238 0.987636 0.046188
0.088238 0.987636 0.046188
0.088238 0.987636 0.046188
0.088238 0.987636 0.046188
0.088238 0.987636 0.046188
0.088238 0.987636 0.046188
0.088238 0.987636 0.046188
0.088238 0.987636 0.046188
0.088238 0.987636 0.046188
0.088174 0.986938 0.046124
0.088078 0.985887 0.046027
0.087971 0.984724 0.045921
0.087853 0.983444 0.045803
0.087725 0.982043 0.045675
0.087584 0.980515 0.045534
0.215325 0.982484 0.049103
0.385382 0.985302 0.053871
0.511607 0.986363 0.057319
0.625409 0.986466 0.060350
0.735422 0.985711 0.063205
0.845750 0.984026 0.065984
0.951540 0.981585 0.068576
1.000000 0.979857 0.070457
1.000000 0.979046 0.070501
1.000000 0.980442 0.070629
1.000000 0.982943 0.070858
1.000000 0.985854 0.071126
1.000000 0.988923 0.071407
1.000000 0.992053 0.071695
1.000000 0.995180 0.071982
1.000000 0.998244 0.072263
0.088238 0.987636 0.046188
0.088238 0.987636 0.046188
0.088238 0.987636 0.046188
0.088238 0.987636 0.046188
0.088238 0.987636 0.046188
0.088238 0.987636 0.046188
0.088238 0.987636 0.046188
0.088238 0.987636 0.046188
0.088238 0.987636 0.046188
0.088238 0.987636 0.046188
0.088238 0.987636 0.046188
0.088238 0.987636 0.046188
0.088238 0.987636 0.046188
0.088238 0.987636 0.046188
0.088238 0.987636 0.046188
0.088238 0.987636 0.046188
0.088238 0.987636 0.046188
0.127887 0.988793 0.047344
0.353640 0.995377 0.053929
0.493838 0.999466 0.058017
0.615405 1.000000 0.061563
0.730893 1.000000 0.064931
0.845473 1.000000 0.068273
0.951314 1.000000 0.071360
1.000000 1.000000 0.073080
1.000000 1.000000 0.073233
1.000000 1.000000 0.073219
1.000000 1.000000 0.073280
1.000000 1.000000 0.073363
1.000000 1.000000 0.073451
1.000000 1.000000 0.073540
1.000000 1.000000 0.073628
1.000000 1.000000 0.073712
0.088238 0.987636 0.046188
0.088238 0.987636 0.046188
0.088238 0.987636 0.046188
0.088238 0.987636 0.046188
0.088238 0.987636 0.046188
0.088238 0.987636 0.046188
0.088238 0.987636 0.046188
0.088238 0.987636 0.046188
0.088238 0.987636 0.046188
0.088238 0.987636 0.046188
0.088238 0.987636 0.046188
0.088238 0.987636 0.046188
0.088238 0.987636 0.046188
0.088238 0.987636 0.046188
0.088238 0.987636 0.046188
0.088238 0.987636 0.046188
0.088238 0.987636 0.046188
0.143661 0.989253 0.047804
0.364181 0.995684 0.054236
0.504265 0.999770 0.058322
0.626379 1.000000 0.061883
0.742588 1.000000 0.065272
0.857609 1.000000 0.068627
0.959801 1.000000 0.071607
1.000000 1.000000 0.073554
