lut/luts/iPhoneCam_HLG_to_Rec709_Cinematic_33.cube
TITLE "iPhone standard camera HDR (HLG/BT.2020) to Rec.709 - cinematic"
LUT_3D_SIZE 9
DOMAIN_MIN 0.0 0.0 0.0
DOMAIN_MAX 1.0 1.0 1.0
0.000000 0.000000 0.009212
0.001813 0.000000 0.010628
0.153284 0.000000 0.015046
0.324184 0.000000 0.004006
0.501630 0.000000 0.000000
0.728043 0.000000 0.000000
0.942900 0.002298 0.000000
0.942900 0.002298 0.000000
0.942900 0.002298 0.000000
0.000000 0.017463 0.013141
0.000000 0.016516 0.014126
0.156857 0.009437 0.017727
0.326549 0.000000 0.003803
0.503742 0.000000 0.000000
0.730073 0.000000 0.000000
0.942900 0.002298 0.000000
0.942900 0.002298 0.000000
0.942900 0.002298 0.000000
0.000000 0.162383 0.026442
0.000000 0.161170 0.026331
0.146849 0.161014 0.031004
0.338120 0.152955 0.015528
0.516527 0.131226 0.002603
0.740098 0.067264 0.000000
0.942900 0.002298 0.000000
0.942900 0.002298 0.000000
0.942900 0.002298 0.000000
0.000000 0.320630 0.024363
0.000000 0.319855 0.024411
0.071300 0.319201 0.026196
0.321358 0.320011 0.030308
0.519561 0.313606 0.018979
0.759747 0.293947 0.004442
0.963241 0.223908 0.001190
0.962055 0.210995 0.000005
0.966515 0.259582 0.004465
0.020942 0.483234 0.020891
0.020889 0.482656 0.020838
0.020706 0.480670 0.020656
0.266674 0.483769 0.027466
0.498280 0.483387 0.033583
0.760617 0.475471 0.019325
0.983392 0.443457 0.021342
0.984207 0.452343 0.022157
0.987985 0.493500 0.025935
0.055947 0.691344 0.024089
0.055866 0.690901 0.024088
0.055601 0.689457 0.024088
0.055091 0.686679 0.024088
0.435946 0.693154 0.033305
0.731802 0.692483 0.038758
1.000000 0.679303 0.042989
1.000000 0.696926 0.044606
1.000000 0.737538 0.048334
0.088238 0.987636 0.046188
0.088238 0.987636 0.046188
0.088238 0.987636 0.046188
0.088078 0.985887 0.046027
0.087584 0.980515 0.045534
0.625409 0.986466 0.060350
1.000000 0.979857 0.070457
1.000000 0.985854 0.071126
1.000000 0.998244 0.072263
0.088238 0.987636 0.046188
0.088238 0.987636 0.046188
0.088238 0.987636 0.046188
0.088238 0.987636 0.046188
0.088238 0.987636 0.046188
0.669314 1.000000 0.063135
1.000000 1.000000 0.073826
1.000000 1.000000 0.073826
1.000000 1.000000 0.073826
0.088238 0.987636 0.046188
0.088238 0.987636 0.046188
0.088238 0.987636 0.046188
0.088238 0.987636 0.046188
0.256437 0.992542 0.051094
0.763952 1.000000 0.065895
1.000000 1.000000 0.073826
1.000000 1.000000 0.073826
1.000000 1.000000 0.073826
0.000000 0.000000 0.033033
0.001944 0.000000 0.043494
0.153682 0.000000 0.055066
0.324740 0.000000 0.046547
0.502065 0.000000 0.031065
0.728503 0.000000 0.016067
0.943025 0.002423 0.000000
0.942945 0.002343 0.000000
0.943061 0.002459 0.000000
0.000000 0.018228 0.049067
0.000000 0.016988 0.051539
0.156532 0.009631 0.057480
0.326755 0.000000 0.043765
0.504011 0.000000 0.027179
0.730408 0.000000 0.010881
0.942962 0.002360 0.000000
0.942900 0.002298 0.000000
0.942980 0.002378 0.000000
0.000000 0.163038 0.059382
0.000000 0.161765 0.059018
0.145479 0.161416 0.062505
0.340080 0.153209 0.040286
0.516424 0.131281 0.026071
0.741065 0.066931 0.000000
0.942900 0.002298 0.000000
0.942900 0.002298 0.000000
0.942900 0.002298 0.000000
0.000000 0.320970 0.035818
0.000000 0.320168 0.034979
0.068048 0.319321 0.032832
0.320377 0.320100 0.032925
0.518938 0.313613 0.018963
0.759368 0.293875 0.004457
0.963222 0.223708 0.001172
0.962037 0.210799 0.000000
0.966492 0.259332 0.004442
0.020957 0.483407 0.020907
0.020904 0.482821 0.020854
0.020719 0.480812 0.020669
0.264801 0.483824 0.027421
0.497394 0.483432 0.033563
0.760081 0.475479 0.019355
0.983389 0.443420 0.021338
0.984203 0.452289 0.022152
0.987975 0.493392 0.025925
0.055972 0.691478 0.024089
0.055890 0.691032 0.024089
0.055623 0.689577 0.024088
0.055110 0.686784 0.024088
0.434563 0.693198 0.033271
0.731054 0.692519 0.038802
1.000000 0.679327 0.042991
1.000000 0.696926 0.044606
1.000000 0.737493 0.048330
0.088238 0.987636 0.046188
0.088238 0.987636 0.046188
0.088238 0.987636 0.046188
0.088079 0.985903 0.046029
0.087585 0.980520 0.045535
0.624362 0.986425 0.060319
1.000000 0.979812 0.070436
1.000000 0.985808 0.071121
1.000000 0.998172 0.072256
0.088238 0.987636 0.046188
0.088238 0.987636 0.046188
0.088238 0.987636 0.046188
0.088238 0.987636 0.046188
0.088238 0.987636 0.046188
0.668209 1.000000 0.063103
1.000000 1.000000 0.073826
1.000000 1.000000 0.073826
1.000000 1.000000 0.073826
0.088238 0.987636 0.046188
0.088238 0.987636 0.046188
0.088238 0.987636 0.046188
0.088238 0.987636 0.046188
0.252133 0.992416 0.050968
0.762830 1.000000 0.065863
1.000000 1.000000 0.073826
1.000000 1.000000 0.073826
1.000000 1.000000 0.073826
0.000000 0.000000 0.128214
0.000136 0.000000 0.143773
0.154269 0.000000 0.166937
0.326045 0.000000 0.168903
0.503379 0.000000 0.164084
0.730239 0.000000 0.162252
0.944736 0.004135 0.162668
0.944851 0.004250 0.174051
0.945083 0.004481 0.196997
0.000000 0.020222 0.157103
0.000000 0.018200 0.162696
0.155271 0.010142 0.176310
0.327278 0.000000 0.171413
0.505008 0.000000 0.164623
0.732001 0.000000 0.161145
0.944713 0.004111 0.160355
0.944822 0.004220 0.171105
0.945048 0.004446 0.193499
0.000000 0.165234 0.188295
0.000000 0.163819 0.189607
0.151463 0.162989 0.181086
0.346230 0.154509 0.170625
0.525700 0.132233 0.167315
0.746402 0.067178 0.156671
0.944635 0.004033 0.152621
0.944726 0.004125 0.161689
0.944937 0.004335 0.182539
0.000000 0.323162 0.188018
0.000000 0.322319 0.188417
0.062117 0.321014 0.182470
0.327815 0.321912 0.180528
0.532307 0.315301 0.171457
0.762334 0.295311 0.166375
0.964745 0.224682 0.157406
0.963630 0.211854 0.162999
0.968257 0.260412 0.186036
0.022539 0.485450 0.172989
0.022482 0.484839 0.172750
0.022285 0.482757 0.171915
0.270723 0.485492 0.166996
0.507550 0.485053 0.169561
0.761080 0.476935 0.160463
0.984678 0.444606 0.150084
0.985530 0.453467 0.155040
0.989450 0.494574 0.174810
0.057353 0.692994 0.134408
0.057261 0.692529 0.133684
0.056961 0.691020 0.131444
0.056393 0.688139 0.127484
0.435438 0.694310 0.126625
0.731708 0.693495 0.123131
1.000000 0.680010 0.103642
1.000000 0.697533 0.104928
1.000000 0.738095 0.121198
0.088238 0.987636 0.046188
0.088238 0.987636 0.046188
0.088238 0.987636 0.046188
0.088083 0.985950 0.046033
0.087586 0.980536 0.045536
0.621203 0.986302 0.060224
1.000000 0.979676 0.070375
1.000000 0.985670 0.071109
1.000000 0.997956 0.072236
0.088238 0.987636 0.046188
0.088238 0.987636 0.046188
0.088238 0.987636 0.046188
0.088238 0.987636 0.046188
0.088238 0.987636 0.046188
0.664880 1.000000 0.063006
1.000000 1.000000 0.073820
1.000000 1.000000 0.073826
1.000000 1.000000 0.073826
0.088475 0.987873 0.069637
0.088459 0.987857 0.068014
0.088409 0.987808 0.063134
0.088327 0.987725 0.054966
0.238655 0.992023 0.050575
0.759451 1.000000 0.065764
1.000000 1.000000 0.073826
1.000000 1.000000 0.073826
1.000000 1.000000 0.073826
0.000000 0.000000 0.244155
0.000000 0.000000 0.256942
0.155006 0.000000 0.279226
0.326670 0.000000 0.289160
0.504365 0.000000 0.290312
0.731709 0.000000 0.295789
0.946211 0.005610 0.308723
0.946431 0.005830 0.330500
0.946737 0.006135 0.360790
0.000000 0.022154 0.270367
0.000000 0.019017 0.273252
0.156704 0.009993 0.286102
0.326745 0.000000 0.294597
0.505462 0.000000 0.293254
0.733194 0.000000 0.296836
0.946209 0.005607 0.308445
0.946420 0.005819 0.329405
0.946720 0.006118 0.359063
0.000000 0.167768 0.303353
0.000000 0.166126 0.305246
0.153286 0.164482 0.291538
0.343677 0.155529 0.301492
0.524937 0.132605 0.302793
0.746580 0.066255 0.298750
0.946194 0.005592 0.307017
0.946384 0.005782 0.325835
0.946666 0.006064 0.353723
0.000000 0.325558 0.324555
0.000000 0.324638 0.325634
0.041682 0.322534 0.324011
0.331981 0.323583 0.314338
0.537952 0.316770 0.310831
0.762063 0.296466 0.319638
0.966326 0.225337 0.323155
0.965306 0.212621 0.337981
0.969977 0.260983 0.367691
0.024171 0.487821 0.327173
0.024116 0.487178 0.327547
0.023927 0.485008 0.328537
0.268897 0.487328 0.319867
0.514301 0.486907 0.323580
0.760277 0.478679 0.331120
0.986528 0.446276 0.335027
0.987462 0.455146 0.348931
0.991421 0.496054 0.374917
0.059690 0.695543 0.322057
0.059603 0.695068 0.322095
0.059322 0.693531 0.322168
0.058786 0.690612 0.322151
0.430335 0.696534 0.327202
0.730339 0.695792 0.334042
1.000000 0.682480 0.337118
1.000000 0.699987 0.348503
1.000000 0.740387 0.370466
0.090867 0.990265 0.306509
0.090865 0.990263 0.306274
0.090858 0.990256 0.305553
0.090697 0.988629 0.304144
0.090176 0.983144 0.301758
0.618432 0.988644 0.312872
1.000000 0.981940 0.317271
1.000000 0.988035 0.328328
1.000000 1.000000 0.349885
0.091105 0.990503 0.330017
0.091101 0.990499 0.329685
0.091091 0.990489 0.328675
0.091074 0.990472 0.326950
0.091048 0.990447 0.324449
0.662041 1.000000 0.336746
1.000000 1.000000 0.342089
1.000000 1.000000 0.351178
1.000000 1.000000 0.367978
0.091546 0.990944 0.373718
0.091541 0.990940 0.373261
0.091527 0.990926 0.371881
0.091504 0.990902 0.369556
0.217123 0.994533 0.369910
0.756949 1.000000 0.380034
1.000000 1.000000 0.382938
1.000000 1.000000 0.388258
1.000000 1.000000 0.398576
0.000000 0.000000 0.349550
0.000000 0.000000 0.358247
0.160553 0.000000 0.379350
0.330390 0.000000 0.400883
0.504748 0.000000 0.413197
0.732827 0.000692 0.423662
0.947587 0.006985 0.444948
0.947889 0.007288 0.474883
0.948272 0.007670 0.512747
0.000000 0.023426 0.370548
0.000000 0.019079 0.375510
0.159184 0.008959 0.387500
0.329768 0.000000 0.406960
0.505161 0.000000 0.417635
0.733934 0.000746 0.426037
0.947596 0.006994 0.445786
0.947888 0.007286 0.474713
0.948263 0.007661 0.511855
0.000000 0.170414 0.407303
0.000000 0.168497 0.409651
0.141954 0.165750 0.411364
0.342518 0.156217 0.423430
0.522861 0.132399 0.431454
0.745814 0.064225 0.431779
0.947615 0.007013 0.447677
0.947880 0.007278 0.473947
0.948235 0.007633 0.509072
0.009718 0.328140 0.437803
0.009746 0.327117 0.438997
0.021171 0.323887 0.441692
0.334844 0.325153 0.436263
0.534583 0.318055 0.445914
0.760816 0.297280 0.458678
0.967669 0.225360 0.469175
0.966719 0.212737 0.490768
0.971427 0.260807 0.527324
0.025666 0.490296 0.465557
0.025610 0.489605 0.466287
0.025419 0.487304 0.468329
0.254626 0.489002 0.461900
0.509200 0.488598 0.467150
0.758143 0.480165 0.478340
0.988056 0.447538 0.488948
0.989041 0.456360 0.508897
0.993032 0.496971 0.541319
0.061653 0.697967 0.474513
0.061565 0.697471 0.474868
0.061282 0.695874 0.475883
0.060745 0.692864 0.477416
0.421630 0.698373 0.484618
0.726986 0.697634 0.495065
1.000000 0.684320 0.504832
1.000000 0.701717 0.521484
1.000000 0.741874 0.549386
0.092710 0.992108 0.488971
0.092711 0.992109 0.489043
0.092713 0.992111 0.489241
0.092575 0.990589 0.489376
0.092070 0.985054 0.489140
0.612780 0.990264 0.503621
1.000000 0.983603 0.514625
1.000000 0.989725 0.528395
1.000000 1.000000 0.552084
0.093045 0.992443 0.522174
0.093044 0.992443 0.522092
0.093042 0.992440 0.521837
0.093037 0.992435 0.521384
0.093030 0.992429 0.520693
0.656089 1.000000 0.535832
1.000000 1.000000 0.546071
1.000000 1.000000 0.556089
1.000000 1.000000 0.573607
0.093526 0.992925 0.569805
0.093524 0.992922 0.569582
0.093517 0.992915 0.568909
0.093506 0.992904 0.567776
0.177189 0.995329 0.568605
0.750952 1.000000 0.582607
1.000000 1.000000 0.589259
1.000000 1.000000 0.595160
1.000000 1.000000 0.606280
0.000000 0.000000 0.480761
0.000000 0.000000 0.488679
0.157720 0.000000 0.512629
0.333374 0.000000 0.539692
0.505498 0.000000 0.564177
0.733465 0.002247 0.580617
0.949250 0.008648 0.609624
0.949639 0.009038 0.648143
0.950113 0.009512 0.695082
0.000000 0.023550 0.502833
0.000000 0.018411 0.508189
0.148907 0.006092 0.526099
0.330413 0.000000 0.547820
0.505407 0.000000 0.569323
0.733996 0.002296 0.584142
0.949268 0.008667 0.611409
0.949645 0.009043 0.648722
0.950111 0.009509 0.694828
0.000000 0.173542 0.549255
0.000000 0.171253 0.552066
0.124916 0.166714 0.552827
0.346226 0.156463 0.564797
0.525433 0.131234 0.581626
0.743446 0.060104 0.593194
0.949315 0.008714 0.616076
0.949660 0.009058 0.650198
0.950102 0.009500 0.693971
0.017787 0.331538 0.588288
0.017835 0.330361 0.589897
0.017900 0.326398 0.594369
0.322314 0.326941 0.594703
0.527929 0.319419 0.608652
0.757846 0.297882 0.625037
0.969188 0.224633 0.641807
0.968314 0.212121 0.670517
0.973051 0.259698 0.715204
0.037256 0.493597 0.621081
0.037279 0.492831 0.622047
0.037312 0.490320 0.624792
0.234714 0.490921 0.623793
0.499609 0.490613 0.636889
0.753690 0.481843 0.651348
0.989815 0.448824 0.667780
0.990848 0.457534 0.694026
0.994862 0.497639 0.734031
0.063990 0.701137 0.650805
0.063899 0.700605 0.651426
0.063605 0.698906 0.653230
0.063052 0.695739 0.656050
0.405546 0.700529 0.664862
0.720396 0.699794 0.678346
1.000000 0.686438 0.693461
1.000000 0.703628 0.715469
1.000000 0.743364 0.750254
0.094697 0.994095 0.685699
0.094700 0.994098 0.685982
0.094708 0.994106 0.686811
0.094592 0.992711 0.687997
0.094090 0.987077 0.689189
0.601943 0.991764 0.705619
1.000000 0.985122 0.720980
1.000000 0.991286 0.738370
1.000000 1.000000 0.766527
0.095139 0.994537 0.729496
0.095140 0.994538 0.729572
0.095142 0.994540 0.729792
0.095145 0.994544 0.730131
0.095150 0.994548 0.730553
0.644733 1.000000 0.747146
1.000000 1.000000 0.760534
1.000000 1.000000 0.772659
1.000000 1.000000 0.793033
0.095706 0.995105 0.785675
0.095706 0.995104 0.785593
0.095703 0.995101 0.785342
0.095699 0.995097 0.784915
0.095853 0.995095 0.784302
0.739600 1.000000 0.802005
1.000000 1.000000 0.811169
1.000000 1.000000 0.818279
1.000000 1.000000 0.831375
0.000000 0.000000 0.702275
0.000000 0.000000 0.707916
0.133622 0.000000 0.725878
0.338015 0.000000 0.750152
0.519141 0.000000 0.775337
0.737862 0.004499 0.809023
0.951679 0.011077 0.850073
0.952072 0.011470 0.889002
0.952286 0.011684 0.910236
0.000189 0.019849 0.718564
0.000014 0.013724 0.722791
0.117672 0.000000 0.735720
0.333036 0.000000 0.757978
0.516993 0.000000 0.781840
0.737441 0.004532 0.813555
0.951703 0.011101 0.852451
0.952078 0.011477 0.889655
0.952286 0.011684 0.910236
0.020047 0.177045 0.759848
0.020064 0.174199 0.762767
0.052842 0.165717 0.771568
0.327196 0.155001 0.791567
0.519113 0.127133 0.810055
0.738340 0.050389 0.829407
0.951765 0.011164 0.858663
0.952095 0.011493 0.891277
0.952286 0.011684 0.910236
0.036018 0.336583 0.807345
0.035906 0.335147 0.809413
0.035535 0.330478 0.815221
0.287808 0.328935 0.831098
0.511983 0.320782 0.847480
0.750138 0.297846 0.866484
0.971198 0.222097 0.885834
0.970342 0.210123 0.911219
0.974826 0.257260 0.932776
0.051175 0.498825 0.851203
0.051105 0.497925 0.852484
0.050875 0.495034 0.856117
0.168140 0.493056 0.864966
0.477866 0.493383 0.880436
0.743346 0.484031 0.896381
0.992210 0.450326 0.913758
0.993183 0.458911 0.934760
0.996938 0.498165 0.954888
0.070439 0.706233 0.894981
0.070390 0.705634 0.895615
0.070235 0.703739 0.897422
0.069944 0.700271 0.900137
0.370035 0.703572 0.912142
0.706339 0.702930 0.926108
1.000000 0.689496 0.940466
1.000000 0.706281 0.955394
1.000000 0.745197 0.973125
0.097225 0.996623 0.936045
0.097227 0.996625 0.936241
0.097233 0.996631 0.936803
0.097141 0.995552 0.937553
0.096614 0.989709 0.938037
0.581191 0.993408 0.952543
1.000000 0.986763 0.965314
1.000000 0.992928 0.974222
1.000000 1.000000 0.984662
0.097453 0.996852 0.958665
0.097453 0.996851 0.958613
0.097451 0.996849 0.958449
0.097448 0.996846 0.958152
0.097444 0.996842 0.957690
0.626796 1.000000 0.972250
1.000000 1.000000 0.982646
1.000000 1.000000 0.986750
1.000000 1.000000 0.991555
0.097609 0.997008 0.974096
0.097608 0.997006 0.973927
0.097602 0.997001 0.973419
0.097594 0.996992 0.972564
0.097582 0.996980 0.971354
0.726215 1.000000 0.987654
1.000000 1.000000 0.994509
1.000000 1.000000 0.995772
1.000000 1.000000 0.997370
0.004648 0.000000 0.882598
0.004648 0.000000 0.882598
0.070442 0.000000 0.884517
0.328821 0.000000 0.892053
0.520982 0.000000 0.897657
0.746463 0.005682 0.904233
0.952286 0.011684 0.910236
0.952286 0.011684 0.910236
0.952286 0.011684 0.910236
0.007369 0.013694 0.885319
0.006732 0.006751 0.884682
0.043498 0.000000 0.883832
0.321674 0.000000 0.891844
0.517800 0.000000 0.897564
0.745280 0.005647 0.904199
0.952286 0.011684 0.910236
0.952286 0.011684 0.910236
0.952286 0.011684 0.910236
0.022921 0.183134 0.900871
0.022611 0.179753 0.900561
0.021612 0.168865 0.899562
0.310565 0.156507 0.906132
0.517498 0.126419 0.908940
0.743811 0.045260 0.907699
0.952286 0.011684 0.910236
0.952286 0.011684 0.910236
0.952286 0.011684 0.910236
0.037837 0.345643 0.915787
0.037677 0.343900 0.915627
0.037171 0.338386 0.915121
0.266200 0.334973 0.920899
0.508628 0.326000 0.926536
0.754425 0.301553 0.930880
0.971806 0.224354 0.929756
0.970962 0.215162 0.928912
0.975094 0.260177 0.933044
0.052752 0.508141 0.930702
0.052652 0.507053 0.930602
0.052338 0.503632 0.930288
0.123183 0.499519 0.931802
0.472540 0.500074 0.941131
0.746093 0.489729 0.947472
0.992976 0.454998 0.950926
0.993768 0.463630 0.951718
0.997211 0.501142 0.955161
0.071727 0.714878 0.949677
0.071663 0.714171 0.949612
0.071460 0.711967 0.949410
0.071098 0.708024 0.949048
0.360597 0.710426 0.956952
0.707435 0.709265 0.966060
1.000000 0.695113 0.972965
1.000000 0.711207 0.974442
1.000000 0.748523 0.977867
0.097624 0.997022 0.975574
0.097624 0.997022 0.975574
0.097624 0.997022 0.975574
0.097624 0.997022 0.975574
0.097252 0.992973 0.975202
0.583115 0.996206 0.988395
1.000000 0.989081 0.999034
1.000000 0.994674 1.000000
1.000000 1.000000 1.000000
0.097624 0.997022 0.975574
0.097624 0.997022 0.975574
0.097624 0.997022 0.975574
0.097624 0.997022 0.975574
0.097624 0.997022 0.975574
0.630378 1.000000 0.991112
1.000000 1.000000 1.000000
1.000000 1.000000 1.000000
1.000000 1.000000 1.000000
0.097624 0.997022 0.975574
0.097624 0.997022 0.975574
0.097624 0.997022 0.975574
0.097624 0.997022 0.975574
0.097624 0.997022 0.975574
0.728510 1.000000 0.993974
1.000000 1.000000 1.000000
1.000000 1.000000 1.000000
1.000000 1.000000 1.000000
0.004648 0.000000 0.882598
0.004648 0.000000 0.882598
0.111167 0.000000 0.885705
0.358656 0.000000 0.892923
0.551226 0.000000 0.898539
0.776729 0.006564 0.905116
0.952286 0.011684 0.910236
0.952286 0.011684 0.910236
0.952286 0.011684 0.910236
0.008142 0.022111 0.886092
0.007401 0.014035 0.885351
0.081455 0.000000 0.885311
0.349617 0.000000 0.892659
0.546388 0.000000 0.898398
0.774239 0.006492 0.905043
0.952286 0.011684 0.910236
0.952286 0.011684 0.910236
0.952286 0.011684 0.910236
0.024375 0.198966 0.902324
0.024018 0.195081 0.901968
0.022891 0.182798 0.900840
0.335086 0.169110 0.907909
0.542845 0.136721 0.910533
0.769839 0.050777 0.908883
0.952286 0.011684 0.910236
0.952286 0.011684 0.910236
0.952286 0.011684 0.910236
0.039414 0.362819 0.917364
0.039220 0.360707 0.917170
0.038619 0.354155 0.916568
0.286081 0.349750 0.922747
0.529264 0.338980 0.928244
0.776652 0.312157 0.932418
0.972666 0.233720 0.930616
0.972122 0.227801 0.930072
0.975772 0.267563 0.933722
0.054309 0.525098 0.932258
0.054185 0.523750 0.932135
0.053803 0.519590 0.931753
0.143782 0.514916 0.933725
0.488606 0.513965 0.942798
0.764212 0.501789 0.949030
0.993927 0.465368 0.951877
0.994691 0.473687 0.952641
0.997814 0.507714 0.955764
0.073174 0.730636 0.951124
0.073094 0.729764 0.951044
0.072848 0.727081 0.950797
0.072417 0.722393 0.950367
0.372029 0.724147 0.958481
0.720975 0.721692 0.967530
1.000000 0.706141 0.973977
1.000000 0.720944 0.975335
1.000000 0.755316 0.978490
0.097624 0.997022 0.975574
0.097624 0.997022 0.975574
0.097624 0.997022 0.975574
0.097624 0.997022 0.975574
0.097624 0.997022 0.975574
0.597139 1.000000 0.989220
1.000000 0.993195 0.999517
1.000000 0.997727 1.000000
1.000000 1.000000 1.000000
0.097624 0.997022 0.975574
0.097624 0.997022 0.975574
0.097624 0.997022 0.975574
0.097624 0.997022 0.975574
0.097624 0.997022 0.975574
0.642006 1.000000 0.991451
1.000000 1.000000 1.000000
1.000000 1.000000 1.000000
1.000000 1.000000 1.000000
0.097624 0.997022 0.975574
0.097624 0.997022 0.975574
0.097624 0.997022 0.975574
0.097624 0.997022 0.975574
0.097624 0.997022 0.975574
0.734690 1.000000 0.994154
1.000000 1.000000 1.000000
1.000000 1.000000 1.000000
1.000000 1.000000 1.000000
