lut/luts/iPhoneCam_HLG_to_Rec709_Neutral_33.cube
TITLE "iPhone standard camera HDR (HLG/BT.2020) to Rec.709 - neutral"
LUT_3D_SIZE 33
DOMAIN_MIN 0.0 0.0 0.0
DOMAIN_MAX 1.0 1.0 1.0
0.000000 0.000000 0.000000
0.001839 0.000000 0.000000
0.009707 0.000000 0.000000
0.025687 0.000000 0.000000
0.051234 0.000000 0.000000
0.087645 0.000000 0.000000
0.128265 0.000000 0.000000
0.169432 0.000000 0.000000
0.211074 0.000000 0.000000
0.253136 0.000000 0.000000
0.295574 0.000000 0.000000
0.338353 0.000000 0.000000
0.381446 0.000000 0.000000
0.424826 0.000000 0.000000
0.468475 0.000000 0.000000
0.512374 0.000000 0.000000
0.556508 0.000000 0.000000
0.603431 0.000000 0.000000
0.656045 0.000000 0.000000
0.714893 0.000000 0.000000
0.780563 0.000000 0.000000
0.853696 0.000000 0.000000
0.934992 0.000000 0.000000
1.000000 0.000000 0.000000
1.000000 0.000000 0.000000
1.000000 0.000000 0.000000
1.000000 0.000000 0.000000
1.000000 0.000000 0.000000
1.000000 0.000000 0.000000
1.000000 0.000000 0.000000
1.000000 0.000000 0.000000
1.000000 0.000000 0.000000
1.000000 0.000000 0.000000
0.000000 0.001517 0.000000
0.001534 0.001441 0.000000
0.009775 0.001025 0.000000
0.025953 0.000022 0.000000
0.051622 0.000000 0.000000
0.088098 0.000000 0.000000
0.128671 0.000000 0.000000
0.169797 0.000000 0.000000
0.211404 0.000000 0.000000
0.253436 0.000000 0.000000
0.295849 0.000000 0.000000
0.338608 0.000000 0.000000
0.381682 0.000000 0.000000
0.425047 0.000000 0.000000
0.468682 0.000000 0.000000
0.512569 0.000000 0.000000
0.556692 0.000000 0.000000
0.603604 0.000000 0.000000
0.656208 0.000000 0.000000
0.715046 0.000000 0.000000
0.780707 0.000000 0.000000
0.853831 0.000000 0.000000
0.935118 0.000000 0.000000
1.000000 0.000000 0.000000
1.000000 0.000000 0.000000
1.000000 0.000000 0.000000
1.000000 0.000000 0.000000
1.000000 0.000000 0.000000
1.000000 0.000000 0.000000
1.000000 0.000000 0.000000
1.000000 0.000000 0.000000
1.000000 0.000000 0.000000
1.000000 0.000000 0.000000
0.000000 0.008006 0.000000
0.000000 0.007931 0.000000
0.008094 0.007608 0.000000
0.025221 0.006830 0.000000
0.051591 0.005408 0.000000
0.088558 0.003203 0.000000
0.129322 0.000114 0.000000
0.170512 0.000000 0.000000
0.212128 0.000000 0.000000
0.254145 0.000000 0.000000
0.296533 0.000000 0.000000
0.339261 0.000000 0.000000
0.382304 0.000000 0.000000
0.425639 0.000000 0.000000
0.469246 0.000000 0.000000
0.513107 0.000000 0.000000
0.557205 0.000000 0.000000
0.604093 0.000000 0.000000
0.656673 0.000000 0.000000
0.715486 0.000000 0.000000
0.781122 0.000000 0.000000
0.854221 0.000000 0.000000
0.935484 0.000000 0.000000
1.000000 0.000000 0.000000
1.000000 0.000000 0.000000
1.000000 0.000000 0.000000
1.000000 0.000000 0.000000
1.000000 0.000000 0.000000
1.000000 0.000000 0.000000
1.000000 0.000000 0.000000
1.000000 0.000000 0.000000
1.000000 0.000000 0.000000
1.000000 0.000000 0.000000
0.000000 0.021184 0.000000
0.000000 0.021103 0.000000
0.002902 0.020800 0.000000
0.021419 0.020132 0.000000
0.049096 0.018927 0.000000
0.087236 0.017030 0.000000
0.128975 0.014312 0.000000
0.170690 0.010670 0.000000
0.212596 0.006023 0.000000
0.254774 0.000302 0.000000
0.297247 0.000000 0.000000
0.340019 0.000000 0.000000
0.383079 0.000000 0.000000
0.426415 0.000000 0.000000
0.470013 0.000000 0.000000
0.513859 0.000000 0.000000
0.557940 0.000000 0.000000
0.604808 0.000000 0.000000
0.657364 0.000000 0.000000
0.716150 0.000000 0.000000
0.781757 0.000000 0.000000
0.854826 0.000000 0.000000
0.936058 0.000000 0.000000
1.000000 0.000000 0.000000
1.000000 0.000000 0.000000
1.000000 0.000000 0.000000
1.000000 0.000000 0.000000
1.000000 0.000000 0.000000
1.000000 0.000000 0.000000
1.000000 0.000000 0.000000
1.000000 0.000000 0.000000
1.000000 0.000000 0.000000
1.000000 0.000000 0.000000
0.000000 0.042254 0.000000
0.000000 0.042165 0.000000
0.000000 0.041860 0.000000
0.013439 0.041235 0.000000
0.042723 0.040154 0.000000
0.082528 0.038471 0.000000
0.126400 0.036050 0.000000
0.169366 0.032775 0.000000
0.212044 0.028546 0.000000
0.254713 0.023281 0.000000
0.297504 0.016908 0.000000
0.340484 0.009366 0.000000
0.383680 0.000602 0.000000
0.427104 0.000000 0.000000
0.470758 0.000000 0.000000
0.514638 0.000000 0.000000
0.558737 0.000000 0.000000
0.605612 0.000000 0.000000
0.658166 0.000000 0.000000
0.716944 0.000000 0.000000
0.782535 0.000000 0.000000
0.855582 0.000000 0.000000
0.936788 0.000000 0.000000
1.000000 0.000000 0.000000
1.000000 0.000000 0.000000
1.000000 0.000000 0.000000
1.000000 0.000000 0.000000
1.000000 0.000000 0.000000
1.000000 0.000000 0.000000
1.000000 0.000000 0.000000
1.000000 0.000000 0.000000
1.000000 0.000000 0.000000
1.000000 0.000000 0.000000
0.000000 0.072186 0.000000
0.000000 0.072090 0.000000
0.000000 0.071774 0.000000
0.000663 0.071163 0.000000
0.031642 0.070147 0.000000
0.072987 0.068599 0.000000
0.120557 0.066392 0.000000
0.165702 0.063406 0.000000
0.209774 0.059534 0.000000
0.253375 0.054682 0.000000
0.296808 0.048768 0.000000
0.340236 0.041719 0.000000
0.383751 0.033474 0.000000
0.427403 0.023977 0.000000
0.471220 0.013177 0.000000
0.515217 0.001028 0.000000
0.559400 0.000000 0.000000
0.606338 0.000000 0.000000
0.658938 0.000000 0.000000
0.717746 0.000000 0.000000
0.783354 0.000000 0.000000
0.856405 0.000000 0.000000
0.937604 0.000000 0.000000
1.000000 0.000000 0.000000
1.000000 0.000000 0.000000
1.000000 0.000000 0.000000
1.000000 0.000000 0.000000
1.000000 0.000000 0.000000
1.000000 0.000000 0.000000
1.000000 0.000000 0.000000
1.000000 0.000000 0.000000
1.000000 0.000000 0.000000
1.000000 0.000000 0.000000
0.000000 0.109387 0.000000
0.000000 0.109301 0.000000
0.000000 0.109025 0.000000
0.000000 0.108510 0.000000
0.015318 0.107676 0.000000
0.058534 0.106430 0.000000
0.110424 0.104662 0.000000
0.158959 0.102255 0.000000
0.205184 0.099086 0.000000
0.250247 0.095016 0.000000
0.294711 0.089891 0.000000
0.338885 0.083523 0.000000
0.382948 0.075538 0.000000
0.427010 0.066567 0.000000
0.471135 0.056318 0.000000
0.515365 0.044742 0.000000
0.559726 0.031790 0.000000
0.606805 0.016547 0.000000
0.659523 0.000000 0.000000
0.718423 0.000000 0.000000
0.784100 0.000000 0.000000
0.857200 0.000000 0.000000
0.938428 0.000000 0.000000
1.000000 0.000000 0.000000
1.000000 0.000000 0.000000
1.000000 0.000000 0.000000
1.000000 0.000000 0.000000
1.000000 0.000000 0.000000
1.000000 0.000000 0.000000
1.000000 0.000000 0.000000
1.000000 0.000000 0.000000
1.000000 0.000000 0.000000
1.000000 0.000000 0.000000
0.000000 0.147135 0.000000
0.000000 0.147061 0.000000
0.000000 0.146826 0.000000
0.000000 0.146400 0.000000
0.000000 0.145729 0.000000
0.038446 0.144749 0.000000
0.094641 0.143385 0.000000
0.148360 0.141554 0.000000
0.197710 0.139169 0.000000
0.244867 0.136138 0.000000
0.290816 0.132362 0.000000
0.336079 0.127731 0.000000
0.380960 0.122119 0.000000
0.425644 0.115376 0.000000
0.470250 0.107314 0.000000
0.514855 0.097684 0.000000
0.559509 0.086136 0.000000
0.606832 0.071355 0.000000
0.659759 0.053153 0.000000
0.718834 0.030463 0.000000
0.784652 0.002175 0.000000
0.857862 0.000000 0.000000
0.939171 0.000000 0.000000
1.000000 0.000000 0.000000
1.000000 0.000000 0.000000
1.000000 0.000000 0.000000
1.000000 0.000000 0.000000
1.000000 0.000000 0.000000
1.000000 0.000000 0.000000
1.000000 0.000000 0.000000
1.000000 0.000000 0.000000
1.000000 0.000000 0.000000
1.000000 0.000000 0.000000
0.000000 0.185318 0.000000
0.000000 0.185253 0.000000
0.000000 0.185048 0.000000
0.000000 0.184683 0.000000
0.000000 0.184121 0.000000
0.012349 0.183316 0.000000
0.070930 0.182213 0.000000
0.132875 0.180753 0.000000
0.186733 0.178871 0.000000
0.236785 0.176499 0.000000
0.284756 0.173567 0.000000
0.331502 0.169998 0.000000
0.377503 0.165711 0.000000
0.423052 0.160614 0.000000
0.468335 0.154604 0.000000
0.513476 0.147557 0.000000
0.558558 0.139320 0.000000
0.606243 0.129094 0.000000
0.659489 0.115470 0.000000
0.718839 0.096783 0.000000
0.784888 0.070002 0.000000
0.858285 0.035827 0.000000
0.939742 0.000000 0.000000
1.000000 0.000000 0.000000
1.000000 0.000000 0.000000
1.000000 0.000000 0.000000
1.000000 0.000000 0.000000
1.000000 0.000000 0.000000
1.000000 0.000000 0.000000
1.000000 0.000000 0.000000
1.000000 0.000000 0.000000
1.000000 0.000000 0.000000
1.000000 0.000000 0.000000
0.000000 0.223886 0.000000
0.000000 0.223827 0.000000
0.000000 0.223646 0.000000
0.000000 0.223326 0.000000
0.000000 0.222841 0.000000
0.000000 0.222158 0.000000
0.040535 0.221235 0.000000
0.110839 0.220029 0.000000
0.171445 0.218489 0.000000
0.225493 0.216565 0.000000
0.276159 0.214200 0.000000
0.324852 0.211340 0.000000
0.372320 0.207924 0.000000
0.419003 0.203890 0.000000
0.465180 0.199167 0.000000
0.511036 0.193678 0.000000
0.556697 0.187335 0.000000
0.604877 0.179581 0.000000
0.658566 0.169480 0.000000
0.718305 0.156124 0.000000
0.784687 0.138062 0.000000
0.858363 0.112713 0.000000
0.940049 0.074344 0.000000
1.000000 0.022404 0.000000
1.000000 0.000000 0.000000
1.000000 0.000000 0.000000
1.000000 0.000000 0.000000
1.000000 0.000000 0.000000
1.000000 0.000000 0.000000
1.000000 0.000000 0.000000
1.000000 0.000000 0.000000
1.000000 0.000000 0.000000
1.000000 0.000000 0.000000
0.000000 0.262799 0.000000
0.000000 0.262746 0.000000
0.000000 0.262582 0.000000
0.000000 0.262297 0.000000
0.000000 0.261869 0.000000
0.000000 0.261275 0.000000
0.003499 0.260484 0.000000
0.078693 0.259459 0.000000
0.150622 0.258164 0.000000
0.210340 0.256557 0.000000
0.264600 0.254595 0.000000
0.315813 0.252235 0.000000
0.365151 0.249430 0.000000
0.413275 0.246131 0.000000
0.460589 0.242289 0.000000
0.507358 0.237848 0.000000
0.553760 0.232748 0.000000
0.602582 0.226563 0.000000
0.656850 0.218595 0.000000
0.717104 0.208228 0.000000
0.783935 0.194560 0.000000
0.857995 0.176192 0.000000
0.940002 0.150739 0.000000
1.000000 0.113397 0.000000
1.000000 0.055791 0.000000
1.000000 0.005621 0.000000
1.000000 0.000000 0.000000
1.000000 0.000000 0.000000
1.000000 0.003090 0.000000
1.000000 0.019357 0.000000
1.000000 0.036895 0.000000
1.000000 0.055432 0.000000
1.000000 0.074944 0.000000
0.000000 0.302025 0.000000
0.000000 0.301976 0.000000
0.000000 0.301827 0.000000
0.000000 0.301569 0.000000
0.000000 0.301187 0.000000
0.000000 0.300661 0.000000
0.000000 0.299967 0.000000
0.036904 0.299078 0.000000
0.122095 0.297963 0.000000
0.190382 0.296590 0.000000
0.249539 0.294925 0.000000
0.304021 0.292932 0.000000
0.355726 0.290573 0.000000
0.405648 0.287811 0.000000
0.454372 0.284605 0.000000
0.502272 0.280914 0.000000
0.549596 0.276693 0.000000
0.599218 0.271599 0.000000
0.654214 0.265077 0.000000
0.715119 0.256667 0.000000
0.782525 0.245721 0.000000
0.857083 0.231299 0.000000
0.939513 0.211964 0.000000
1.000000 0.185311 0.000000
1.000000 0.148811 0.000000
1.000000 0.114444 0.000000
1.000000 0.101119 0.000000
1.000000 0.107106 0.000000
1.000000 0.120384 0.000000
1.000000 0.135016 0.000000
1.000000 0.149618 0.000000
1.000000 0.164022 0.000000
1.000000 0.178241 0.000000
0.000000 0.341538 0.000000
0.000000 0.341493 0.000000
0.000000 0.341356 0.000000
0.000000 0.341120 0.000000
0.000000 0.340773 0.000000
0.000000 0.340300 0.000000
0.000000 0.339683 0.000000
0.000000 0.338898 0.000000
0.080851 0.337921 0.000000
0.164091 0.336727 0.000000
0.230229 0.335286 0.000000
0.289025 0.333570 0.000000
0.343731 0.331548 0.000000
0.395883 0.329190 0.000000
0.446335 0.326461 0.000000
0.495613 0.323330 0.000000
0.544057 0.319760 0.000000
0.594651 0.315467 0.000000
0.650535 0.309994 0.000000
0.712240 0.302974 0.000000
0.780355 0.293906 0.000000
0.855535 0.282089 0.000000
0.938499 0.266510 0.000000
1.000000 0.245622 0.000000
1.000000 0.218771 0.000000
1.000000 0.196548 0.000000
1.000000 0.189985 0.000000
1.000000 0.195644 0.000000
1.000000 0.206023 0.000000
1.000000 0.217628 0.000000
1.000000 0.229575 0.000000
1.000000 0.241707 0.000000
1.000000 0.253988 0.000000
0.000000 0.381315 0.000000
0.000000 0.381274 0.000000
0.000000 0.381147 0.000000
0.000000 0.380929 0.000000
0.000000 0.380612 0.000000
0.000000 0.380182 0.000000
0.000000 0.379624 0.000000
0.000000 0.378922 0.000000
0.026719 0.378053 0.000000
0.128577 0.376998 0.000000
0.205528 0.375732 0.000000
0.270214 0.374232 0.000000
0.328779 0.372471 0.000000
0.383706 0.370424 0.000000
0.436268 0.368064 0.000000
0.487207 0.365362 0.000000
0.536995 0.362292 0.000000
0.588753 0.358609 0.000000
0.645699 0.353928 0.000000
0.708362 0.347947 0.000000
0.777332 0.340260 0.000000
0.853264 0.330311 0.000000
0.936882 0.317322 0.000000
1.000000 0.300168 0.000000
1.000000 0.279004 0.000000
1.000000 0.263001 0.000000
1.000000 0.259616 0.000000
1.000000 0.265392 0.000000
1.000000 0.274760 0.000000
1.000000 0.285215 0.000000
1.000000 0.296112 0.000000
1.000000 0.307326 0.000000
1.000000 0.318817 0.000000
0.000000 0.421338 0.000000
0.000000 0.421299 0.000000
0.000000 0.421181 0.000000
0.000000 0.420979 0.000000
0.000000 0.420686 0.000000
0.000000 0.420292 0.000000
0.000000 0.419784 0.000000
0.000000 0.419147 0.000000
0.000000 0.418365 0.000000
0.076584 0.417421 0.000000
0.173489 0.416294 0.000000
0.246703 0.414964 0.000000
0.310364 0.413410 0.000000
0.368784 0.411609 0.000000
0.423928 0.409539 0.000000
0.476868 0.407177 0.000000
0.528257 0.404498 0.000000
0.581393 0.401293 0.000000
0.639591 0.397229 0.000000
0.703385 0.392053 0.000000
0.773365 0.385423 0.000000
0.850189 0.376882 0.000000
0.934587 0.365803 0.000000
1.000000 0.351306 0.000000
1.000000 0.334026 0.000000
1.000000 0.322010 0.000000
1.000000 0.320615 0.000000
1.000000 0.326571 0.000000
1.000000 0.335457 0.000000
1.000000 0.345338 0.000000
1.000000 0.355717 0.000000
1.000000 0.366489 0.000000
1.000000 0.377616 0.000000
0.000000 0.461591 0.000000
0.000000 0.461554 0.000000
0.000000 0.461444 0.000000
0.000000 0.461255 0.000000
0.000000 0.460983 0.000000
0.000000 0.460618 0.000000
0.000000 0.460151 0.000000
0.000000 0.459568 0.000000
0.000000 0.458858 0.000000
0.009259 0.458003 0.000000
0.130178 0.456989 0.000000
0.217087 0.455797 0.000000
0.287777 0.454409 0.000000
0.350689 0.452806 0.000000
0.409025 0.450970 0.000000
0.464381 0.448879 0.000000
0.517673 0.446514 0.000000
0.572431 0.443690 0.000000
0.632096 0.440119 0.000000
0.697208 0.435581 0.000000
0.768365 0.429785 0.000000
0.846232 0.422344 0.000000
0.931544 0.412734 0.000000
1.000000 0.400240 0.000000
1.000000 0.385836 0.000000
1.000000 0.376662 0.000000
1.000000 0.376669 0.000000
1.000000 0.382799 0.000000
1.000000 0.391418 0.000000
1.000000 0.400976 0.000000
1.000000 0.411072 0.000000
1.000000 0.421620 0.000000
1.000000 0.432581 0.000000
0.000000 0.502059 0.000000
0.000000 0.502025 0.000000
0.000000 0.501920 0.000000
0.000000 0.501743 0.000000
0.000000 0.501489 0.000000
0.000000 0.501149 0.000000
0.000000 0.500716 0.000000
0.000000 0.500180 0.000000
0.000000 0.499528 0.000000
0.000000 0.498748 0.000000
0.065179 0.497826 0.000000
0.178851 0.496747 0.000000
0.259954 0.495495 0.000000
0.328839 0.494054 0.000000
0.391192 0.492408 0.000000
0.449489 0.490539 0.000000
0.505051 0.488430 0.000000
0.561718 0.485916 0.000000
0.623092 0.482744 0.000000
0.689731 0.478723 0.000000
0.762247 0.473598 0.000000
0.841316 0.467038 0.000000
0.927685 0.458594 0.000000
1.000000 0.447670 0.000000
1.000000 0.435508 0.000000
1.000000 0.428488 0.000000
1.000000 0.429542 0.000000
1.000000 0.435824 0.000000
1.000000 0.444279 0.000000
1.000000 0.453638 0.000000
1.000000 0.463572 0.000000
1.000000 0.474007 0.000000
1.000000 0.484909 0.000000
0.000000 0.545084 0.000000
0.000000 0.545051 0.000000
0.000000 0.544953 0.000000
0.000000 0.544787 0.000000
0.000000 0.544549 0.000000
0.000000 0.544232 0.000000
0.000000 0.543830 0.000000
0.000000 0.543334 0.000000
0.000000 0.542734 0.000000
0.000000 0.542020 0.000000
0.000000 0.541179 0.000000
0.122795 0.540199 0.000000
0.222868 0.539066 0.000000
0.300711 0.537767 0.000000
0.368600 0.536287 0.000000
0.430766 0.534610 0.000000
0.489229 0.532723 0.000000
0.548290 0.530479 0.000000
0.611778 0.527653 0.000000
0.680288 0.524078 0.000000
0.754460 0.519533 0.000000
0.834990 0.513730 0.000000
0.922641 0.506281 0.000000
1.000000 0.496689 0.000000
1.000000 0.486430 0.000000
1.000000 0.481192 0.000000
1.000000 0.483098 0.000000
1.000000 0.489511 0.000000
1.000000 0.497851 0.000000
1.000000 0.507072 0.000000
1.000000 0.516905 0.000000
1.000000 0.527288 0.000000
1.000000 0.538188 0.000000
0.000000 0.593328 0.000000
0.000000 0.593297 0.000000
0.000000 0.593205 0.000000
0.000000 0.593049 0.000000
0.000000 0.592826 0.000000
0.000000 0.592532 0.000000
0.000000 0.592159 0.000000
0.000000 0.591701 0.000000
0.000000 0.591150 0.000000
0.000000 0.590497 0.000000
0.000000 0.589731 0.000000
0.023997 0.588842 0.000000
0.167157 0.587819 0.000000
0.261334 0.586650 0.000000
0.337888 0.585321 0.000000
0.405678 0.583821 0.000000
0.468179 0.582137 0.000000
0.530480 0.580139 0.000000
0.596774 0.577629 0.000000
0.667731 0.574461 0.000000
0.744048 0.570443 0.000000
0.826459 0.565324 0.000000
0.915757 0.558773 0.000000
1.000000 0.550384 0.000000
1.000000 0.541847 0.000000
1.000000 0.538178 0.000000
1.000000 0.540816 0.000000
1.000000 0.547340 0.000000
1.000000 0.555586 0.000000
1.000000 0.564700 0.000000
1.000000 0.574466 0.000000
1.000000 0.584833 0.000000
1.000000 0.595772 0.000000
0.000000 0.647287 0.000000
0.000000 0.647259 0.000000
0.000000 0.647173 0.000000
0.000000 0.647027 0.000000
0.000000 0.646819 0.000000
0.000000 0.646545 0.000000
0.000000 0.646200 0.000000
0.000000 0.645778 0.000000
0.000000 0.645272 0.000000
0.000000 0.644675 0.000000
0.000000 0.643979 0.000000
0.000000 0.643173 0.000000
0.065581 0.642250 0.000000
0.202606 0.641198 0.000000
0.294769 0.640008 0.000000
0.371402 0.638668 0.000000
0.439823 0.637167 0.000000
0.506669 0.635391 0.000000
0.576782 0.633166 0.000000
0.651002 0.630365 0.000000
0.730133 0.626822 0.000000
0.814988 0.622319 0.000000
0.906412 0.616571 0.000000
1.000000 0.609267 0.000000
1.000000 0.602289 0.000000
1.000000 0.599994 0.000000
1.000000 0.603250 0.000000
1.000000 0.609858 0.000000
1.000000 0.618018 0.000000
1.000000 0.627043 0.000000
1.000000 0.636763 0.000000
1.000000 0.647137 0.000000
1.000000 0.658139 0.000000
0.000000 0.707503 0.000000
0.000000 0.707476 0.000000
0.000000 0.707395 0.000000
0.000000 0.707259 0.000000
0.000000 0.707066 0.000000
0.000000 0.706812 0.000000
0.000000 0.706492 0.000000
0.000000 0.706104 0.000000
0.000000 0.705640 0.000000
0.000000 0.705094 0.000000
0.000000 0.704461 0.000000
0.000000 0.703731 0.000000
0.000000 0.702898 0.000000
0.098441 0.701953 0.000000
0.230268 0.700887 0.000000
0.322968 0.699690 0.000000
0.400826 0.698354 0.000000
0.474416 0.696778 0.000000
0.549936 0.694808 0.000000
0.628621 0.692335 0.000000
0.711517 0.689215 0.000000
0.799588 0.685261 0.000000
0.893782 0.680227 0.000000
0.994083 0.673903 0.000000
1.000000 0.668333 0.000000
1.000000 0.667232 0.000000
1.000000 0.670998 0.000000
1.000000 0.677657 0.000000
1.000000 0.685730 0.000000
1.000000 0.694670 0.000000
1.000000 0.704351 0.000000
1.000000 0.714741 0.000000
1.000000 0.725821 0.000000
0.000000 0.774561 0.000000
0.000000 0.774536 0.000000
0.000000 0.774461 0.000000
0.000000 0.774334 0.000000
0.000000 0.774154 0.000000
0.000000 0.773919 0.000000
0.000000 0.773624 0.000000
0.000000 0.773266 0.000000
0.000000 0.772840 0.000000
0.000000 0.772342 0.000000
0.000000 0.771766 0.000000
0.000000 0.771105 0.000000
0.000000 0.770353 0.000000
0.000000 0.769503 0.000000
0.115247 0.768548 0.000000
0.249697 0.767479 0.000000
0.345172 0.766290 0.000000
0.429742 0.764891 0.000000
0.513389 0.763148 0.000000
0.598445 0.760966 0.000000
0.686521 0.758221 0.000000
0.778909 0.754753 0.000000
0.876759 0.750350 0.000000
0.979405 0.744914 0.000000
1.000000 0.740611 0.000000
1.000000 0.740534 0.000000
1.000000 0.744706 0.000000
1.000000 0.751379 0.000000
1.000000 0.759352 0.000000
1.000000 0.768204 0.000000
1.000000 0.777841 0.000000
1.000000 0.788245 0.000000
1.000000 0.799403 0.000000
0.000000 0.849104 0.000000
0.000000 0.849081 0.000000
0.000000 0.849011 0.000000
0.000000 0.848893 0.000000
0.000000 0.848726 0.000000
0.000000 0.848508 0.000000
0.000000 0.848235 0.000000
0.000000 0.847906 0.000000
0.000000 0.847516 0.000000
0.000000 0.847061 0.000000
0.000000 0.846536 0.000000
0.000000 0.845937 0.000000
0.000000 0.845258 0.000000
0.000000 0.844493 0.000000
0.000000 0.843636 0.000000
0.113877 0.842682 0.000000
0.259242 0.841622 0.000000
0.365228 0.840380 0.000000
0.462422 0.838837 0.000000
0.557176 0.836912 0.000000
0.652696 0.834497 0.000000
0.751052 0.831455 0.000000
0.853824 0.827606 0.000000
0.959345 0.822981 0.000000
1.000000 0.819811 0.000000
1.000000 0.820599 0.000000
1.000000 0.825076 0.000000
1.000000 0.831705 0.000000
1.000000 0.839502 0.000000
1.000000 0.848111 0.000000
1.000000 0.857414 0.000000
1.000000 0.867328 0.000000
1.000000 0.877745 0.000000
0.000000 0.931212 0.000000
0.000000 0.931188 0.000000
0.000000 0.931116 0.000000
0.000000 0.930994 0.000000
0.000000 0.930822 0.000000
0.000000 0.930597 0.000000
0.000000 0.930317 0.000000
0.000000 0.929979 0.000000
0.000000 0.929581 0.000000
0.000000 0.929118 0.000000
0.000000 0.928585 0.000000
0.000000 0.927979 0.000000
0.000000 0.927293 0.000000
0.000000 0.926524 0.000000
0.000000 0.925664 0.000000
0.000000 0.924709 0.000000
0.090505 0.923651 0.000000
0.265747 0.922413 0.000000
0.390157 0.920878 0.000000
0.501170 0.918967 0.000000
0.608020 0.916574 0.000000
0.714952 0.913565 0.000000
0.824555 0.909761 0.000000
0.933736 0.905319 0.000000
1.000000 0.902440 0.000000
1.000000 0.903040 0.000000
1.000000 0.906598 0.000000
1.000000 0.911739 0.000000
1.000000 0.917631 0.000000
1.000000 0.923954 0.000000
1.000000 0.930573 0.000000
1.000000 0.937381 0.000000
1.000000 0.944264 0.000000
0.000000 1.000000 0.000000
0.000000 1.000000 0.000000
0.000000 1.000000 0.000000
0.000000 1.000000 0.000000
0.000000 1.000000 0.000000
0.000000 1.000000 0.000000
0.000000 1.000000 0.000000
0.000000 1.000000 0.000000
0.000000 1.000000 0.000000
0.000000 1.000000 0.000000
0.000000 1.000000 0.000000
0.000000 0.999311 0.000000
0.000000 0.998273 0.000000
0.000000 0.997125 0.000000
0.000000 0.995862 0.000000
0.000000 0.994478 0.000000
0.000000 0.992969 0.000000
0.134969 0.991231 0.000000
0.314631 0.989111 0.000000
0.448085 0.986518 0.000000
0.568487 0.983334 0.000000
0.684964 0.979411 0.000000
0.801864 0.974558 0.000000
0.914036 0.969088 0.000000
0.995275 0.965165 0.000000
1.000000 0.964235 0.000000
1.000000 0.965614 0.000000
1.000000 0.968083 0.000000
1.000000 0.970957 0.000000
1.000000 0.973986 0.000000
1.000000 0.977076 0.000000
1.000000 0.980163 0.000000
1.000000 0.983188 0.000000
0.000000 1.000000 0.000000
0.000000 1.000000 0.000000
0.000000 1.000000 0.000000
0.000000 1.000000 0.000000
0.000000 1.000000 0.000000
0.000000 1.000000 0.000000
0.000000 1.000000 0.000000
0.000000 1.000000 0.000000
0.000000 1.000000 0.000000
0.000000 1.000000 0.000000
0.000000 1.000000 0.000000
0.000000 1.000000 0.000000
0.000000 1.000000 0.000000
0.000000 1.000000 0.000000
0.000000 1.000000 0.000000
0.000000 1.000000 0.000000
0.000000 1.000000 0.000000
0.041840 1.000000 0.000000
0.280067 1.000000 0.000000
0.428011 1.000000 0.000000
0.556296 1.000000 0.000000
0.678164 1.000000 0.000000
0.799076 1.000000 0.000000
0.910765 1.000000 0.000000
0.987561 0.995672 0.000000
1.000000 0.993624 0.000000
1.000000 0.993471 0.000000
1.000000 0.994122 0.000000
1.000000 0.995016 0.000000
1.000000 0.995968 0.000000
1.000000 0.996926 0.000000
1.000000 0.997866 0.000000
1.000000 0.998770 0.000000
0.000000 1.000000 0.000000
0.000000 1.000000 0.000000
0.000000 1.000000 0.000000
0.000000 1.000000 0.000000
0.000000 1.000000 0.000000
0.000000 1.000000 0.000000
0.000000 1.000000 0.000000
0.000000 1.000000 0.000000
0.000000 1.000000 0.000000
0.000000 1.000000 0.000000
0.000000 1.000000 0.000000
0.000000 1.000000 0.000000
0.000000 1.000000 0.000000
0.000000 1.000000 0.000000
0.000000 1.000000 0.000000
0.000000 1.000000 0.000000
0.000000 1.000000 0.000000
0.058486 1.000000 0.000000
0.291190 1.000000 0.000000
0.439015 1.000000 0.000000
0.567876 1.000000 0.000000
0.690506 1.000000 0.000000
0.811883 1.000000 0.000000
0.919721 1.000000 0.000000
0.990154 1.000000 0.000000
1.000000 1.000000 0.000000
